%
(Header)
(Generated by gcodetools from Inkscape.)
(Using default header. To add your own header create file "header" in the output dir.)
M3
(Header end.)
G21 (All units in mm)

(Start cutting path id: path7443)
(Change tool to Default tool)

S000 (---Laser 0% OFF) 
 G00 Z 10.0000
G00 X 145.2402 Y 2.7573

S000 (---Laser 0% OFF) 
 G01 F1000 Z -0.1250  (Penetrate)
S100	(---Laser 100% ON)
G01 F1000 X 145.2402 Y 7.1388 Z -0.1250  
G01 F1000 X 147.4055 Y 7.1388 Z -0.1250
G01 F1000 X 145.2402 Y 7.1388 Z -0.1250
G01 F1000 X 145.2402 Y 5.0115 Z -0.1250
G01 F1000 X 147.1007 Y 5.0115 Z -0.1250
G01 F1000 X 145.2402 Y 5.0115 Z -0.1250
G01 F1000 X 145.2402 Y 2.7573 Z -0.1250
G01 F1000 X 147.4055 Y 2.7573 Z -0.1250
G01 F1000 X 145.2402 Y 2.7573 Z -0.1250
S000 (---Laser 0% OFF) 
 G00 Z 10.0000

(End cutting path id: path7443)


(Start cutting path id: path7441)
(Change tool to Default tool)

S000 (---Laser 0% OFF) 
 G00 Z 10.0000
G00 X 142.1892 Y 2.7573

S000 (---Laser 0% OFF) 
 G01 F1000 Z -0.1250  (Penetrate)
S100	(---Laser 100% ON)
G01 F1000 X 142.1892 Y 7.1388 Z -0.1250  
G01 F1000 X 144.3863 Y 2.7573 Z -0.1250
G01 F1000 X 144.3863 Y 7.1388 Z -0.1250
G01 F1000 X 144.3863 Y 2.7573 Z -0.1250
G01 F1000 X 142.1892 Y 7.1388 Z -0.1250
G01 F1000 X 142.1892 Y 2.7573 Z -0.1250
S000 (---Laser 0% OFF) 
 G00 Z 10.0000

(End cutting path id: path7441)


(Start cutting path id: path7439)
(Change tool to Default tool)

S000 (---Laser 0% OFF) 
 G00 Z 10.0000
G00 X 141.4242 Y 3.2462

S000 (---Laser 0% OFF) 
 G01 F1000 Z -0.1250  (Penetrate)
S100	(---Laser 100% ON)
G02 F1000 X 141.3600 Y 3.0848 Z -0.1250 I -0.2349 J 0.0000  
G02 F1000 X 141.0940 Y 2.8970 Z -0.1250 I -0.6000 J 0.5673
G02 F1000 X 140.7617 Y 2.7983 Z -0.1250 I -0.5806 J 1.3460
G02 F1000 X 140.2812 Y 2.7573 Z -0.1250 I -0.4805 J 2.7956
G02 F1000 X 139.8005 Y 2.7980 Z -0.1250 I 0.0000 J 2.8593
G02 F1000 X 139.4621 Y 2.8970 Z -0.1250 I 0.2569 J 1.5061
G02 F1000 X 139.2018 Y 3.0841 Z -0.1250 I 0.3321 J 0.7364
G02 F1000 X 139.1382 Y 3.2462 Z -0.1250 I 0.1748 J 0.1621
G01 F1000 X 139.1382 Y 7.1197 Z -0.1250
G01 F1000 X 139.1382 Y 3.2462 Z -0.1250
G03 F1000 X 139.2018 Y 3.0841 Z -0.1250 I 0.2384 J 0.0000
G03 F1000 X 139.4621 Y 2.8970 Z -0.1250 I 0.5924 J 0.5493
G03 F1000 X 139.8005 Y 2.7980 Z -0.1250 I 0.5953 J 1.4071
G03 F1000 X 140.2812 Y 2.7573 Z -0.1250 I 0.4807 J 2.8186
G03 F1000 X 140.7617 Y 2.7983 Z -0.1250 I -0.0000 J 2.8365
G03 F1000 X 141.0940 Y 2.8970 Z -0.1250 I -0.2483 J 1.4447
G03 F1000 X 141.3600 Y 3.0848 Z -0.1250 I -0.3340 J 0.7551
G03 F1000 X 141.4242 Y 3.2462 Z -0.1250 I -0.1707 J 0.1614
G01 F1000 X 141.4242 Y 7.1197 Z -0.1250
G01 F1000 X 141.4242 Y 3.2462 Z -0.1250
S000 (---Laser 0% OFF) 
 G00 Z 10.0000

(End cutting path id: path7439)


(Start cutting path id: path7437)
(Change tool to Default tool)

S000 (---Laser 0% OFF) 
 G00 Z 10.0000
G00 X 136.0872 Y 3.5574

S000 (---Laser 0% OFF) 
 G01 F1000 Z -0.1250  (Penetrate)
S100	(---Laser 100% ON)
G01 F1000 X 136.0872 Y 3.2462 Z -0.1250  
G03 F1000 X 136.1508 Y 3.0841 Z -0.1250 I 0.2384 J -0.0000
G03 F1000 X 136.4111 Y 2.8970 Z -0.1250 I 0.5924 J 0.5493
G03 F1000 X 136.7495 Y 2.7980 Z -0.1250 I 0.5953 J 1.4071
G03 F1000 X 137.2302 Y 2.7573 Z -0.1250 I 0.4807 J 2.8186
G03 F1000 X 137.7107 Y 2.7983 Z -0.1250 I -0.0000 J 2.8365
G03 F1000 X 138.0430 Y 2.8970 Z -0.1250 I -0.2483 J 1.4447
G03 F1000 X 138.3090 Y 3.0848 Z -0.1250 I -0.3340 J 0.7551
G03 F1000 X 138.3732 Y 3.2462 Z -0.1250 I -0.1707 J 0.1614
G01 F1000 X 138.3732 Y 7.1197 Z -0.1250
G01 F1000 X 138.3732 Y 3.2462 Z -0.1250
G02 F1000 X 138.3090 Y 3.0848 Z -0.1250 I -0.2349 J -0.0000
G02 F1000 X 138.0430 Y 2.8970 Z -0.1250 I -0.6000 J 0.5673
G02 F1000 X 137.7107 Y 2.7983 Z -0.1250 I -0.5806 J 1.3460
G02 F1000 X 137.2302 Y 2.7573 Z -0.1250 I -0.4805 J 2.7956
G02 F1000 X 136.7495 Y 2.7980 Z -0.1250 I -0.0000 J 2.8593
G02 F1000 X 136.4111 Y 2.8970 Z -0.1250 I 0.2569 J 1.5061
G02 F1000 X 136.1508 Y 3.0841 Z -0.1250 I 0.3321 J 0.7364
G02 F1000 X 136.0872 Y 3.2462 Z -0.1250 I 0.1748 J 0.1621
G01 F1000 X 136.0872 Y 3.5574 Z -0.1250
S000 (---Laser 0% OFF) 
 G00 Z 10.0000

(End cutting path id: path7437)


(Start cutting path id: path7365)
(Change tool to Default tool)

S000 (---Laser 0% OFF) 
 G00 Z 10.0000
G00 X 116.2909 Y 23.7621

S000 (---Laser 0% OFF) 
 G01 F1000 Z -0.1250  (Penetrate)
S100	(---Laser 100% ON)
G01 F1000 X 113.5934 Y 27.2148 Z -0.1250  
G01 F1000 X 115.2997 Y 28.5479 Z -0.1250
G01 F1000 X 113.5934 Y 27.2148 Z -0.1250
G01 F1000 X 114.9031 Y 25.5385 Z -0.1250
G01 F1000 X 116.3692 Y 26.6840 Z -0.1250
G01 F1000 X 114.9031 Y 25.5385 Z -0.1250
G01 F1000 X 116.2909 Y 23.7621 Z -0.1250
G01 F1000 X 117.9972 Y 25.0953 Z -0.1250
G01 F1000 X 116.2909 Y 23.7621 Z -0.1250
S000 (---Laser 0% OFF) 
 G00 Z 10.0000

(End cutting path id: path7365)


(Start cutting path id: path7363)
(Change tool to Default tool)

S000 (---Laser 0% OFF) 
 G00 Z 10.0000
G00 X 113.4039 Y 22.5219

S000 (---Laser 0% OFF) 
 G01 F1000 Z -0.1250  (Penetrate)
S100	(---Laser 100% ON)
G01 F1000 X 113.5955 Y 22.2767 Z -0.1250  
G03 F1000 X 113.7454 Y 22.1881 Z -0.1250 I 0.1879 J 0.1468
G03 F1000 X 114.0657 Y 22.2009 Z -0.1250 I 0.1286 J 0.7975
G03 F1000 X 114.3933 Y 22.3312 Z -0.1250 I -0.3972 J 1.4753
G03 F1000 X 114.7972 Y 22.5951 Z -0.1250 I -1.3565 J 2.5171
G03 F1000 X 115.1506 Y 22.9232 Z -0.1250 I -1.7464 J 2.2352
G03 F1000 X 115.3517 Y 23.2056 Z -0.1250 I -1.0851 J 0.9856
G03 F1000 X 115.4456 Y 23.5174 Z -0.1250 I -0.7281 J 0.3894
G03 F1000 X 115.3968 Y 23.6841 Z -0.1250 I -0.2339 J 0.0221
G01 F1000 X 114.6093 Y 24.7127 Z -0.1250
G03 F1000 X 114.2105 Y 24.8868 Z -0.1250 I -0.3645 J -0.2912
G03 F1000 X 113.5502 Y 24.6347 Z -0.1250 I 0.0905 J -1.2276
G02 F1000 X 112.8506 Y 24.1228 Z -0.1250 I -10.8926 J 14.1537
G02 F1000 X 112.7094 Y 24.0503 Z -0.1250 I -0.3416 J 0.4916
G02 F1000 X 112.3364 Y 24.0109 Z -0.1250 I -0.2824 J 0.8878
G02 F1000 X 112.1685 Y 24.1031 Z -0.1250 I 0.0236 J 0.2419
G01 F1000 X 111.5000 Y 24.9588 Z -0.1250
G02 F1000 X 111.4513 Y 25.1251 Z -0.1250 I 0.1849 J 0.1444
G02 F1000 X 111.5441 Y 25.4284 Z -0.1250 I 0.7817 J -0.0734
G02 F1000 X 111.7476 Y 25.7188 Z -0.1250 I 1.3061 J -0.6986
G02 F1000 X 112.0997 Y 26.0478 Z -0.1250 I 2.0356 J -1.8259
G02 F1000 X 112.5040 Y 26.3095 Z -0.1250 I 1.6701 J -2.1376
G02 F1000 X 112.8301 Y 26.4331 Z -0.1250 I 0.6634 J -1.2575
G02 F1000 X 113.1517 Y 26.4527 Z -0.1250 I 0.2088 J -0.7754
G02 F1000 X 113.3014 Y 26.3662 Z -0.1250 I -0.0325 J -0.2289
G01 F1000 X 113.4929 Y 26.1210 Z -0.1250
G01 F1000 X 113.3014 Y 26.3662 Z -0.1250
G03 F1000 X 113.1517 Y 26.4527 Z -0.1250 I -0.1822 J -0.1423
G03 F1000 X 112.8301 Y 26.4331 Z -0.1250 I -0.1129 J -0.7951
G03 F1000 X 112.5040 Y 26.3095 Z -0.1250 I 0.3373 J -1.3811
G03 F1000 X 112.0997 Y 26.0478 Z -0.1250 I 1.2657 J -2.3993
G03 F1000 X 111.7476 Y 25.7188 Z -0.1250 I 1.6835 J -2.1548
G03 F1000 X 111.5441 Y 25.4284 Z -0.1250 I 1.1027 J -0.9890
G03 F1000 X 111.4513 Y 25.1251 Z -0.1250 I 0.6889 J -0.3766
G03 F1000 X 111.5000 Y 24.9588 Z -0.1250 I 0.2336 J -0.0219
G01 F1000 X 112.1685 Y 24.1031 Z -0.1250
G03 F1000 X 112.3364 Y 24.0109 Z -0.1250 I 0.1915 J 0.1496
G03 F1000 X 112.7094 Y 24.0503 Z -0.1250 I 0.0906 J 0.9272
G03 F1000 X 112.8506 Y 24.1228 Z -0.1250 I -0.2005 J 0.5641
G03 F1000 X 113.5502 Y 24.6347 Z -0.1250 I -10.1930 J 14.6655
G02 F1000 X 114.2105 Y 24.8868 Z -0.1250 I 0.7508 J -0.9754
G02 F1000 X 114.6093 Y 24.7127 Z -0.1250 I 0.0343 J -0.4653
G01 F1000 X 115.3968 Y 23.6841 Z -0.1250
G02 F1000 X 115.4456 Y 23.5174 Z -0.1250 I -0.1851 J -0.1446
G02 F1000 X 115.3517 Y 23.2056 Z -0.1250 I -0.8220 J 0.0776
G02 F1000 X 115.1506 Y 22.9232 Z -0.1250 I -1.2862 J 0.7032
G02 F1000 X 114.7972 Y 22.5951 Z -0.1250 I -2.0997 J 1.9071
G02 F1000 X 114.3933 Y 22.3312 Z -0.1250 I -1.7604 J 2.2532
G02 F1000 X 114.0657 Y 22.2009 Z -0.1250 I -0.7248 J 1.3450
G02 F1000 X 113.7454 Y 22.1881 Z -0.1250 I -0.1917 J 0.7848
G02 F1000 X 113.5955 Y 22.2767 Z -0.1250 I 0.0380 J 0.2354
G01 F1000 X 113.4039 Y 22.5219 Z -0.1250
S000 (---Laser 0% OFF) 
 G00 Z 10.0000

(End cutting path id: path7363)


(Start cutting path id: path7361)
(Change tool to Default tool)

S000 (---Laser 0% OFF) 
 G00 Z 10.0000
G00 X 109.4888 Y 18.4477

S000 (---Laser 0% OFF) 
 G01 F1000 Z -0.1250  (Penetrate)
S100	(---Laser 100% ON)
G01 F1000 X 106.7913 Y 21.9004 Z -0.1250  
G01 F1000 X 108.1205 Y 20.1991 Z -0.1250
G01 F1000 X 109.9119 Y 21.5987 Z -0.1250
G01 F1000 X 108.5826 Y 23.3000 Z -0.1250
G01 F1000 X 111.2802 Y 19.8473 Z -0.1250
G01 F1000 X 109.9119 Y 21.5987 Z -0.1250
G01 F1000 X 108.1205 Y 20.1991 Z -0.1250
G01 F1000 X 109.4888 Y 18.4477 Z -0.1250
S000 (---Laser 0% OFF) 
 G00 Z 10.0000

(End cutting path id: path7361)


(Start cutting path id: path7359)
(Change tool to Default tool)

S000 (---Laser 0% OFF) 
 G00 Z 10.0000
G00 X 108.4031 Y 18.6149

S000 (---Laser 0% OFF) 
 G01 F1000 Z -0.1250  (Penetrate)
S100	(---Laser 100% ON)
G01 F1000 X 108.5947 Y 18.3697 Z -0.1250  
G02 F1000 X 108.6435 Y 18.2030 Z -0.1250 I -0.1851 J -0.1446
G02 F1000 X 108.5495 Y 17.8912 Z -0.1250 I -0.8220 J 0.0776
G02 F1000 X 108.3529 Y 17.6130 Z -0.1250 I -1.2315 J 0.6617
G02 F1000 X 107.9950 Y 17.2807 Z -0.1250 I -2.1263 J 1.9313
G02 F1000 X 107.5861 Y 17.0135 Z -0.1250 I -1.7827 J 2.2817
G02 F1000 X 107.2635 Y 16.8865 Z -0.1250 I -0.6916 J 1.2834
G02 F1000 X 106.9474 Y 16.8713 Z -0.1250 I -0.1941 J 0.7417
G02 F1000 X 106.7933 Y 16.9623 Z -0.1250 I 0.0390 J 0.2419
G01 F1000 X 104.6979 Y 19.6444 Z -0.1250
G02 F1000 X 104.6492 Y 19.8107 Z -0.1250 I 0.1849 J 0.1444
G02 F1000 X 104.7419 Y 20.1140 Z -0.1250 I 0.7817 J -0.0734
G02 F1000 X 104.9499 Y 20.4086 Z -0.1250 I 1.3627 J -0.7412
G02 F1000 X 105.2975 Y 20.7334 Z -0.1250 I 2.0098 J -1.8027
G02 F1000 X 105.6917 Y 20.9884 Z -0.1250 I 1.6278 J -2.0835
G02 F1000 X 106.0279 Y 21.1187 Z -0.1250 I 0.7280 J -1.3801
G02 F1000 X 106.3537 Y 21.1359 Z -0.1250 I 0.2068 J -0.8208
G02 F1000 X 106.4992 Y 21.0518 Z -0.1250 I -0.0316 J -0.2225
G01 F1000 X 106.6908 Y 20.8066 Z -0.1250
G01 F1000 X 106.4992 Y 21.0518 Z -0.1250
G03 F1000 X 106.3537 Y 21.1359 Z -0.1250 I -0.1771 J -0.1384
G03 F1000 X 106.0279 Y 21.1187 Z -0.1250 I -0.1190 J -0.8381
G03 F1000 X 105.6917 Y 20.9884 Z -0.1250 I 0.3918 J -1.5103
G03 F1000 X 105.2975 Y 20.7334 Z -0.1250 I 1.2337 J -2.3385
G03 F1000 X 104.9499 Y 20.4086 Z -0.1250 I 1.6622 J -2.1275
G03 F1000 X 104.7419 Y 20.1140 Z -0.1250 I 1.1548 J -1.0358
G03 F1000 X 104.6492 Y 19.8107 Z -0.1250 I 0.6889 J -0.3766
G03 F1000 X 104.6979 Y 19.6444 Z -0.1250 I 0.2336 J -0.0219
G01 F1000 X 106.7933 Y 16.9623 Z -0.1250
G03 F1000 X 106.9474 Y 16.8713 Z -0.1250 I 0.1930 J 0.1508
G03 F1000 X 107.2635 Y 16.8865 Z -0.1250 I 0.1221 J 0.7569
G03 F1000 X 107.5861 Y 17.0135 Z -0.1250 I -0.3691 J 1.4104
G03 F1000 X 107.9950 Y 17.2807 Z -0.1250 I -1.3737 J 2.5490
G03 F1000 X 108.3529 Y 17.6130 Z -0.1250 I -1.7685 J 2.2635
G03 F1000 X 108.5495 Y 17.8912 Z -0.1250 I -1.0349 J 0.9399
G03 F1000 X 108.6435 Y 18.2030 Z -0.1250 I -0.7281 J 0.3894
G03 F1000 X 108.5947 Y 18.3697 Z -0.1250 I -0.2339 J 0.0221
G01 F1000 X 108.4031 Y 18.6149 Z -0.1250
S000 (---Laser 0% OFF) 
 G00 Z 10.0000

(End cutting path id: path7359)


(Start cutting path id: path7357)
(Change tool to Default tool)

S000 (---Laser 0% OFF) 
 G00 Z 10.0000
G00 X 104.1296 Y 17.0972

S000 (---Laser 0% OFF) 
 G01 F1000 Z -0.1250  (Penetrate)
S100	(---Laser 100% ON)
G03 F1000 X 104.5994 Y 17.5708 Z -0.1250 I -3.6849 J 4.1245  
G03 F1000 X 104.7396 Y 17.7914 Z -0.1250 I -0.6382 J 0.5608
G03 F1000 X 104.7881 Y 18.0337 Z -0.1250 I -0.5929 J 0.2446
G03 F1000 X 104.7410 Y 18.1712 Z -0.1250 I -0.2221 J 0.0008
G01 F1000 X 104.0100 Y 19.1070 Z -0.1250
G03 F1000 X 103.8603 Y 19.1926 Z -0.1250 I -0.1796 J -0.1403
G03 F1000 X 103.5337 Y 19.1700 Z -0.1250 I -0.1077 J -0.8143
G03 F1000 X 103.2024 Y 19.0432 Z -0.1250 I 0.3660 J -1.4529
G03 F1000 X 102.8083 Y 18.7885 Z -0.1250 I 1.2206 J -2.3214
G01 F1000 X 101.9926 Y 18.1513 Z -0.1250
G01 F1000 X 103.3140 Y 16.4600 Z -0.1250
G01 F1000 X 104.1296 Y 17.0972 Z -0.1250
S000 (---Laser 0% OFF) 
 G00 Z 10.0000

(Change tool to Default tool)

S000 (---Laser 0% OFF) 
 G00 Z 10.0000
G00 X 104.6901 Y 14.6986

S000 (---Laser 0% OFF) 
 G01 F1000 Z -0.1250  (Penetrate)
S100	(---Laser 100% ON)
G01 F1000 X 101.9926 Y 18.1513 Z -0.1250  
G01 F1000 X 102.8083 Y 18.7885 Z -0.1250
G02 F1000 X 103.2024 Y 19.0432 Z -0.1250 I 1.6147 J -2.0667
G02 F1000 X 103.5337 Y 19.1700 Z -0.1250 I 0.6973 J -1.3262
G02 F1000 X 103.8603 Y 19.1926 Z -0.1250 I 0.2189 J -0.7916
G02 F1000 X 104.0100 Y 19.1070 Z -0.1250 I -0.0299 J -0.2259
G01 F1000 X 104.7410 Y 18.1712 Z -0.1250
G02 F1000 X 104.7881 Y 18.0337 Z -0.1250 I -0.1750 J -0.1367
G02 F1000 X 104.7396 Y 17.7914 Z -0.1250 I -0.6413 J 0.0024
G02 F1000 X 104.5994 Y 17.5708 Z -0.1250 I -0.7785 J 0.3402
G02 F1000 X 104.1296 Y 17.0972 Z -0.1250 I -4.1546 J 3.6509
G02 F1000 X 104.7032 Y 17.4361 Z -0.1250 I 2.9425 J -4.3263
G02 F1000 X 104.9547 Y 17.5162 Z -0.1250 I 0.3716 J -0.7319
G02 F1000 X 105.1978 Y 17.5086 Z -0.1250 I 0.1027 J -0.6067
G02 F1000 X 105.3196 Y 17.4307 Z -0.1250 I -0.0497 J -0.2120
G01 F1000 X 106.4065 Y 16.0396 Z -0.1250
G01 F1000 X 105.3196 Y 17.4307 Z -0.1250
G03 F1000 X 105.1978 Y 17.5086 Z -0.1250 I -0.1715 J -0.1340
G03 F1000 X 104.9547 Y 17.5162 Z -0.1250 I -0.1404 J -0.5991
G03 F1000 X 104.7032 Y 17.4361 Z -0.1250 I 0.1202 J -0.8120
G03 F1000 X 104.1296 Y 17.0972 Z -0.1250 I 2.3689 J -4.6651
G01 F1000 X 103.3140 Y 16.4600 Z -0.1250
G01 F1000 X 104.6901 Y 14.6986 Z -0.1250
S000 (---Laser 0% OFF) 
 G00 Z 10.0000

(End cutting path id: path7357)


(Start cutting path id: path7355)
(Change tool to Default tool)

S000 (---Laser 0% OFF) 
 G00 Z 10.0000
G00 X 101.5086 Y 14.5579

S000 (---Laser 0% OFF) 
 G01 F1000 Z -0.1250  (Penetrate)
S100	(---Laser 100% ON)
G01 F1000 X 100.4391 Y 16.9375 Z -0.1250  
G01 F1000 X 102.5194 Y 15.3476 Z -0.1250
G01 F1000 X 101.5086 Y 14.5579 Z -0.1250
S000 (---Laser 0% OFF) 
 G00 Z 10.0000

(Change tool to Default tool)

S000 (---Laser 0% OFF) 
 G00 Z 10.0000
G00 X 104.0373 Y 14.1886

S000 (---Laser 0% OFF) 
 G01 F1000 Z -0.1250  (Penetrate)
S100	(---Laser 100% ON)
G01 F1000 X 100.4391 Y 16.9375 Z -0.1250  
G01 F1000 X 102.2859 Y 12.8203 Z -0.1250
G01 F1000 X 101.5086 Y 14.5579 Z -0.1250
G01 F1000 X 102.5194 Y 15.3476 Z -0.1250
G01 F1000 X 104.0373 Y 14.1886 Z -0.1250
S000 (---Laser 0% OFF) 
 G00 Z 10.0000

(End cutting path id: path7355)


(Start cutting path id: path7353)
(Change tool to Default tool)

S000 (---Laser 0% OFF) 
 G00 Z 10.0000
G00 X 99.0803 Y 10.3158

S000 (---Laser 0% OFF) 
 G01 F1000 Z -0.1250  (Penetrate)
S100	(---Laser 100% ON)
G01 F1000 X 96.3828 Y 13.7684 Z -0.1250  
G01 F1000 X 100.2713 Y 11.2462 Z -0.1250
G01 F1000 X 98.7597 Y 15.6254 Z -0.1250
G01 F1000 X 101.4572 Y 12.1728 Z -0.1250
G01 F1000 X 98.7597 Y 15.6254 Z -0.1250
G01 F1000 X 100.2713 Y 11.2462 Z -0.1250
G01 F1000 X 96.3828 Y 13.7684 Z -0.1250
G01 F1000 X 99.0803 Y 10.3158 Z -0.1250
S000 (---Laser 0% OFF) 
 G00 Z 10.0000

(End cutting path id: path7353)


(Start cutting path id: path7367)
(Change tool to Default tool)

S000 (---Laser 0% OFF) 
 G00 Z 10.0000
G00 X 118.1229 Y 28.0541

S000 (---Laser 0% OFF) 
 G01 F1000 Z -0.1250  (Penetrate)
S100	(---Laser 100% ON)
G03 F1000 X 118.4718 Y 28.3711 Z -0.1250 I -1.9559 J 2.5035  
G03 F1000 X 118.6841 Y 28.6457 Z -0.1250 I -1.2500 J 1.1858
G03 F1000 X 118.7909 Y 28.9483 Z -0.1250 I -0.6652 J 0.4049
G03 F1000 X 118.7460 Y 29.1131 Z -0.1250 I -0.2187 J 0.0290
G01 F1000 X 118.0149 Y 30.0488 Z -0.1250
G03 F1000 X 117.8652 Y 30.1345 Z -0.1250 I -0.1796 J -0.1403
G03 F1000 X 117.5386 Y 30.1118 Z -0.1250 I -0.1077 J -0.8143
G03 F1000 X 117.2074 Y 29.9851 Z -0.1250 I 0.3660 J -1.4529
G03 F1000 X 116.8132 Y 29.7304 Z -0.1250 I 1.2206 J -2.3214
G01 F1000 X 115.9976 Y 29.0932 Z -0.1250
G01 F1000 X 117.3073 Y 27.4169 Z -0.1250
G01 F1000 X 118.1229 Y 28.0541 Z -0.1250
S000 (---Laser 0% OFF) 
 G00 Z 10.0000

(Change tool to Default tool)

S000 (---Laser 0% OFF) 
 G00 Z 10.0000
G00 X 118.6951 Y 25.6405

S000 (---Laser 0% OFF) 
 G01 F1000 Z -0.1250  (Penetrate)
S100	(---Laser 100% ON)
G01 F1000 X 115.9976 Y 29.0932 Z -0.1250  
G01 F1000 X 116.8132 Y 29.7304 Z -0.1250
G02 F1000 X 117.2074 Y 29.9851 Z -0.1250 I 1.6147 J -2.0667
G02 F1000 X 117.5386 Y 30.1118 Z -0.1250 I 0.6973 J -1.3262
G02 F1000 X 117.8652 Y 30.1345 Z -0.1250 I 0.2189 J -0.7916
G02 F1000 X 118.0149 Y 30.0488 Z -0.1250 I -0.0299 J -0.2259
G01 F1000 X 118.7460 Y 29.1131 Z -0.1250
G02 F1000 X 118.7909 Y 28.9483 Z -0.1250 I -0.1739 J -0.1358
G02 F1000 X 118.6841 Y 28.6457 Z -0.1250 I -0.7720 J 0.1023
G02 F1000 X 118.4718 Y 28.3711 Z -0.1250 I -1.4623 J 0.9112
G02 F1000 X 118.1229 Y 28.0541 Z -0.1250 I -2.3048 J 2.1865
G01 F1000 X 117.3073 Y 27.4169 Z -0.1250
G01 F1000 X 118.6951 Y 25.6405 Z -0.1250
S000 (---Laser 0% OFF) 
 G00 Z 10.0000

(End cutting path id: path7367)


(Start cutting path id: path7369)
(Change tool to Default tool)

S000 (---Laser 0% OFF) 
 G00 Z 10.0000
G00 X 119.2675 Y 31.6479

S000 (---Laser 0% OFF) 
 G01 F1000 Z -0.1250  (Penetrate)
S100	(---Laser 100% ON)
G01 F1000 X 118.4018 Y 30.9716 Z -0.1250  
G01 F1000 X 120.1181 Y 32.3125 Z -0.1250
G01 F1000 X 119.2675 Y 31.6479 Z -0.1250
G01 F1000 X 121.9650 Y 28.1952 Z -0.1250
G01 F1000 X 119.2675 Y 31.6479 Z -0.1250
S000 (---Laser 0% OFF) 
 G00 Z 10.0000

(End cutting path id: path7369)


(Start cutting path id: path7371)
(Change tool to Default tool)

S000 (---Laser 0% OFF) 
 G00 Z 10.0000
G00 X 123.5035 Y 29.3973

S000 (---Laser 0% OFF) 
 G01 F1000 Z -0.1250  (Penetrate)
S100	(---Laser 100% ON)
G01 F1000 X 120.8060 Y 32.8499 Z -0.1250  
G01 F1000 X 122.5123 Y 34.1830 Z -0.1250
G01 F1000 X 120.8060 Y 32.8499 Z -0.1250
G01 F1000 X 122.1157 Y 31.1736 Z -0.1250
G01 F1000 X 123.5818 Y 32.3191 Z -0.1250
G01 F1000 X 122.1157 Y 31.1736 Z -0.1250
G01 F1000 X 123.5035 Y 29.3973 Z -0.1250
G01 F1000 X 125.2098 Y 30.7304 Z -0.1250
G01 F1000 X 123.5035 Y 29.3973 Z -0.1250
S000 (---Laser 0% OFF) 
 G00 Z 10.0000

(End cutting path id: path7371)


(Start cutting path id: path7373)
(Change tool to Default tool)

S000 (---Laser 0% OFF) 
 G00 Z 10.0000
G00 X 125.9077 Y 31.2756

S000 (---Laser 0% OFF) 
 G01 F1000 Z -0.1250  (Penetrate)
S100	(---Laser 100% ON)
G01 F1000 X 123.2102 Y 34.7283 Z -0.1250  
G01 F1000 X 127.0986 Y 32.2061 Z -0.1250
G01 F1000 X 125.5870 Y 36.5853 Z -0.1250
G01 F1000 X 128.2846 Y 33.1326 Z -0.1250
G01 F1000 X 125.5870 Y 36.5853 Z -0.1250
G01 F1000 X 127.0986 Y 32.2061 Z -0.1250
G01 F1000 X 123.2102 Y 34.7283 Z -0.1250
G01 F1000 X 125.9077 Y 31.2756 Z -0.1250
S000 (---Laser 0% OFF) 
 G00 Z 10.0000

(End cutting path id: path7373)


(Start cutting path id: path7375)
(Change tool to Default tool)

S000 (---Laser 0% OFF) 
 G00 Z 10.0000
G00 X 129.1133 Y 33.7801

S000 (---Laser 0% OFF) 
 G01 F1000 Z -0.1250  (Penetrate)
S100	(---Laser 100% ON)
G01 F1000 X 127.7372 Y 35.5415 Z -0.1250  
G01 F1000 X 128.5528 Y 36.1787 Z -0.1250
G02 F1000 X 129.1344 Y 36.5189 Z -0.1250 I 3.1524 J -4.7225
G02 F1000 X 129.3778 Y 36.5977 Z -0.1250 I 0.3708 J -0.7302
G02 F1000 X 129.6209 Y 36.5901 Z -0.1250 I 0.1027 J -0.6067
G02 F1000 X 129.7428 Y 36.5121 Z -0.1250 I -0.0497 J -0.2120
G01 F1000 X 130.5286 Y 35.5064 Z -0.1250
G02 F1000 X 130.5778 Y 35.3353 Z -0.1250 I -0.1875 J -0.1465
G02 F1000 X 130.4784 Y 35.0239 Z -0.1250 I -0.7975 J 0.0830
G02 F1000 X 130.2730 Y 34.7373 Z -0.1250 I -1.3507 J 0.7508
G02 F1000 X 129.9290 Y 34.4174 Z -0.1250 I -2.0325 J 1.8411
G01 F1000 X 129.1133 Y 33.7801 Z -0.1250
S000 (---Laser 0% OFF) 
 G00 Z 10.0000

(Change tool to Default tool)

S000 (---Laser 0% OFF) 
 G00 Z 10.0000
G00 X 126.4158 Y 37.2328

S000 (---Laser 0% OFF) 
 G01 F1000 Z -0.1250  (Penetrate)
S100	(---Laser 100% ON)
G01 F1000 X 129.1133 Y 33.7801 Z -0.1250  
G01 F1000 X 129.9290 Y 34.4174 Z -0.1250
G03 F1000 X 130.2730 Y 34.7373 Z -0.1250 I -1.6884 J 2.1610
G03 F1000 X 130.4784 Y 35.0239 Z -0.1250 I -1.1453 J 1.0375
G03 F1000 X 130.5778 Y 35.3353 Z -0.1250 I -0.6981 J 0.3943
G03 F1000 X 130.5286 Y 35.5064 Z -0.1250 I -0.2366 J 0.0246
G01 F1000 X 129.7428 Y 36.5121 Z -0.1250
G03 F1000 X 129.6209 Y 36.5901 Z -0.1250 I -0.1715 J -0.1340
G03 F1000 X 129.3778 Y 36.5977 Z -0.1250 I -0.1404 J -0.5991
G03 F1000 X 129.1344 Y 36.5189 Z -0.1250 I 0.1273 J -0.8089
G03 F1000 X 128.5528 Y 36.1787 Z -0.1250 I 2.5708 J -5.0626
G03 F1000 X 129.0182 Y 36.6482 Z -0.1250 I -3.6734 J 4.1064
G03 F1000 X 129.1628 Y 36.8729 Z -0.1250 I -0.6764 J 0.5944
G03 F1000 X 129.2113 Y 37.1151 Z -0.1250 I -0.5929 J 0.2446
G03 F1000 X 129.1642 Y 37.2527 Z -0.1250 I -0.2221 J 0.0008
G01 F1000 X 128.4332 Y 38.1884 Z -0.1250
G03 F1000 X 128.2876 Y 38.2717 Z -0.1250 I -0.1746 J -0.1364
G03 F1000 X 127.9568 Y 38.2514 Z -0.1250 I -0.1135 J -0.8579
G03 F1000 X 127.6204 Y 38.1214 Z -0.1250 I 0.3941 J -1.5194
G03 F1000 X 127.2314 Y 37.8700 Z -0.1250 I 1.2047 J -2.2912
G01 F1000 X 126.4158 Y 37.2328 Z -0.1250
S000 (---Laser 0% OFF) 
 G00 Z 10.0000

(Change tool to Default tool)

S000 (---Laser 0% OFF) 
 G00 Z 10.0000
G00 X 128.5528 Y 36.1787

S000 (---Laser 0% OFF) 
 G01 F1000 Z -0.1250  (Penetrate)
S100	(---Laser 100% ON)
G01 F1000 X 127.7372 Y 35.5415 Z -0.1250  
G01 F1000 X 126.4158 Y 37.2328 Z -0.1250
G01 F1000 X 127.2314 Y 37.8700 Z -0.1250
G02 F1000 X 127.6204 Y 38.1214 Z -0.1250 I 1.5937 J -2.0398
G02 F1000 X 127.9568 Y 38.2514 Z -0.1250 I 0.7305 J -1.3893
G02 F1000 X 128.2876 Y 38.2717 Z -0.1250 I 0.2173 J -0.8377
G02 F1000 X 128.4332 Y 38.1884 Z -0.1250 I -0.0291 J -0.2197
G01 F1000 X 129.1642 Y 37.2527 Z -0.1250
G02 F1000 X 129.2113 Y 37.1151 Z -0.1250 I -0.1750 J -0.1367
G02 F1000 X 129.1628 Y 36.8729 Z -0.1250 I -0.6413 J 0.0024
G02 F1000 X 129.0182 Y 36.6482 Z -0.1250 I -0.8211 J 0.3697
G02 F1000 X 128.5528 Y 36.1787 Z -0.1250 I -4.1387 J 3.6369
G01 F1000 X 128.5528 Y 36.1787 Z -0.1250
S000 (---Laser 0% OFF) 
 G00 Z 10.0000

(End cutting path id: path7375)


(Start cutting path id: path7377)
(Change tool to Default tool)

S000 (---Laser 0% OFF) 
 G00 Z 10.0000
G00 X 131.5175 Y 35.6585

S000 (---Laser 0% OFF) 
 G01 F1000 Z -0.1250  (Penetrate)
S100	(---Laser 100% ON)
G01 F1000 X 128.8200 Y 39.1112 Z -0.1250  
G01 F1000 X 130.5263 Y 40.4443 Z -0.1250
G01 F1000 X 128.8200 Y 39.1112 Z -0.1250
G01 F1000 X 130.1297 Y 37.4349 Z -0.1250
G01 F1000 X 131.5958 Y 38.5803 Z -0.1250
G01 F1000 X 130.1297 Y 37.4349 Z -0.1250
G01 F1000 X 131.5175 Y 35.6585 Z -0.1250
G01 F1000 X 133.2238 Y 36.9916 Z -0.1250
G01 F1000 X 131.5175 Y 35.6585 Z -0.1250
S000 (---Laser 0% OFF) 
 G00 Z 10.0000

(End cutting path id: path7377)


(Start cutting path id: path7379)
(Change tool to Default tool)

S000 (---Laser 0% OFF) 
 G00 Z 10.0000
G00 X 133.3612 Y 39.9355

S000 (---Laser 0% OFF) 
 G01 F1000 Z -0.1250  (Penetrate)
S100	(---Laser 100% ON)
G03 F1000 X 133.8309 Y 40.4090 Z -0.1250 I -3.6849 J 4.1245  
G03 F1000 X 133.9712 Y 40.6296 Z -0.1250 I -0.6382 J 0.5608
G03 F1000 X 134.0197 Y 40.8719 Z -0.1250 I -0.5929 J 0.2446
G03 F1000 X 133.9726 Y 41.0094 Z -0.1250 I -0.2221 J 0.0008
G01 F1000 X 133.2416 Y 41.9452 Z -0.1250
G03 F1000 X 133.0919 Y 42.0308 Z -0.1250 I -0.1796 J -0.1403
G03 F1000 X 132.7652 Y 42.0082 Z -0.1250 I -0.1077 J -0.8143
G03 F1000 X 132.4340 Y 41.8814 Z -0.1250 I 0.3660 J -1.4529
G03 F1000 X 132.0398 Y 41.6268 Z -0.1250 I 1.2206 J -2.3214
G01 F1000 X 131.2242 Y 40.9895 Z -0.1250
G01 F1000 X 132.5456 Y 39.2982 Z -0.1250
G01 F1000 X 133.3612 Y 39.9355 Z -0.1250
S000 (---Laser 0% OFF) 
 G00 Z 10.0000

(Change tool to Default tool)

S000 (---Laser 0% OFF) 
 G00 Z 10.0000
G00 X 133.9217 Y 37.5369

S000 (---Laser 0% OFF) 
 G01 F1000 Z -0.1250  (Penetrate)
S100	(---Laser 100% ON)
G01 F1000 X 131.2242 Y 40.9895 Z -0.1250  
G01 F1000 X 132.0398 Y 41.6268 Z -0.1250
G02 F1000 X 132.4340 Y 41.8814 Z -0.1250 I 1.6147 J -2.0667
G02 F1000 X 132.7652 Y 42.0082 Z -0.1250 I 0.6973 J -1.3262
G02 F1000 X 133.0919 Y 42.0308 Z -0.1250 I 0.2189 J -0.7916
G02 F1000 X 133.2416 Y 41.9452 Z -0.1250 I -0.0299 J -0.2259
G01 F1000 X 133.9726 Y 41.0094 Z -0.1250
G02 F1000 X 134.0197 Y 40.8719 Z -0.1250 I -0.1750 J -0.1367
G02 F1000 X 133.9712 Y 40.6296 Z -0.1250 I -0.6413 J 0.0024
G02 F1000 X 133.8309 Y 40.4090 Z -0.1250 I -0.7785 J 0.3402
G02 F1000 X 133.3612 Y 39.9355 Z -0.1250 I -4.1546 J 3.6509
G02 F1000 X 133.9348 Y 40.2743 Z -0.1250 I 2.9425 J -4.3263
G02 F1000 X 134.1862 Y 40.3544 Z -0.1250 I 0.3716 J -0.7319
G02 F1000 X 134.4293 Y 40.3468 Z -0.1250 I 0.1027 J -0.6067
G02 F1000 X 134.5512 Y 40.2689 Z -0.1250 I -0.0497 J -0.2120
G01 F1000 X 135.6381 Y 38.8778 Z -0.1250
G01 F1000 X 134.5512 Y 40.2689 Z -0.1250
G03 F1000 X 134.4293 Y 40.3468 Z -0.1250 I -0.1715 J -0.1340
G03 F1000 X 134.1862 Y 40.3544 Z -0.1250 I -0.1404 J -0.5991
G03 F1000 X 133.9348 Y 40.2743 Z -0.1250 I 0.1202 J -0.8120
G03 F1000 X 133.3612 Y 39.9355 Z -0.1250 I 2.3689 J -4.6651
G01 F1000 X 132.5456 Y 39.2982 Z -0.1250
G01 F1000 X 133.9217 Y 37.5369 Z -0.1250
S000 (---Laser 0% OFF) 
 G00 Z 10.0000

(End cutting path id: path7379)


(Start cutting path id: path7421)
(Change tool to Default tool)

S000 (---Laser 0% OFF) 
 G00 Z 10.0000
G00 X 112.1541 Y 52.1097

S000 (---Laser 0% OFF) 
 G01 F1000 Z -0.1250  (Penetrate)
S100	(---Laser 100% ON)
G01 F1000 X 110.2184 Y 53.2273 Z -0.1250  
G01 F1000 X 110.7359 Y 54.1236 Z -0.1250
G02 F1000 X 111.1477 Y 54.6569 Z -0.1250 I 4.6919 J -3.1977
G02 F1000 X 111.3439 Y 54.8211 Z -0.1250 I 0.6173 J -0.5381
G02 F1000 X 111.5722 Y 54.9052 Z -0.1250 I 0.3225 J -0.5241
G02 F1000 X 111.7144 Y 54.8786 Z -0.1250 I 0.0333 J -0.2151
G01 F1000 X 112.8197 Y 54.2404 Z -0.1250
G02 F1000 X 112.9294 Y 54.1002 Z -0.1250 I -0.1190 J -0.2060
G02 F1000 X 112.9539 Y 53.7743 Z -0.1250 I -0.7705 J -0.2218
G02 F1000 X 112.8709 Y 53.4315 Z -0.1250 I -1.5336 J 0.1902
G02 F1000 X 112.6717 Y 53.0060 Z -0.1250 I -2.5742 J 0.9457
G01 F1000 X 112.1541 Y 52.1097 Z -0.1250
S000 (---Laser 0% OFF) 
 G00 Z 10.0000

(Change tool to Default tool)

S000 (---Laser 0% OFF) 
 G00 Z 10.0000
G00 X 108.3597 Y 54.3004

S000 (---Laser 0% OFF) 
 G01 F1000 Z -0.1250  (Penetrate)
S100	(---Laser 100% ON)
G01 F1000 X 112.1541 Y 52.1097 Z -0.1250  
G01 F1000 X 112.6717 Y 53.0060 Z -0.1250
G03 F1000 X 112.8709 Y 53.4315 Z -0.1250 I -2.3750 J 1.3712
G03 F1000 X 112.9539 Y 53.7743 Z -0.1250 I -1.4506 J 0.5329
G03 F1000 X 112.9294 Y 54.1002 Z -0.1250 I -0.7950 J 0.1041
G03 F1000 X 112.8197 Y 54.2404 Z -0.1250 I -0.2286 J -0.0658
G01 F1000 X 111.7144 Y 54.8786 Z -0.1250
G03 F1000 X 111.5722 Y 54.9052 Z -0.1250 I -0.1088 J -0.1885
G03 F1000 X 111.3439 Y 54.8211 Z -0.1250 I 0.0943 J -0.6081
G03 F1000 X 111.1477 Y 54.6569 Z -0.1250 I 0.4211 J -0.7023
G03 F1000 X 110.7359 Y 54.1236 Z -0.1250 I 4.2801 J -3.7310
G03 F1000 X 110.9915 Y 54.7332 Z -0.1250 I -4.9442 J 2.4313
G03 F1000 X 111.0415 Y 54.9958 Z -0.1250 I -0.8498 J 0.2977
G03 F1000 X 110.9957 Y 55.2386 Z -0.1250 I -0.6413 J 0.0047
G03 F1000 X 110.9005 Y 55.3485 Z -0.1250 I -0.2062 J -0.0824
G01 F1000 X 109.8721 Y 55.9422 Z -0.1250
G03 F1000 X 109.7060 Y 55.9648 Z -0.1250 I -0.1108 J -0.1919
G03 F1000 X 109.4069 Y 55.8222 Z -0.1250 I 0.2162 J -0.8379
G03 F1000 X 109.1437 Y 55.5756 Z -0.1250 I 0.9346 J -1.2611
G03 F1000 X 108.8772 Y 55.1968 Z -0.1250 I 1.9753 J -1.6731
G01 F1000 X 108.3597 Y 54.3004 Z -0.1250
S000 (---Laser 0% OFF) 
 G00 Z 10.0000

(Change tool to Default tool)

S000 (---Laser 0% OFF) 
 G00 Z 10.0000
G00 X 110.7359 Y 54.1236

S000 (---Laser 0% OFF) 
 G01 F1000 Z -0.1250  (Penetrate)
S100	(---Laser 100% ON)
G01 F1000 X 110.2184 Y 53.2273 Z -0.1250  
G01 F1000 X 108.3597 Y 54.3004 Z -0.1250
G01 F1000 X 108.8772 Y 55.1968 Z -0.1250
G02 F1000 X 109.1437 Y 55.5756 Z -0.1250 I 2.2418 J -1.2943
G02 F1000 X 109.4069 Y 55.8222 Z -0.1250 I 1.1978 J -1.0145
G02 F1000 X 109.7060 Y 55.9648 Z -0.1250 I 0.5152 J -0.6953
G02 F1000 X 109.8721 Y 55.9422 Z -0.1250 I 0.0554 J -0.2146
G01 F1000 X 110.9005 Y 55.3485 Z -0.1250
G02 F1000 X 110.9957 Y 55.2386 Z -0.1250 I -0.1111 J -0.1924
G02 F1000 X 111.0415 Y 54.9958 Z -0.1250 I -0.5955 J -0.2381
G02 F1000 X 110.9915 Y 54.7332 Z -0.1250 I -0.8998 J 0.0352
G02 F1000 X 110.7359 Y 54.1236 Z -0.1250 I -5.1997 J 1.8217
G01 F1000 X 110.7359 Y 54.1236 Z -0.1250
S000 (---Laser 0% OFF) 
 G00 Z 10.0000

(End cutting path id: path7421)


(Start cutting path id: path7423)
(Change tool to Default tool)

S000 (---Laser 0% OFF) 
 G00 Z 10.0000
G00 X 113.6796 Y 54.7519

S000 (---Laser 0% OFF) 
 G01 F1000 Z -0.1250  (Penetrate)
S100	(---Laser 100% ON)
G01 F1000 X 109.8851 Y 56.9426 Z -0.1250  
G01 F1000 X 110.9678 Y 58.8179 Z -0.1250
G01 F1000 X 109.8851 Y 56.9426 Z -0.1250
G01 F1000 X 111.7274 Y 55.8790 Z -0.1250
G01 F1000 X 112.6577 Y 57.4903 Z -0.1250
G01 F1000 X 111.7274 Y 55.8790 Z -0.1250
G01 F1000 X 113.6796 Y 54.7519 Z -0.1250
G01 F1000 X 114.7623 Y 56.6271 Z -0.1250
G01 F1000 X 113.6796 Y 54.7519 Z -0.1250
S000 (---Laser 0% OFF) 
 G00 Z 10.0000

(End cutting path id: path7423)


(Start cutting path id: path7425)
(Change tool to Default tool)

S000 (---Laser 0% OFF) 
 G00 Z 10.0000
G00 X 113.7869 Y 59.4081

S000 (---Laser 0% OFF) 
 G01 F1000 Z -0.1250  (Penetrate)
S100	(---Laser 100% ON)
G03 F1000 X 114.0450 Y 60.0231 Z -0.1250 I -4.9616 J 2.4438  
G03 F1000 X 114.0924 Y 60.2802 Z -0.1250 I -0.8018 J 0.2809
G03 F1000 X 114.0466 Y 60.5230 Z -0.1250 I -0.6413 J 0.0047
G03 F1000 X 113.9515 Y 60.6329 Z -0.1250 I -0.2062 J -0.0824
G01 F1000 X 112.9231 Y 61.2266 Z -0.1250
G03 F1000 X 112.7522 Y 61.2499 Z -0.1250 I -0.1139 J -0.1974
G03 F1000 X 112.4579 Y 61.1066 Z -0.1250 I 0.2052 J -0.7953
G03 F1000 X 112.1982 Y 60.8650 Z -0.1250 I 0.8836 J -1.2100
G03 F1000 X 111.9282 Y 60.4812 Z -0.1250 I 2.0013 J -1.6951
G01 F1000 X 111.4106 Y 59.5849 Z -0.1250
G01 F1000 X 113.2694 Y 58.5117 Z -0.1250
G01 F1000 X 113.7869 Y 59.4081 Z -0.1250
S000 (---Laser 0% OFF) 
 G00 Z 10.0000

(Change tool to Default tool)

S000 (---Laser 0% OFF) 
 G00 Z 10.0000
G00 X 115.2051 Y 57.3941

S000 (---Laser 0% OFF) 
 G01 F1000 Z -0.1250  (Penetrate)
S100	(---Laser 100% ON)
G01 F1000 X 111.4106 Y 59.5849 Z -0.1250  
G01 F1000 X 111.9282 Y 60.4812 Z -0.1250
G02 F1000 X 112.1982 Y 60.8650 Z -0.1250 I 2.2714 J -1.3114
G02 F1000 X 112.4579 Y 61.1066 Z -0.1250 I 1.1433 J -0.9684
G02 F1000 X 112.7522 Y 61.2499 Z -0.1250 I 0.4995 J -0.6520
G02 F1000 X 112.9231 Y 61.2266 Z -0.1250 I 0.0569 J -0.2207
G01 F1000 X 113.9515 Y 60.6329 Z -0.1250
G02 F1000 X 114.0466 Y 60.5230 Z -0.1250 I -0.1111 J -0.1924
G02 F1000 X 114.0924 Y 60.2802 Z -0.1250 I -0.5955 J -0.2381
G02 F1000 X 114.0450 Y 60.0231 Z -0.1250 I -0.8492 J 0.0238
G02 F1000 X 113.7869 Y 59.4081 Z -0.1250 I -5.2197 J 1.8287
G02 F1000 X 114.1918 Y 59.9371 Z -0.1250 I 4.3489 J -2.9089
G02 F1000 X 114.3949 Y 60.1056 Z -0.1250 I 0.6187 J -0.5394
G02 F1000 X 114.6232 Y 60.1896 Z -0.1250 I 0.3225 J -0.5241
G02 F1000 X 114.7653 Y 60.1630 Z -0.1250 I 0.0333 J -0.2151
G01 F1000 X 116.2941 Y 59.2804 Z -0.1250
G01 F1000 X 114.7653 Y 60.1630 Z -0.1250
G03 F1000 X 114.6232 Y 60.1896 Z -0.1250 I -0.1088 J -0.1885
G03 F1000 X 114.3949 Y 60.1056 Z -0.1250 I 0.0943 J -0.6081
G03 F1000 X 114.1918 Y 59.9371 Z -0.1250 I 0.4156 J -0.7078
G03 F1000 X 113.7869 Y 59.4081 Z -0.1250 I 3.9440 J -3.4380
G01 F1000 X 113.2694 Y 58.5117 Z -0.1250
G01 F1000 X 115.2051 Y 57.3941 Z -0.1250
S000 (---Laser 0% OFF) 
 G00 Z 10.0000

(End cutting path id: path7425)


(Start cutting path id: path7419)
(Change tool to Default tool)

S000 (---Laser 0% OFF) 
 G00 Z 10.0000
G00 X 110.1202 Y 48.5867

S000 (---Laser 0% OFF) 
 G01 F1000 Z -0.1250  (Penetrate)
S100	(---Laser 100% ON)
G01 F1000 X 106.3257 Y 50.7775 Z -0.1250  
G01 F1000 X 110.8758 Y 49.8955 Z -0.1250
G01 F1000 X 107.8338 Y 53.3896 Z -0.1250
G01 F1000 X 111.6283 Y 51.1988 Z -0.1250
G01 F1000 X 107.8338 Y 53.3896 Z -0.1250
G01 F1000 X 110.8758 Y 49.8955 Z -0.1250
G01 F1000 X 106.3257 Y 50.7775 Z -0.1250
G01 F1000 X 110.1202 Y 48.5867 Z -0.1250
S000 (---Laser 0% OFF) 
 G00 Z 10.0000

(End cutting path id: path7419)


(Start cutting path id: path7417)
(Change tool to Default tool)

S000 (---Laser 0% OFF) 
 G00 Z 10.0000
G00 X 108.5947 Y 45.9445

S000 (---Laser 0% OFF) 
 G01 F1000 Z -0.1250  (Penetrate)
S100	(---Laser 100% ON)
G01 F1000 X 104.8002 Y 48.1352 Z -0.1250  
G01 F1000 X 105.8829 Y 50.0105 Z -0.1250
G01 F1000 X 104.8002 Y 48.1352 Z -0.1250
G01 F1000 X 106.6424 Y 47.0716 Z -0.1250
G01 F1000 X 107.5727 Y 48.6829 Z -0.1250
G01 F1000 X 106.6424 Y 47.0716 Z -0.1250
G01 F1000 X 108.5947 Y 45.9445 Z -0.1250
G01 F1000 X 109.6773 Y 47.8197 Z -0.1250
G01 F1000 X 108.5947 Y 45.9445 Z -0.1250
S000 (---Laser 0% OFF) 
 G00 Z 10.0000

(End cutting path id: path7417)


(Start cutting path id: path7415)
(Change tool to Default tool)

S000 (---Laser 0% OFF) 
 G00 Z 10.0000
G00 X 107.5284 Y 45.6978

S000 (---Laser 0% OFF) 
 G01 F1000 Z -0.1250  (Penetrate)
S100	(---Laser 100% ON)
G01 F1000 X 107.7978 Y 45.5422 Z -0.1250  
G02 F1000 X 107.9055 Y 45.4059 Z -0.1250 I -0.1175 J -0.2034
G02 F1000 X 107.9352 Y 45.0816 Z -0.1250 I -0.7912 J -0.2360
G02 F1000 X 107.8571 Y 44.7500 Z -0.1250 I -1.3897 J 0.1522
G02 F1000 X 107.6498 Y 44.3078 Z -0.1250 I -2.6950 J 0.9941
G02 F1000 X 107.3707 Y 43.9069 Z -0.1250 I -2.5076 J 1.4478
G02 F1000 X 107.1192 Y 43.6683 Z -0.1250 I -1.1220 J 0.9308
G02 F1000 X 106.8317 Y 43.5358 Z -0.1250 I -0.4578 J 0.6150
G02 F1000 X 106.6548 Y 43.5625 Z -0.1250 I -0.0544 J 0.2389
G01 F1000 X 103.7072 Y 45.2643 Z -0.1250
G02 F1000 X 103.5997 Y 45.4003 Z -0.1250 I 0.1173 J 0.2032
G02 F1000 X 103.5722 Y 45.7162 Z -0.1250 I 0.7522 J 0.2248
G02 F1000 X 103.6546 Y 46.0672 Z -0.1250 I 1.5411 J -0.1767
G02 F1000 X 103.8553 Y 46.4986 Z -0.1250 I 2.5388 J -0.9186
G02 F1000 X 104.1252 Y 46.8827 Z -0.1250 I 2.2897 J -1.3220
G02 F1000 X 104.3882 Y 47.1295 Z -0.1250 I 1.1920 J -1.0068
G02 F1000 X 104.6838 Y 47.2675 Z -0.1250 I 0.4992 J -0.6836
G02 F1000 X 104.8502 Y 47.2440 Z -0.1250 I 0.0541 J -0.2182
G01 F1000 X 105.1197 Y 47.0884 Z -0.1250
G01 F1000 X 104.8502 Y 47.2440 Z -0.1250
G03 F1000 X 104.6838 Y 47.2675 Z -0.1250 I -0.1124 J -0.1947
G03 F1000 X 104.3882 Y 47.1295 Z -0.1250 I 0.2036 J -0.8216
G03 F1000 X 104.1252 Y 46.8827 Z -0.1250 I 0.9290 J -1.2536
G03 F1000 X 103.8553 Y 46.4986 Z -0.1250 I 2.0198 J -1.7061
G03 F1000 X 103.6546 Y 46.0672 Z -0.1250 I 2.3381 J -1.3499
G03 F1000 X 103.5722 Y 45.7162 Z -0.1250 I 1.4587 J -0.5278
G03 F1000 X 103.5997 Y 45.4003 Z -0.1250 I 0.7798 J -0.0911
G03 F1000 X 103.7072 Y 45.2643 Z -0.1250 I 0.2248 J 0.0672
G01 F1000 X 106.6548 Y 43.5625 Z -0.1250
G03 F1000 X 106.8317 Y 43.5358 Z -0.1250 I 0.1225 J 0.2122
G03 F1000 X 107.1192 Y 43.6683 Z -0.1250 I -0.1704 J 0.7475
G03 F1000 X 107.3707 Y 43.9069 Z -0.1250 I -0.8706 J 1.1694
G03 F1000 X 107.6498 Y 44.3078 Z -0.1250 I -2.2286 J 1.8488
G03 F1000 X 107.8571 Y 44.7500 Z -0.1250 I -2.4876 J 1.4362
G03 F1000 X 107.9352 Y 45.0816 Z -0.1250 I -1.3116 J 0.4838
G03 F1000 X 107.9055 Y 45.4059 Z -0.1250 I -0.8209 J 0.0883
G03 F1000 X 107.7978 Y 45.5422 Z -0.1250 I -0.2251 J -0.0671
G01 F1000 X 107.5284 Y 45.6978 Z -0.1250
S000 (---Laser 0% OFF) 
 G00 Z 10.0000

(End cutting path id: path7415)


(Start cutting path id: path7413)
(Change tool to Default tool)

S000 (---Laser 0% OFF) 
 G00 Z 10.0000
G00 X 105.5747 Y 40.7137

S000 (---Laser 0% OFF) 
 G01 F1000 Z -0.1250  (Penetrate)
S100	(---Laser 100% ON)
G01 F1000 X 101.7802 Y 42.9045 Z -0.1250  
G01 F1000 X 102.8629 Y 44.7797 Z -0.1250
G01 F1000 X 101.7802 Y 42.9045 Z -0.1250
G01 F1000 X 103.6225 Y 41.8409 Z -0.1250
G01 F1000 X 104.5527 Y 43.4521 Z -0.1250
G01 F1000 X 103.6225 Y 41.8409 Z -0.1250
G01 F1000 X 105.5747 Y 40.7137 Z -0.1250
G01 F1000 X 106.6574 Y 42.5890 Z -0.1250
G01 F1000 X 105.5747 Y 40.7137 Z -0.1250
S000 (---Laser 0% OFF) 
 G00 Z 10.0000

(End cutting path id: path7413)


(Start cutting path id: path7411)
(Change tool to Default tool)

S000 (---Laser 0% OFF) 
 G00 Z 10.0000
G00 X 104.0492 Y 38.0715

S000 (---Laser 0% OFF) 
 G01 F1000 Z -0.1250  (Penetrate)
S100	(---Laser 100% ON)
G01 F1000 X 100.2547 Y 40.2623 Z -0.1250  
G01 F1000 X 100.7722 Y 41.1586 Z -0.1250
G02 F1000 X 101.0421 Y 41.5428 Z -0.1250 I 2.2897 J -1.3220
G02 F1000 X 101.3051 Y 41.7895 Z -0.1250 I 1.1920 J -1.0068
G02 F1000 X 101.6007 Y 41.9275 Z -0.1250 I 0.4992 J -0.6836
G02 F1000 X 101.7672 Y 41.9040 Z -0.1250 I 0.0541 J -0.2182
G01 F1000 X 104.7148 Y 40.2022 Z -0.1250
G02 F1000 X 104.8225 Y 40.0659 Z -0.1250 I -0.1175 J -0.2034
G02 F1000 X 104.8522 Y 39.7416 Z -0.1250 I -0.7912 J -0.2360
G02 F1000 X 104.7741 Y 39.4100 Z -0.1250 I -1.3897 J 0.1522
G02 F1000 X 104.5667 Y 38.9679 Z -0.1250 I -2.6950 J 0.9941
G01 F1000 X 104.0492 Y 38.0715 Z -0.1250
S000 (---Laser 0% OFF) 
 G00 Z 10.0000

(Change tool to Default tool)

S000 (---Laser 0% OFF) 
 G00 Z 10.0000
G00 X 100.2547 Y 40.2623

S000 (---Laser 0% OFF) 
 G01 F1000 Z -0.1250  (Penetrate)
S100	(---Laser 100% ON)
G01 F1000 X 104.0492 Y 38.0715 Z -0.1250  
G01 F1000 X 104.5667 Y 38.9679 Z -0.1250
G03 F1000 X 104.7741 Y 39.4100 Z -0.1250 I -2.4876 J 1.4362
G03 F1000 X 104.8522 Y 39.7416 Z -0.1250 I -1.3116 J 0.4838
G03 F1000 X 104.8225 Y 40.0659 Z -0.1250 I -0.8209 J 0.0883
G03 F1000 X 104.7148 Y 40.2022 Z -0.1250 I -0.2251 J -0.0671
G01 F1000 X 101.7672 Y 41.9040 Z -0.1250
G03 F1000 X 101.6007 Y 41.9275 Z -0.1250 I -0.1124 J -0.1947
G03 F1000 X 101.3051 Y 41.7895 Z -0.1250 I 0.2036 J -0.8216
G03 F1000 X 101.0421 Y 41.5428 Z -0.1250 I 0.9290 J -1.2536
G03 F1000 X 100.7722 Y 41.1586 Z -0.1250 I 2.0198 J -1.7061
G01 F1000 X 100.2547 Y 40.2623 Z -0.1250
S000 (---Laser 0% OFF) 
 G00 Z 10.0000

(End cutting path id: path7411)


(Start cutting path id: path7350)
(Change tool to Default tool)

S000 (---Laser 0% OFF) 
 G00 Z 10.0000
G00 X 47.5224 Y 39.4052

S000 (---Laser 0% OFF) 
 G01 F1000 Z -0.1250  (Penetrate)
S100	(---Laser 100% ON)
G03 F1000 X 47.9259 Y 38.8742 Z -0.1250 I 4.5971 J 3.0750  
G03 F1000 X 48.1249 Y 38.7045 Z -0.1250 I 0.6441 J 0.5539
G03 F1000 X 48.3580 Y 38.6228 Z -0.1250 I 0.3248 J 0.5531
G03 F1000 X 48.5008 Y 38.6503 Z -0.1250 I 0.0317 J 0.2198
G01 F1000 X 49.5292 Y 39.2440 Z -0.1250
G03 F1000 X 49.6348 Y 39.3803 Z -0.1250 I -0.1139 J 0.1974
G03 F1000 X 49.6578 Y 39.7069 Z -0.1250 I -0.7913 J 0.2200
G03 F1000 X 49.5784 Y 40.0526 Z -0.1250 I -1.4897 J -0.1603
G03 F1000 X 49.3811 Y 40.4783 Z -0.1250 I -2.4687 J -0.8856
G01 F1000 X 48.8636 Y 41.3747 Z -0.1250
G01 F1000 X 47.0048 Y 40.3016 Z -0.1250
G01 F1000 X 47.5224 Y 39.4052 Z -0.1250
S000 (---Laser 0% OFF) 
 G00 Z 10.0000

(Change tool to Default tool)

S000 (---Laser 0% OFF) 
 G00 Z 10.0000
G00 X 45.0691 Y 39.1840

S000 (---Laser 0% OFF) 
 G01 F1000 Z -0.1250  (Penetrate)
S100	(---Laser 100% ON)
G01 F1000 X 48.8636 Y 41.3747 Z -0.1250  
G01 F1000 X 49.3811 Y 40.4783 Z -0.1250
G02 F1000 X 49.5784 Y 40.0526 Z -0.1250 I -2.2714 J -1.3114
G02 F1000 X 49.6578 Y 39.7069 Z -0.1250 I -1.4103 J -0.5059
G02 F1000 X 49.6348 Y 39.3803 Z -0.1250 I -0.8144 J -0.1066
G02 F1000 X 49.5292 Y 39.2440 Z -0.1250 I -0.2196 J 0.0610
G01 F1000 X 48.5008 Y 38.6503 Z -0.1250
G02 F1000 X 48.3580 Y 38.6228 Z -0.1250 I -0.1111 J 0.1924
G02 F1000 X 48.1249 Y 38.7045 Z -0.1250 I 0.0916 J 0.6348
G02 F1000 X 47.9259 Y 38.8742 Z -0.1250 I 0.4452 J 0.7235
G02 F1000 X 47.5224 Y 39.4052 Z -0.1250 I 4.1936 J 3.6060
G02 F1000 X 47.7781 Y 38.7900 Z -0.1250 I -4.6937 J -2.3118
G02 F1000 X 47.8224 Y 38.5299 Z -0.1250 I -0.7765 J -0.2662
G02 F1000 X 47.7810 Y 38.2902 Z -0.1250 I -0.6151 J -0.0173
G02 F1000 X 47.6869 Y 38.1804 Z -0.1250 I -0.2030 J 0.0787
G01 F1000 X 46.1581 Y 37.2977 Z -0.1250
G01 F1000 X 47.6869 Y 38.1804 Z -0.1250
G03 F1000 X 47.7810 Y 38.2902 Z -0.1250 I -0.1088 J 0.1885
G03 F1000 X 47.8224 Y 38.5299 Z -0.1250 I -0.5738 J 0.2224
G03 F1000 X 47.7781 Y 38.7900 Z -0.1250 I -0.8208 J -0.0060
G03 F1000 X 47.5224 Y 39.4052 Z -0.1250 I -4.9494 J -1.6966
G01 F1000 X 47.0048 Y 40.3016 Z -0.1250
G01 F1000 X 45.0691 Y 39.1840 Z -0.1250
S000 (---Laser 0% OFF) 
 G00 Z 10.0000

(End cutting path id: path7350)


(Start cutting path id: path7348)
(Change tool to Default tool)

S000 (---Laser 0% OFF) 
 G00 Z 10.0000
G00 X 43.5436 Y 41.8262

S000 (---Laser 0% OFF) 
 G01 F1000 Z -0.1250  (Penetrate)
S100	(---Laser 100% ON)
G01 F1000 X 47.3381 Y 44.0170 Z -0.1250  
G01 F1000 X 48.4208 Y 42.1417 Z -0.1250
G01 F1000 X 47.3381 Y 44.0170 Z -0.1250
G01 F1000 X 45.4958 Y 42.9533 Z -0.1250
G01 F1000 X 46.4261 Y 41.3420 Z -0.1250
G01 F1000 X 45.4958 Y 42.9533 Z -0.1250
G01 F1000 X 43.5436 Y 41.8262 Z -0.1250
G01 F1000 X 44.6263 Y 39.9510 Z -0.1250
G01 F1000 X 43.5436 Y 41.8262 Z -0.1250
S000 (---Laser 0% OFF) 
 G00 Z 10.0000

(End cutting path id: path7348)


(Start cutting path id: path7346)
(Change tool to Default tool)

S000 (---Laser 0% OFF) 
 G00 Z 10.0000
G00 X 42.0181 Y 44.4684

S000 (---Laser 0% OFF) 
 G01 F1000 Z -0.1250  (Penetrate)
S100	(---Laser 100% ON)
G01 F1000 X 43.9539 Y 45.5860 Z -0.1250  
G01 F1000 X 44.4714 Y 44.6896 Z -0.1250
G02 F1000 X 44.7273 Y 44.0664 Z -0.1250 I -5.1153 J -2.4645
G02 F1000 X 44.7714 Y 43.8144 Z -0.1250 I -0.7746 J -0.2655
G02 F1000 X 44.7301 Y 43.5747 Z -0.1250 I -0.6151 J -0.0173
G02 F1000 X 44.6359 Y 43.4648 Z -0.1250 I -0.2030 J 0.0787
G01 F1000 X 43.5306 Y 42.8267 Z -0.1250
G02 F1000 X 43.3543 Y 42.8018 Z -0.1250 I -0.1190 J 0.2060
G02 F1000 X 43.0598 Y 42.9435 Z -0.1250 I 0.1931 J 0.7781
G02 F1000 X 42.8045 Y 43.1868 Z -0.1250 I 0.9315 J 1.2331
G02 F1000 X 42.5356 Y 43.5720 Z -0.1250 I 2.1061 J 1.7564
G01 F1000 X 42.0181 Y 44.4684 Z -0.1250
S000 (---Laser 0% OFF) 
 G00 Z 10.0000

(Change tool to Default tool)

S000 (---Laser 0% OFF) 
 G00 Z 10.0000
G00 X 45.8126 Y 46.6592

S000 (---Laser 0% OFF) 
 G01 F1000 Z -0.1250  (Penetrate)
S100	(---Laser 100% ON)
G01 F1000 X 42.0181 Y 44.4684 Z -0.1250  
G01 F1000 X 42.5356 Y 43.5720 Z -0.1250
G03 F1000 X 42.8045 Y 43.1868 Z -0.1250 I 2.3750 J 1.3712
G03 F1000 X 43.0598 Y 42.9435 Z -0.1250 I 1.1868 J 0.9898
G03 F1000 X 43.3543 Y 42.8018 Z -0.1250 I 0.4876 J 0.6364
G03 F1000 X 43.5306 Y 42.8267 Z -0.1250 I 0.0573 J 0.2309
G01 F1000 X 44.6359 Y 43.4648 Z -0.1250
G03 F1000 X 44.7301 Y 43.5747 Z -0.1250 I -0.1088 J 0.1885
G03 F1000 X 44.7714 Y 43.8144 Z -0.1250 I -0.5738 J 0.2224
G03 F1000 X 44.7273 Y 44.0664 Z -0.1250 I -0.8188 J -0.0135
G03 F1000 X 44.4714 Y 44.6896 Z -0.1250 I -5.3712 J -1.8412
G03 F1000 X 44.8715 Y 44.1635 Z -0.1250 I 4.5777 J 3.0661
G03 F1000 X 45.0739 Y 43.9890 Z -0.1250 I 0.6828 J 0.5871
G03 F1000 X 45.3070 Y 43.9072 Z -0.1250 I 0.3248 J 0.5531
G03 F1000 X 45.4498 Y 43.9347 Z -0.1250 I 0.0317 J 0.2198
G01 F1000 X 46.4782 Y 44.5285 Z -0.1250
G03 F1000 X 46.5809 Y 44.6610 Z -0.1250 I -0.1108 J 0.1919
G03 F1000 X 46.6069 Y 44.9914 Z -0.1250 I -0.8338 J 0.2318
G03 F1000 X 46.5249 Y 45.3426 Z -0.1250 I -1.5594 J -0.1788
G03 F1000 X 46.3301 Y 45.7628 Z -0.1250 I -2.4366 J -0.8741
G01 F1000 X 45.8126 Y 46.6592 Z -0.1250
S000 (---Laser 0% OFF) 
 G00 Z 10.0000

(Change tool to Default tool)

S000 (---Laser 0% OFF) 
 G00 Z 10.0000
G00 X 44.4714 Y 44.6896

S000 (---Laser 0% OFF) 
 G01 F1000 Z -0.1250  (Penetrate)
S100	(---Laser 100% ON)
G01 F1000 X 43.9539 Y 45.5860 Z -0.1250  
G01 F1000 X 45.8126 Y 46.6592 Z -0.1250
G01 F1000 X 46.3301 Y 45.7628 Z -0.1250
G02 F1000 X 46.5249 Y 45.3426 Z -0.1250 I -2.2418 J -1.2943
G02 F1000 X 46.6069 Y 44.9914 Z -0.1250 I -1.4775 J -0.5300
G02 F1000 X 46.5809 Y 44.6610 Z -0.1250 I -0.8597 J -0.0986
G02 F1000 X 46.4782 Y 44.5285 Z -0.1250 I -0.2135 J 0.0594
G01 F1000 X 45.4498 Y 43.9347 Z -0.1250
G02 F1000 X 45.3070 Y 43.9072 Z -0.1250 I -0.1111 J 0.1924
G02 F1000 X 45.0739 Y 43.9890 Z -0.1250 I 0.0916 J 0.6348
G02 F1000 X 44.8715 Y 44.1635 Z -0.1250 I 0.4804 J 0.7616
G02 F1000 X 44.4714 Y 44.6896 Z -0.1250 I 4.1775 J 3.5922
G01 F1000 X 44.4714 Y 44.6896 Z -0.1250
S000 (---Laser 0% OFF) 
 G00 Z 10.0000

(End cutting path id: path7346)


(Start cutting path id: path7344)
(Change tool to Default tool)

S000 (---Laser 0% OFF) 
 G00 Z 10.0000
G00 X 39.9841 Y 47.9914

S000 (---Laser 0% OFF) 
 G01 F1000 Z -0.1250  (Penetrate)
S100	(---Laser 100% ON)
G01 F1000 X 43.7786 Y 50.1821 Z -0.1250  
G01 F1000 X 40.7398 Y 46.6826 Z -0.1250
G01 F1000 X 45.2867 Y 47.5700 Z -0.1250
G01 F1000 X 41.4923 Y 45.3792 Z -0.1250
G01 F1000 X 45.2867 Y 47.5700 Z -0.1250
G01 F1000 X 40.7398 Y 46.6826 Z -0.1250
G01 F1000 X 43.7786 Y 50.1821 Z -0.1250
G01 F1000 X 39.9841 Y 47.9914 Z -0.1250
S000 (---Laser 0% OFF) 
 G00 Z 10.0000

(End cutting path id: path7344)


(Start cutting path id: path7342)
(Change tool to Default tool)

S000 (---Laser 0% OFF) 
 G00 Z 10.0000
G00 X 38.4586 Y 50.6336

S000 (---Laser 0% OFF) 
 G01 F1000 Z -0.1250  (Penetrate)
S100	(---Laser 100% ON)
G01 F1000 X 42.2531 Y 52.8244 Z -0.1250  
G01 F1000 X 43.3358 Y 50.9491 Z -0.1250
G01 F1000 X 42.2531 Y 52.8244 Z -0.1250
G01 F1000 X 40.4109 Y 51.7607 Z -0.1250
G01 F1000 X 41.3411 Y 50.1495 Z -0.1250
G01 F1000 X 40.4109 Y 51.7607 Z -0.1250
G01 F1000 X 38.4586 Y 50.6336 Z -0.1250
G01 F1000 X 39.5413 Y 48.7584 Z -0.1250
G01 F1000 X 38.4586 Y 50.6336 Z -0.1250
S000 (---Laser 0% OFF) 
 G00 Z 10.0000

(End cutting path id: path7342)


(Start cutting path id: path7340)
(Change tool to Default tool)

S000 (---Laser 0% OFF) 
 G00 Z 10.0000
G00 X 38.7781 Y 51.6804

S000 (---Laser 0% OFF) 
 G01 F1000 Z -0.1250  (Penetrate)
S100	(---Laser 100% ON)
G01 F1000 X 38.5087 Y 51.5249 Z -0.1250  
G02 F1000 X 38.3368 Y 51.4998 Z -0.1250 I -0.1175 J 0.2034
G02 F1000 X 38.0411 Y 51.6362 Z -0.1250 I 0.1913 J 0.8032
G02 F1000 X 37.7930 Y 51.8696 Z -0.1250 I 0.8267 J 1.1274
G02 F1000 X 37.5137 Y 52.2702 Z -0.1250 I 2.2084 J 1.8369
G02 F1000 X 37.3060 Y 52.7124 Z -0.1250 I 2.5076 J 1.4478
G02 F1000 X 37.2251 Y 53.0495 Z -0.1250 I 1.3671 J 0.5063
G02 F1000 X 37.2541 Y 53.3647 Z -0.1250 I 0.7615 J 0.0890
G02 F1000 X 37.3657 Y 53.5046 Z -0.1250 I 0.2341 J -0.0723
G01 F1000 X 40.3133 Y 55.2064 Z -0.1250
G02 F1000 X 40.4848 Y 55.2315 Z -0.1250 I 0.1173 J -0.2032
G02 F1000 X 40.7722 Y 55.0974 Z -0.1250 I -0.1815 J -0.7638
G02 F1000 X 41.0350 Y 54.8504 Z -0.1250 I -0.9236 J -1.2463
G02 F1000 X 41.3082 Y 54.4610 Z -0.1250 I -2.0649 J -1.7394
G02 F1000 X 41.5059 Y 54.0352 Z -0.1250 I -2.2897 J -1.3220
G02 F1000 X 41.5881 Y 53.6841 Z -0.1250 I -1.4680 J -0.5289
G02 F1000 X 41.5599 Y 53.3591 Z -0.1250 I -0.8416 J -0.0905
G02 F1000 X 41.4563 Y 53.2267 Z -0.1250 I -0.2160 J 0.0623
G01 F1000 X 41.1868 Y 53.0711 Z -0.1250
G01 F1000 X 41.4563 Y 53.2267 Z -0.1250
G03 F1000 X 41.5599 Y 53.3591 Z -0.1250 I -0.1124 J 0.1947
G03 F1000 X 41.5881 Y 53.6841 Z -0.1250 I -0.8134 J 0.2345
G03 F1000 X 41.5059 Y 54.0352 Z -0.1250 I -1.5502 J -0.1777
G03 F1000 X 41.3082 Y 54.4610 Z -0.1250 I -2.4874 J -0.8962
G03 F1000 X 41.0350 Y 54.8504 Z -0.1250 I -2.3381 J -1.3499
G03 F1000 X 40.7722 Y 55.0974 Z -0.1250 I -1.1864 J -0.9994
G03 F1000 X 40.4848 Y 55.2315 Z -0.1250 I -0.4688 J -0.6298
G03 F1000 X 40.3133 Y 55.2064 Z -0.1250 I -0.0542 J -0.2282
G01 F1000 X 37.3657 Y 53.5046 Z -0.1250
G03 F1000 X 37.2541 Y 53.3647 Z -0.1250 I 0.1225 J -0.2122
G03 F1000 X 37.2251 Y 53.0495 Z -0.1250 I 0.7325 J -0.2262
G03 F1000 X 37.3060 Y 52.7124 Z -0.1250 I 1.4480 J 0.1692
G03 F1000 X 37.5137 Y 52.2702 Z -0.1250 I 2.7153 J 1.0056
G03 F1000 X 37.7930 Y 51.8696 Z -0.1250 I 2.4876 J 1.4362
G03 F1000 X 38.0411 Y 51.6362 Z -0.1250 I 1.0748 J 0.8940
G03 F1000 X 38.3368 Y 51.4998 Z -0.1250 I 0.4870 J 0.6668
G03 F1000 X 38.5087 Y 51.5249 Z -0.1250 I 0.0544 J 0.2285
G01 F1000 X 38.7781 Y 51.6804 Z -0.1250
S000 (---Laser 0% OFF) 
 G00 Z 10.0000

(End cutting path id: path7340)


(Start cutting path id: path7338)
(Change tool to Default tool)

S000 (---Laser 0% OFF) 
 G00 Z 10.0000
G00 X 35.4387 Y 55.8644

S000 (---Laser 0% OFF) 
 G01 F1000 Z -0.1250  (Penetrate)
S100	(---Laser 100% ON)
G01 F1000 X 39.2332 Y 58.0551 Z -0.1250  
G01 F1000 X 40.3158 Y 56.1799 Z -0.1250
G01 F1000 X 39.2332 Y 58.0551 Z -0.1250
G01 F1000 X 37.3909 Y 56.9915 Z -0.1250
G01 F1000 X 38.3212 Y 55.3802 Z -0.1250
G01 F1000 X 37.3909 Y 56.9915 Z -0.1250
G01 F1000 X 35.4387 Y 55.8644 Z -0.1250
G01 F1000 X 36.5213 Y 53.9891 Z -0.1250
G01 F1000 X 35.4387 Y 55.8644 Z -0.1250
S000 (---Laser 0% OFF) 
 G00 Z 10.0000

(End cutting path id: path7338)


(Start cutting path id: path7336)
(Change tool to Default tool)

S000 (---Laser 0% OFF) 
 G00 Z 10.0000
G00 X 33.9132 Y 58.5066

S000 (---Laser 0% OFF) 
 G01 F1000 Z -0.1250  (Penetrate)
S100	(---Laser 100% ON)
G01 F1000 X 37.7077 Y 60.6973 Z -0.1250  
G01 F1000 X 38.2252 Y 59.8009 Z -0.1250
G02 F1000 X 38.4229 Y 59.3752 Z -0.1250 I -2.2897 J -1.3220
G02 F1000 X 38.5051 Y 59.0240 Z -0.1250 I -1.4680 J -0.5289
G02 F1000 X 38.4768 Y 58.6990 Z -0.1250 I -0.8416 J -0.0905
G02 F1000 X 38.3733 Y 58.5666 Z -0.1250 I -0.2160 J 0.0623
G01 F1000 X 35.4256 Y 56.8648 Z -0.1250
G02 F1000 X 35.2538 Y 56.8397 Z -0.1250 I -0.1175 J 0.2034
G02 F1000 X 34.9581 Y 56.9761 Z -0.1250 I 0.1913 J 0.8032
G02 F1000 X 34.7099 Y 57.2096 Z -0.1250 I 0.8267 J 1.1274
G02 F1000 X 34.4307 Y 57.6102 Z -0.1250 I 2.2084 J 1.8369
G01 F1000 X 33.9132 Y 58.5066 Z -0.1250
S000 (---Laser 0% OFF) 
 G00 Z 10.0000

(Change tool to Default tool)

S000 (---Laser 0% OFF) 
 G00 Z 10.0000
G00 X 37.7077 Y 60.6973

S000 (---Laser 0% OFF) 
 G01 F1000 Z -0.1250  (Penetrate)
S100	(---Laser 100% ON)
G01 F1000 X 33.9132 Y 58.5066 Z -0.1250  
G01 F1000 X 34.4307 Y 57.6102 Z -0.1250
G03 F1000 X 34.7099 Y 57.2096 Z -0.1250 I 2.4876 J 1.4362
G03 F1000 X 34.9581 Y 56.9761 Z -0.1250 I 1.0748 J 0.8940
G03 F1000 X 35.2538 Y 56.8397 Z -0.1250 I 0.4870 J 0.6668
G03 F1000 X 35.4256 Y 56.8648 Z -0.1250 I 0.0544 J 0.2285
G01 F1000 X 38.3733 Y 58.5666 Z -0.1250
G03 F1000 X 38.4768 Y 58.6990 Z -0.1250 I -0.1124 J 0.1947
G03 F1000 X 38.5051 Y 59.0240 Z -0.1250 I -0.8134 J 0.2345
G03 F1000 X 38.4229 Y 59.3752 Z -0.1250 I -1.5502 J -0.1777
G03 F1000 X 38.2252 Y 59.8009 Z -0.1250 I -2.4874 J -0.8962
G01 F1000 X 37.7077 Y 60.6973 Z -0.1250
S000 (---Laser 0% OFF) 
 G00 Z 10.0000

(End cutting path id: path7336)


(Start cutting path id: path7386)
(Change tool to Default tool)

S000 (---Laser 0% OFF) 
 G00 Z 10.0000
G00 X 22.2280 Y 35.7824

S000 (---Laser 0% OFF) 
 G01 F1000 Z -0.1250  (Penetrate)
S100	(---Laser 100% ON)
G03 F1000 X 22.8011 Y 35.4412 Z -0.1250 I 3.1105 J 4.5732  
G03 F1000 X 23.0491 Y 35.3585 Z -0.1250 I 0.3897 J 0.7549
G03 F1000 X 23.2959 Y 35.3700 Z -0.1250 I 0.0939 J 0.6344
G03 F1000 X 23.4180 Y 35.4490 Z -0.1250 I -0.0529 J 0.2157
G01 F1000 X 24.1491 Y 36.3847 Z -0.1250
G03 F1000 X 24.1959 Y 36.5507 Z -0.1250 I -0.1796 J 0.1403
G03 F1000 X 24.0950 Y 36.8621 Z -0.1250 I -0.8161 J -0.0925
G03 F1000 X 23.8919 Y 37.1529 Z -0.1250 I -1.3212 J -0.7066
G03 F1000 X 23.5494 Y 37.4737 Z -0.1250 I -1.9572 J -1.7459
G01 F1000 X 22.7338 Y 38.1110 Z -0.1250
G01 F1000 X 21.4124 Y 36.4197 Z -0.1250
G01 F1000 X 22.2280 Y 35.7824 Z -0.1250
S000 (---Laser 0% OFF) 
 G00 Z 10.0000

(Change tool to Default tool)

S000 (---Laser 0% OFF) 
 G00 Z 10.0000
G00 X 20.0362 Y 34.6583

S000 (---Laser 0% OFF) 
 G01 F1000 Z -0.1250  (Penetrate)
S100	(---Laser 100% ON)
G01 F1000 X 22.7338 Y 38.1110 Z -0.1250  
G01 F1000 X 23.5494 Y 37.4737 Z -0.1250
G02 F1000 X 23.8919 Y 37.1529 Z -0.1250 I -1.6147 J -2.0667
G02 F1000 X 24.0950 Y 36.8621 Z -0.1250 I -1.1181 J -0.9974
G02 F1000 X 24.1959 Y 36.5507 Z -0.1250 I -0.7152 J -0.4039
G02 F1000 X 24.1491 Y 36.3847 Z -0.1250 I -0.2265 J -0.0257
G01 F1000 X 23.4180 Y 35.4490 Z -0.1250
G02 F1000 X 23.2959 Y 35.3700 Z -0.1250 I -0.1750 J 0.1367
G02 F1000 X 23.0491 Y 35.3585 Z -0.1250 I -0.1529 J 0.6229
G02 F1000 X 22.8011 Y 35.4412 Z -0.1250 I 0.1418 J 0.8376
G02 F1000 X 22.2280 Y 35.7824 Z -0.1250 I 2.5373 J 4.9144
G02 F1000 X 22.6955 Y 35.3078 Z -0.1250 I -3.4859 J -3.9017
G02 F1000 X 22.8341 Y 35.0833 Z -0.1250 I -0.6202 J -0.5377
G02 F1000 X 22.8855 Y 34.8455 Z -0.1250 I -0.5639 J -0.2464
G02 F1000 X 22.8394 Y 34.7084 Z -0.1250 I -0.2177 J -0.0031
G01 F1000 X 21.7526 Y 33.3174 Z -0.1250
G01 F1000 X 22.8394 Y 34.7084 Z -0.1250
G03 F1000 X 22.8855 Y 34.8455 Z -0.1250 I -0.1715 J 0.1340
G03 F1000 X 22.8341 Y 35.0833 Z -0.1250 I -0.6153 J -0.0087
G03 F1000 X 22.6955 Y 35.3078 Z -0.1250 I -0.7588 J -0.3131
G03 F1000 X 22.2280 Y 35.7824 Z -0.1250 I -3.9534 J -3.4272
G01 F1000 X 21.4124 Y 36.4197 Z -0.1250
G01 F1000 X 20.0362 Y 34.6583 Z -0.1250
S000 (---Laser 0% OFF) 
 G00 Z 10.0000

(End cutting path id: path7386)


(Start cutting path id: path7384)
(Change tool to Default tool)

S000 (---Laser 0% OFF) 
 G00 Z 10.0000
G00 X 19.1300 Y 37.7113

S000 (---Laser 0% OFF) 
 G01 F1000 Z -0.1250  (Penetrate)
S100	(---Laser 100% ON)
G01 F1000 X 21.1802 Y 39.3247 Z -0.1250  
G01 F1000 X 20.1408 Y 36.9216 Z -0.1250
G01 F1000 X 19.1300 Y 37.7113 Z -0.1250
S000 (---Laser 0% OFF) 
 G00 Z 10.0000

(Change tool to Default tool)

S000 (---Laser 0% OFF) 
 G00 Z 10.0000
G00 X 19.3834 Y 35.1684

S000 (---Laser 0% OFF) 
 G01 F1000 Z -0.1250  (Penetrate)
S100	(---Laser 100% ON)
G01 F1000 X 21.1802 Y 39.3247 Z -0.1250  
G01 F1000 X 17.6320 Y 36.5367 Z -0.1250
G01 F1000 X 19.1300 Y 37.7113 Z -0.1250
G01 F1000 X 20.1408 Y 36.9216 Z -0.1250
G01 F1000 X 19.3834 Y 35.1684 Z -0.1250
S000 (---Laser 0% OFF) 
 G00 Z 10.0000

(End cutting path id: path7384)


(Start cutting path id: path7388)
(Change tool to Default tool)

S000 (---Laser 0% OFF) 
 G00 Z 10.0000
G00 X 24.7344 Y 32.0030

S000 (---Laser 0% OFF) 
 G01 F1000 Z -0.1250  (Penetrate)
S100	(---Laser 100% ON)
G01 F1000 X 24.5429 Y 31.7578 Z -0.1250  
G02 F1000 X 24.3929 Y 31.6702 Z -0.1250 I -0.1851 J 0.1446
G02 F1000 X 24.0677 Y 31.6859 Z -0.1250 I -0.1236 J 0.8164
G02 F1000 X 23.7501 Y 31.8094 Z -0.1250 I 0.3441 J 1.3550
G02 F1000 X 23.3411 Y 32.0762 Z -0.1250 I 1.3595 J 2.5304
G02 F1000 X 22.9829 Y 32.4084 Z -0.1250 I 1.7827 J 2.2817
G02 F1000 X 22.7817 Y 32.6906 Z -0.1250 I 1.0779 J 0.9816
G02 F1000 X 22.6904 Y 32.9937 Z -0.1250 I 0.6727 J 0.3678
G02 F1000 X 22.7415 Y 33.1652 Z -0.1250 I 0.2441 J 0.0207
G01 F1000 X 24.8369 Y 35.8473 Z -0.1250
G02 F1000 X 24.9866 Y 35.9348 Z -0.1250 I 0.1849 J -0.1444
G02 F1000 X 25.3033 Y 35.9181 Z -0.1250 I 0.1179 J -0.7762
G02 F1000 X 25.6394 Y 35.7876 Z -0.1250 I -0.3895 J -1.5015
G02 F1000 X 26.0387 Y 35.5289 Z -0.1250 I -1.2630 J -2.3862
G02 F1000 X 26.3815 Y 35.2082 Z -0.1250 I -1.6278 J -2.0835
G02 F1000 X 26.5892 Y 34.9134 Z -0.1250 I -1.1629 J -1.0403
G02 F1000 X 26.6848 Y 34.6015 Z -0.1250 I -0.7464 J -0.3992
G02 F1000 X 26.6383 Y 34.4399 Z -0.1250 I -0.2236 J -0.0232
G01 F1000 X 26.4468 Y 34.1947 Z -0.1250
G01 F1000 X 26.6383 Y 34.4399 Z -0.1250
G03 F1000 X 26.6848 Y 34.6015 Z -0.1250 I -0.1771 J 0.1384
G03 F1000 X 26.5892 Y 34.9134 Z -0.1250 I -0.8420 J -0.0873
G03 F1000 X 26.3815 Y 35.2082 Z -0.1250 I -1.3707 J -0.7455
G03 F1000 X 26.0387 Y 35.5289 Z -0.1250 I -1.9706 J -1.7627
G03 F1000 X 25.6394 Y 35.7876 Z -0.1250 I -1.6622 J -2.1275
G03 F1000 X 25.3033 Y 35.9181 Z -0.1250 I -0.7256 J -1.3710
G03 F1000 X 24.9866 Y 35.9348 Z -0.1250 I -0.1988 J -0.7595
G03 F1000 X 24.8369 Y 35.8473 Z -0.1250 I 0.0352 J -0.2319
G01 F1000 X 22.7415 Y 33.1652 Z -0.1250
G03 F1000 X 22.6904 Y 32.9937 Z -0.1250 I 0.1930 J -0.1508
G03 F1000 X 22.7817 Y 32.6906 Z -0.1250 I 0.7639 J 0.0647
G03 F1000 X 22.9829 Y 32.4084 Z -0.1250 I 1.2792 J 0.6993
G03 F1000 X 23.3411 Y 32.0762 Z -0.1250 I 2.1409 J 1.9496
G03 F1000 X 23.7501 Y 31.8094 Z -0.1250 I 1.7685 J 2.2635
G03 F1000 X 24.0677 Y 31.6859 Z -0.1250 I 0.6617 J 1.2315
G03 F1000 X 24.3929 Y 31.6702 Z -0.1250 I 0.2017 J 0.8007
G03 F1000 X 24.5429 Y 31.7578 Z -0.1250 I -0.0352 J 0.2323
G01 F1000 X 24.7344 Y 32.0030 Z -0.1250
S000 (---Laser 0% OFF) 
 G00 Z 10.0000

(End cutting path id: path7388)


(Start cutting path id: path7390)
(Change tool to Default tool)

S000 (---Laser 0% OFF) 
 G00 Z 10.0000
G00 X 24.8349 Y 30.9092

S000 (---Laser 0% OFF) 
 G01 F1000 Z -0.1250  (Penetrate)
S100	(---Laser 100% ON)
G01 F1000 X 27.5324 Y 34.3619 Z -0.1250  
G01 F1000 X 26.2032 Y 32.6606 Z -0.1250
G01 F1000 X 27.9946 Y 31.2610 Z -0.1250
G01 F1000 X 29.3238 Y 32.9623 Z -0.1250
G01 F1000 X 26.6263 Y 29.5096 Z -0.1250
G01 F1000 X 27.9946 Y 31.2610 Z -0.1250
G01 F1000 X 26.2032 Y 32.6606 Z -0.1250
G01 F1000 X 24.8349 Y 30.9092 Z -0.1250
S000 (---Laser 0% OFF) 
 G00 Z 10.0000

(End cutting path id: path7390)


(Start cutting path id: path7392)
(Change tool to Default tool)

S000 (---Laser 0% OFF) 
 G00 Z 10.0000
G00 X 29.7352 Y 28.0960

S000 (---Laser 0% OFF) 
 G01 F1000 Z -0.1250  (Penetrate)
S100	(---Laser 100% ON)
G01 F1000 X 29.5436 Y 27.8508 Z -0.1250  
G03 F1000 X 29.4939 Y 27.6839 Z -0.1250 I 0.1879 J -0.1468
G03 F1000 X 29.5838 Y 27.3762 Z -0.1250 I 0.8050 J 0.0681
G03 F1000 X 29.7895 Y 27.0898 Z -0.1250 I 1.3354 J 0.7423
G03 F1000 X 30.1433 Y 26.7618 Z -0.1250 I 2.1141 J 1.9252
G03 F1000 X 30.5471 Y 26.4983 Z -0.1250 I 1.7464 J 2.2352
G03 F1000 X 30.8698 Y 26.3715 Z -0.1250 I 0.6938 J 1.2913
G03 F1000 X 31.1950 Y 26.3558 Z -0.1250 I 0.2017 J 0.8007
G03 F1000 X 31.3450 Y 26.4434 Z -0.1250 I -0.0352 J 0.2323
G01 F1000 X 32.1525 Y 27.4564 Z -0.1250
G03 F1000 X 32.2250 Y 27.8855 Z -0.1250 I -0.3708 J 0.2832
G03 F1000 X 31.8206 Y 28.4652 Z -0.1250 I -1.1692 J -0.3848
G02 F1000 X 31.1546 Y 29.0202 Z -0.1250 I 11.0981 J 13.9931
G02 F1000 X 31.0501 Y 29.1396 Z -0.1250 I 0.3943 J 0.4504
G02 F1000 X 30.9217 Y 29.4920 Z -0.1250 I 0.7931 J 0.4888
G02 F1000 X 30.9706 Y 29.6772 Z -0.1250 I 0.2404 J 0.0356
G01 F1000 X 31.6391 Y 30.5329 Z -0.1250
G02 F1000 X 31.7887 Y 30.6204 Z -0.1250 I 0.1849 J -0.1444
G02 F1000 X 32.1054 Y 30.6037 Z -0.1250 I 0.1179 J -0.7762
G02 F1000 X 32.4364 Y 30.4765 Z -0.1250 I -0.3618 J -1.4363
G02 F1000 X 32.8408 Y 30.2145 Z -0.1250 I -1.2792 J -2.4169
G02 F1000 X 33.1925 Y 29.8854 Z -0.1250 I -1.6701 J -2.1376
G02 F1000 X 33.3914 Y 29.5990 Z -0.1250 I -1.0597 J -0.9479
G02 F1000 X 33.4882 Y 29.2917 Z -0.1250 I -0.7019 J -0.3901
G02 F1000 X 33.4405 Y 29.1255 Z -0.1250 I -0.2299 J -0.0238
G01 F1000 X 33.2489 Y 28.8803 Z -0.1250
G01 F1000 X 33.4405 Y 29.1255 Z -0.1250
G03 F1000 X 33.4882 Y 29.2917 Z -0.1250 I -0.1822 J 0.1423
G03 F1000 X 33.3914 Y 29.5990 Z -0.1250 I -0.7987 J -0.0828
G03 F1000 X 33.1925 Y 29.8854 Z -0.1250 I -1.2585 J -0.6614
G03 F1000 X 32.8408 Y 30.2145 Z -0.1250 I -2.0218 J -1.8086
G03 F1000 X 32.4364 Y 30.4765 Z -0.1250 I -1.6835 J -2.1548
G03 F1000 X 32.1054 Y 30.6037 Z -0.1250 I -0.6929 J -1.3092
G03 F1000 X 31.7887 Y 30.6204 Z -0.1250 I -0.1988 J -0.7595
G03 F1000 X 31.6391 Y 30.5329 Z -0.1250 I 0.0352 J -0.2319
G01 F1000 X 30.9706 Y 29.6772 Z -0.1250
G03 F1000 X 30.9217 Y 29.4920 Z -0.1250 I 0.1915 J -0.1496
G03 F1000 X 31.0501 Y 29.1396 Z -0.1250 I 0.9216 J 0.1364
G03 F1000 X 31.1546 Y 29.0202 Z -0.1250 I 0.4988 J 0.3310
G03 F1000 X 31.8206 Y 28.4652 Z -0.1250 I 11.7640 J 13.4381
G02 F1000 X 32.2250 Y 27.8855 Z -0.1250 I -0.7648 J -0.9644
G02 F1000 X 32.1525 Y 27.4564 Z -0.1250 I -0.4432 J -0.1458
G01 F1000 X 31.3450 Y 26.4434 Z -0.1250
G02 F1000 X 31.1950 Y 26.3558 Z -0.1250 I -0.1851 J 0.1446
G02 F1000 X 30.8698 Y 26.3715 Z -0.1250 I -0.1236 J 0.8164
G02 F1000 X 30.5471 Y 26.4983 Z -0.1250 I 0.3711 J 1.4181
G02 F1000 X 30.1433 Y 26.7618 Z -0.1250 I 1.3425 J 2.4987
G02 F1000 X 29.7895 Y 27.0898 Z -0.1250 I 1.7604 J 2.2532
G02 F1000 X 29.5838 Y 27.3762 Z -0.1250 I 1.1296 J 1.0287
G02 F1000 X 29.4939 Y 27.6839 Z -0.1250 I 0.7151 J 0.3758
G02 F1000 X 29.5436 Y 27.8508 Z -0.1250 I 0.2376 J 0.0201
G01 F1000 X 29.7352 Y 28.0960 Z -0.1250
S000 (---Laser 0% OFF) 
 G00 Z 10.0000

(End cutting path id: path7392)


(Start cutting path id: path7394)
(Change tool to Default tool)

S000 (---Laser 0% OFF) 
 G00 Z 10.0000
G00 X 31.6370 Y 25.5948

S000 (---Laser 0% OFF) 
 G01 F1000 Z -0.1250  (Penetrate)
S100	(---Laser 100% ON)
G01 F1000 X 34.3345 Y 29.0475 Z -0.1250  
G01 F1000 X 36.0409 Y 27.7143 Z -0.1250
G01 F1000 X 34.3345 Y 29.0475 Z -0.1250
G01 F1000 X 33.0249 Y 27.3712 Z -0.1250
G01 F1000 X 34.4910 Y 26.2257 Z -0.1250
G01 F1000 X 33.0249 Y 27.3712 Z -0.1250
G01 F1000 X 31.6370 Y 25.5948 Z -0.1250
G01 F1000 X 33.3433 Y 24.2617 Z -0.1250
G01 F1000 X 31.6370 Y 25.5948 Z -0.1250
S000 (---Laser 0% OFF) 
 G00 Z 10.0000

(End cutting path id: path7394)


(Start cutting path id: path7396)
(Change tool to Default tool)

S000 (---Laser 0% OFF) 
 G00 Z 10.0000
G00 X 36.2447 Y 24.8556

S000 (---Laser 0% OFF) 
 G01 F1000 Z -0.1250  (Penetrate)
S100	(---Laser 100% ON)
G03 F1000 X 36.6366 Y 24.5937 Z -0.1250 I 1.9559 J 2.5035  
G03 F1000 X 36.9545 Y 24.4541 Z -0.1250 I 0.8482 J 1.4998
G03 F1000 X 37.2739 Y 24.4237 Z -0.1250 I 0.2319 J 0.7434
G03 F1000 X 37.4230 Y 24.5071 Z -0.1250 I -0.0248 J 0.2192
G01 F1000 X 38.1540 Y 25.4429 Z -0.1250
G03 F1000 X 38.2009 Y 25.6088 Z -0.1250 I -0.1796 J 0.1403
G03 F1000 X 38.0999 Y 25.9203 Z -0.1250 I -0.8161 J -0.0925
G03 F1000 X 37.8968 Y 26.2110 Z -0.1250 I -1.3212 J -0.7066
G03 F1000 X 37.5544 Y 26.5319 Z -0.1250 I -1.9572 J -1.7459
G01 F1000 X 36.7387 Y 27.1691 Z -0.1250
G01 F1000 X 35.4291 Y 25.4928 Z -0.1250
G01 F1000 X 36.2447 Y 24.8556 Z -0.1250
S000 (---Laser 0% OFF) 
 G00 Z 10.0000

(Change tool to Default tool)

S000 (---Laser 0% OFF) 
 G00 Z 10.0000
G00 X 34.0412 Y 23.7164

S000 (---Laser 0% OFF) 
 G01 F1000 Z -0.1250  (Penetrate)
S100	(---Laser 100% ON)
G01 F1000 X 36.7387 Y 27.1691 Z -0.1250  
G01 F1000 X 37.5544 Y 26.5319 Z -0.1250
G02 F1000 X 37.8968 Y 26.2110 Z -0.1250 I -1.6147 J -2.0667
G02 F1000 X 38.0999 Y 25.9203 Z -0.1250 I -1.1181 J -0.9974
G02 F1000 X 38.2009 Y 25.6088 Z -0.1250 I -0.7152 J -0.4039
G02 F1000 X 38.1540 Y 25.4429 Z -0.1250 I -0.2265 J -0.0257
G01 F1000 X 37.4230 Y 24.5071 Z -0.1250
G02 F1000 X 37.2739 Y 24.4237 Z -0.1250 I -0.1739 J 0.1358
G02 F1000 X 36.9545 Y 24.4541 Z -0.1250 I -0.0875 J 0.7738
G02 F1000 X 36.6366 Y 24.5937 Z -0.1250 I 0.5304 J 1.6393
G02 F1000 X 36.2447 Y 24.8556 Z -0.1250 I 1.5640 J 2.7653
G01 F1000 X 35.4291 Y 25.4928 Z -0.1250
G01 F1000 X 34.0412 Y 23.7164 Z -0.1250
S000 (---Laser 0% OFF) 
 G00 Z 10.0000

(End cutting path id: path7396)


(Start cutting path id: path7398)
(Change tool to Default tool)

S000 (---Laser 0% OFF) 
 G00 Z 10.0000
G00 X 40.0086 Y 24.6144

S000 (---Laser 0% OFF) 
 G01 F1000 Z -0.1250  (Penetrate)
S100	(---Laser 100% ON)
G01 F1000 X 39.1429 Y 25.2907 Z -0.1250  
G01 F1000 X 40.8593 Y 23.9498 Z -0.1250
G01 F1000 X 40.0086 Y 24.6144 Z -0.1250
G01 F1000 X 37.3111 Y 21.1617 Z -0.1250
G01 F1000 X 40.0086 Y 24.6144 Z -0.1250
S000 (---Laser 0% OFF) 
 G00 Z 10.0000

(End cutting path id: path7398)


(Start cutting path id: path7400)
(Change tool to Default tool)

S000 (---Laser 0% OFF) 
 G00 Z 10.0000
G00 X 38.8496 Y 19.9597

S000 (---Laser 0% OFF) 
 G01 F1000 Z -0.1250  (Penetrate)
S100	(---Laser 100% ON)
G01 F1000 X 41.5471 Y 23.4124 Z -0.1250  
G01 F1000 X 43.2535 Y 22.0792 Z -0.1250
G01 F1000 X 41.5471 Y 23.4124 Z -0.1250
G01 F1000 X 40.2375 Y 21.7361 Z -0.1250
G01 F1000 X 41.7036 Y 20.5906 Z -0.1250
G01 F1000 X 40.2375 Y 21.7361 Z -0.1250
G01 F1000 X 38.8496 Y 19.9597 Z -0.1250
G01 F1000 X 40.5559 Y 18.6266 Z -0.1250
G01 F1000 X 38.8496 Y 19.9597 Z -0.1250
S000 (---Laser 0% OFF) 
 G00 Z 10.0000

(End cutting path id: path7400)


(Start cutting path id: path7402)
(Change tool to Default tool)

S000 (---Laser 0% OFF) 
 G00 Z 10.0000
G00 X 41.2538 Y 18.0813

S000 (---Laser 0% OFF) 
 G01 F1000 Z -0.1250  (Penetrate)
S100	(---Laser 100% ON)
G01 F1000 X 43.9513 Y 21.5340 Z -0.1250  
G01 F1000 X 42.4447 Y 17.1509 Z -0.1250
G01 F1000 X 46.3282 Y 19.6770 Z -0.1250
G01 F1000 X 43.6307 Y 16.2243 Z -0.1250
G01 F1000 X 46.3282 Y 19.6770 Z -0.1250
G01 F1000 X 42.4447 Y 17.1509 Z -0.1250
G01 F1000 X 43.9513 Y 21.5340 Z -0.1250
G01 F1000 X 41.2538 Y 18.0813 Z -0.1250
S000 (---Laser 0% OFF) 
 G00 Z 10.0000

(End cutting path id: path7402)


(Start cutting path id: path7404)
(Change tool to Default tool)

S000 (---Laser 0% OFF) 
 G00 Z 10.0000
G00 X 44.4594 Y 15.5768

S000 (---Laser 0% OFF) 
 G01 F1000 Z -0.1250  (Penetrate)
S100	(---Laser 100% ON)
G01 F1000 X 45.8356 Y 17.3382 Z -0.1250  
G01 F1000 X 46.6512 Y 16.7009 Z -0.1250
G02 F1000 X 47.1219 Y 16.2189 Z -0.1250 I -3.8196 J -4.2012
G02 F1000 X 47.2573 Y 16.0018 Z -0.1250 I -0.6188 J -0.5364
G02 F1000 X 47.3087 Y 15.7641 Z -0.1250 I -0.5639 J -0.2464
G02 F1000 X 47.2626 Y 15.6270 Z -0.1250 I -0.2177 J -0.0031
G01 F1000 X 46.4768 Y 14.6212 Z -0.1250
G02 F1000 X 46.3227 Y 14.5321 Z -0.1250 I -0.1875 J 0.1465
G02 F1000 X 45.9966 Y 14.5532 Z -0.1250 I -0.1124 J 0.7938
G02 F1000 X 45.6687 Y 14.6831 Z -0.1250 I 0.4017 J 1.4922
G02 F1000 X 45.2751 Y 14.9396 Z -0.1250 I 1.2947 J 2.4175
G01 F1000 X 44.4594 Y 15.5768 Z -0.1250
S000 (---Laser 0% OFF) 
 G00 Z 10.0000

(Change tool to Default tool)

S000 (---Laser 0% OFF) 
 G00 Z 10.0000
G00 X 47.1569 Y 19.0295

S000 (---Laser 0% OFF) 
 G01 F1000 Z -0.1250  (Penetrate)
S100	(---Laser 100% ON)
G01 F1000 X 44.4594 Y 15.5768 Z -0.1250  
G01 F1000 X 45.2751 Y 14.9396 Z -0.1250
G03 F1000 X 45.6687 Y 14.6831 Z -0.1250 I 1.6884 J 2.1610
G03 F1000 X 45.9966 Y 14.5532 Z -0.1250 I 0.7296 J 1.3623
G03 F1000 X 46.3227 Y 14.5321 Z -0.1250 I 0.2137 J 0.7728
G03 F1000 X 46.4768 Y 14.6212 Z -0.1250 I -0.0334 J 0.2356
G01 F1000 X 47.2626 Y 15.6270 Z -0.1250
G03 F1000 X 47.3087 Y 15.7641 Z -0.1250 I -0.1715 J 0.1340
G03 F1000 X 47.2573 Y 16.0018 Z -0.1250 I -0.6153 J -0.0087
G03 F1000 X 47.1219 Y 16.2189 Z -0.1250 I -0.7541 J -0.3193
G03 F1000 X 46.6512 Y 16.7009 Z -0.1250 I -4.2903 J -3.7192
G03 F1000 X 47.2193 Y 16.3630 Z -0.1250 I 3.0957 J 4.5577
G03 F1000 X 47.4723 Y 16.2770 Z -0.1250 I 0.4131 J 0.8001
G03 F1000 X 47.7191 Y 16.2886 Z -0.1250 I 0.0939 J 0.6344
G03 F1000 X 47.8412 Y 16.3675 Z -0.1250 I -0.0529 J 0.2157
G01 F1000 X 48.5722 Y 17.3033 Z -0.1250
G03 F1000 X 48.6178 Y 17.4646 Z -0.1250 I -0.1746 J 0.1364
G03 F1000 X 48.5181 Y 17.7807 Z -0.1250 I -0.8599 J -0.0974
G03 F1000 X 48.3106 Y 18.0756 Z -0.1250 I -1.3789 J -0.7500
G03 F1000 X 47.9726 Y 18.3923 Z -0.1250 I -1.9317 J -1.7232
G01 F1000 X 47.1569 Y 19.0295 Z -0.1250
S000 (---Laser 0% OFF) 
 G00 Z 10.0000

(Change tool to Default tool)

S000 (---Laser 0% OFF) 
 G00 Z 10.0000
G00 X 46.6512 Y 16.7009

S000 (---Laser 0% OFF) 
 G01 F1000 Z -0.1250  (Penetrate)
S100	(---Laser 100% ON)
G01 F1000 X 45.8356 Y 17.3382 Z -0.1250  
G01 F1000 X 47.1569 Y 19.0295 Z -0.1250
G01 F1000 X 47.9726 Y 18.3923 Z -0.1250
G02 F1000 X 48.3106 Y 18.0756 Z -0.1250 I -1.5937 J -2.0398
G02 F1000 X 48.5181 Y 17.7807 Z -0.1250 I -1.1713 J -1.0449
G02 F1000 X 48.6178 Y 17.4646 Z -0.1250 I -0.7602 J -0.4135
G02 F1000 X 48.5722 Y 17.3033 Z -0.1250 I -0.2202 J -0.0249
G01 F1000 X 47.8412 Y 16.3675 Z -0.1250
G02 F1000 X 47.7191 Y 16.2886 Z -0.1250 I -0.1750 J 0.1367
G02 F1000 X 47.4723 Y 16.2770 Z -0.1250 I -0.1529 J 0.6229
G02 F1000 X 47.2193 Y 16.3630 Z -0.1250 I 0.1601 J 0.8861
G02 F1000 X 46.6512 Y 16.7009 Z -0.1250 I 2.5277 J 4.8956
G01 F1000 X 46.6512 Y 16.7009 Z -0.1250
S000 (---Laser 0% OFF) 
 G00 Z 10.0000

(End cutting path id: path7404)


(Start cutting path id: path7406)
(Change tool to Default tool)

S000 (---Laser 0% OFF) 
 G00 Z 10.0000
G00 X 46.8636 Y 13.6985

S000 (---Laser 0% OFF) 
 G01 F1000 Z -0.1250  (Penetrate)
S100	(---Laser 100% ON)
G01 F1000 X 49.5611 Y 17.1511 Z -0.1250  
G01 F1000 X 51.2675 Y 15.8180 Z -0.1250
G01 F1000 X 49.5611 Y 17.1511 Z -0.1250
G01 F1000 X 48.2515 Y 15.4748 Z -0.1250
G01 F1000 X 49.7176 Y 14.3294 Z -0.1250
G01 F1000 X 48.2515 Y 15.4748 Z -0.1250
G01 F1000 X 46.8636 Y 13.6985 Z -0.1250
G01 F1000 X 48.5699 Y 12.3653 Z -0.1250
G01 F1000 X 46.8636 Y 13.6985 Z -0.1250
S000 (---Laser 0% OFF) 
 G00 Z 10.0000

(End cutting path id: path7406)


(Start cutting path id: path7408)
(Change tool to Default tool)

S000 (---Laser 0% OFF) 
 G00 Z 10.0000
G00 X 51.4596 Y 12.9442

S000 (---Laser 0% OFF) 
 G01 F1000 Z -0.1250  (Penetrate)
S100	(---Laser 100% ON)
G03 F1000 X 52.0327 Y 12.6030 Z -0.1250 I 3.1105 J 4.5732  
G03 F1000 X 52.2807 Y 12.5203 Z -0.1250 I 0.3897 J 0.7549
G03 F1000 X 52.5275 Y 12.5318 Z -0.1250 I 0.0939 J 0.6344
G03 F1000 X 52.6496 Y 12.6108 Z -0.1250 I -0.0529 J 0.2157
G01 F1000 X 53.3807 Y 13.5465 Z -0.1250
G03 F1000 X 53.4275 Y 13.7125 Z -0.1250 I -0.1796 J 0.1403
G03 F1000 X 53.3266 Y 14.0239 Z -0.1250 I -0.8161 J -0.0925
G03 F1000 X 53.1234 Y 14.3147 Z -0.1250 I -1.3212 J -0.7066
G03 F1000 X 52.7810 Y 14.6355 Z -0.1250 I -1.9572 J -1.7459
G01 F1000 X 51.9654 Y 15.2728 Z -0.1250
G01 F1000 X 50.6440 Y 13.5815 Z -0.1250
G01 F1000 X 51.4596 Y 12.9442 Z -0.1250
S000 (---Laser 0% OFF) 
 G00 Z 10.0000

(Change tool to Default tool)

S000 (---Laser 0% OFF) 
 G00 Z 10.0000
G00 X 49.2678 Y 11.8201

S000 (---Laser 0% OFF) 
 G01 F1000 Z -0.1250  (Penetrate)
S100	(---Laser 100% ON)
G01 F1000 X 51.9654 Y 15.2728 Z -0.1250  
G01 F1000 X 52.7810 Y 14.6355 Z -0.1250
G02 F1000 X 53.1234 Y 14.3147 Z -0.1250 I -1.6147 J -2.0667
G02 F1000 X 53.3266 Y 14.0239 Z -0.1250 I -1.1181 J -0.9974
G02 F1000 X 53.4275 Y 13.7125 Z -0.1250 I -0.7152 J -0.4039
G02 F1000 X 53.3807 Y 13.5465 Z -0.1250 I -0.2265 J -0.0257
G01 F1000 X 52.6496 Y 12.6108 Z -0.1250
G02 F1000 X 52.5275 Y 12.5318 Z -0.1250 I -0.1750 J 0.1367
G02 F1000 X 52.2807 Y 12.5203 Z -0.1250 I -0.1529 J 0.6229
G02 F1000 X 52.0327 Y 12.6030 Z -0.1250 I 0.1418 J 0.8376
G02 F1000 X 51.4596 Y 12.9442 Z -0.1250 I 2.5373 J 4.9144
G02 F1000 X 51.9271 Y 12.4696 Z -0.1250 I -3.4859 J -3.9017
G02 F1000 X 52.0657 Y 12.2451 Z -0.1250 I -0.6202 J -0.5377
G02 F1000 X 52.1171 Y 12.0073 Z -0.1250 I -0.5639 J -0.2464
G02 F1000 X 52.0710 Y 11.8702 Z -0.1250 I -0.2177 J -0.0031
G01 F1000 X 50.9842 Y 10.4791 Z -0.1250
G01 F1000 X 52.0710 Y 11.8702 Z -0.1250
G03 F1000 X 52.1171 Y 12.0073 Z -0.1250 I -0.1715 J 0.1340
G03 F1000 X 52.0657 Y 12.2451 Z -0.1250 I -0.6153 J -0.0087
G03 F1000 X 51.9271 Y 12.4696 Z -0.1250 I -0.7588 J -0.3131
G03 F1000 X 51.4596 Y 12.9442 Z -0.1250 I -3.9534 J -3.4272
G01 F1000 X 50.6440 Y 13.5815 Z -0.1250
G01 F1000 X 49.2678 Y 11.8201 Z -0.1250
S000 (---Laser 0% OFF) 
 G00 Z 10.0000

(End cutting path id: path7408)


(Start cutting path id: path7434)
(Change tool to Default tool)

S000 (---Laser 0% OFF) 
 G00 Z 10.0000
G00 X 11.7521 Y 2.1752

S000 (---Laser 0% OFF) 
 G01 F1000 Z -0.1250  (Penetrate)
S100	(---Laser 100% ON)
G01 F1000 X 11.7521 Y 6.5567 Z -0.1250  
G01 F1000 X 13.9174 Y 6.5567 Z -0.1250
G01 F1000 X 11.7521 Y 6.5567 Z -0.1250
G01 F1000 X 11.7521 Y 4.4294 Z -0.1250
G01 F1000 X 13.6126 Y 4.4294 Z -0.1250
G01 F1000 X 11.7521 Y 4.4294 Z -0.1250
G01 F1000 X 11.7521 Y 2.1752 Z -0.1250
G01 F1000 X 13.9174 Y 2.1752 Z -0.1250
G01 F1000 X 11.7521 Y 2.1752 Z -0.1250
S000 (---Laser 0% OFF) 
 G00 Z 10.0000

(End cutting path id: path7434)


(Start cutting path id: path7432)
(Change tool to Default tool)

S000 (---Laser 0% OFF) 
 G00 Z 10.0000
G00 X 8.7011 Y 2.1752

S000 (---Laser 0% OFF) 
 G01 F1000 Z -0.1250  (Penetrate)
S100	(---Laser 100% ON)
G01 F1000 X 8.7011 Y 6.5567 Z -0.1250  
G01 F1000 X 10.8982 Y 2.1752 Z -0.1250
G01 F1000 X 10.8982 Y 6.5567 Z -0.1250
G01 F1000 X 10.8982 Y 2.1752 Z -0.1250
G01 F1000 X 8.7011 Y 6.5567 Z -0.1250
G01 F1000 X 8.7011 Y 2.1752 Z -0.1250
S000 (---Laser 0% OFF) 
 G00 Z 10.0000

(End cutting path id: path7432)


(Start cutting path id: path7430)
(Change tool to Default tool)

S000 (---Laser 0% OFF) 
 G00 Z 10.0000
G00 X 7.9361 Y 2.6641

S000 (---Laser 0% OFF) 
 G01 F1000 Z -0.1250  (Penetrate)
S100	(---Laser 100% ON)
G02 F1000 X 7.8719 Y 2.5027 Z -0.1250 I -0.2349 J 0.0000  
G02 F1000 X 7.6059 Y 2.3149 Z -0.1250 I -0.6000 J 0.5673
G02 F1000 X 7.2736 Y 2.2162 Z -0.1250 I -0.5806 J 1.3460
G02 F1000 X 6.7931 Y 2.1752 Z -0.1250 I -0.4805 J 2.7956
G02 F1000 X 6.3124 Y 2.2159 Z -0.1250 I 0.0000 J 2.8593
G02 F1000 X 5.9740 Y 2.3149 Z -0.1250 I 0.2569 J 1.5061
G02 F1000 X 5.7137 Y 2.5020 Z -0.1250 I 0.3321 J 0.7364
G02 F1000 X 5.6501 Y 2.6641 Z -0.1250 I 0.1748 J 0.1621
G01 F1000 X 5.6501 Y 6.5376 Z -0.1250
G01 F1000 X 5.6501 Y 2.6641 Z -0.1250
G03 F1000 X 5.7137 Y 2.5020 Z -0.1250 I 0.2384 J -0.0000
G03 F1000 X 5.9740 Y 2.3149 Z -0.1250 I 0.5924 J 0.5493
G03 F1000 X 6.3124 Y 2.2159 Z -0.1250 I 0.5953 J 1.4071
G03 F1000 X 6.7931 Y 2.1752 Z -0.1250 I 0.4807 J 2.8186
G03 F1000 X 7.2736 Y 2.2162 Z -0.1250 I -0.0000 J 2.8365
G03 F1000 X 7.6059 Y 2.3149 Z -0.1250 I -0.2483 J 1.4447
G03 F1000 X 7.8719 Y 2.5027 Z -0.1250 I -0.3340 J 0.7551
G03 F1000 X 7.9361 Y 2.6641 Z -0.1250 I -0.1707 J 0.1614
G01 F1000 X 7.9361 Y 6.5376 Z -0.1250
G01 F1000 X 7.9361 Y 2.6641 Z -0.1250
S000 (---Laser 0% OFF) 
 G00 Z 10.0000

(End cutting path id: path7430)


(Start cutting path id: path7428)
(Change tool to Default tool)

S000 (---Laser 0% OFF) 
 G00 Z 10.0000
G00 X 2.5991 Y 2.9753

S000 (---Laser 0% OFF) 
 G01 F1000 Z -0.1250  (Penetrate)
S100	(---Laser 100% ON)
G01 F1000 X 2.5991 Y 2.6641 Z -0.1250  
G03 F1000 X 2.6627 Y 2.5020 Z -0.1250 I 0.2384 J -0.0000
G03 F1000 X 2.9230 Y 2.3149 Z -0.1250 I 0.5924 J 0.5493
G03 F1000 X 3.2614 Y 2.2159 Z -0.1250 I 0.5953 J 1.4071
G03 F1000 X 3.7421 Y 2.1752 Z -0.1250 I 0.4807 J 2.8186
G03 F1000 X 4.2226 Y 2.2162 Z -0.1250 I -0.0000 J 2.8365
G03 F1000 X 4.5549 Y 2.3149 Z -0.1250 I -0.2483 J 1.4447
G03 F1000 X 4.8209 Y 2.5027 Z -0.1250 I -0.3340 J 0.7551
G03 F1000 X 4.8851 Y 2.6641 Z -0.1250 I -0.1707 J 0.1614
G01 F1000 X 4.8851 Y 6.5376 Z -0.1250
G01 F1000 X 4.8851 Y 2.6641 Z -0.1250
G02 F1000 X 4.8209 Y 2.5027 Z -0.1250 I -0.2349 J 0.0000
G02 F1000 X 4.5549 Y 2.3149 Z -0.1250 I -0.6000 J 0.5673
G02 F1000 X 4.2226 Y 2.2162 Z -0.1250 I -0.5806 J 1.3460
G02 F1000 X 3.7421 Y 2.1752 Z -0.1250 I -0.4805 J 2.7956
G02 F1000 X 3.2614 Y 2.2159 Z -0.1250 I -0.0000 J 2.8593
G02 F1000 X 2.9230 Y 2.3149 Z -0.1250 I 0.2569 J 1.5061
G02 F1000 X 2.6627 Y 2.5020 Z -0.1250 I 0.3321 J 0.7364
G02 F1000 X 2.5991 Y 2.6641 Z -0.1250 I 0.1748 J 0.1621
G01 F1000 X 2.5991 Y 2.9753 Z -0.1250
S000 (---Laser 0% OFF) 
 G00 Z 10.0000

(End cutting path id: path7428)


(Start cutting path id: path7382)
(Change tool to Default tool)

S000 (---Laser 0% OFF) 
 G00 Z 10.0000
G00 X 14.4264 Y 39.0412

S000 (---Laser 0% OFF) 
 G01 F1000 Z -0.1250  (Penetrate)
S100	(---Laser 100% ON)
G01 F1000 X 17.1240 Y 42.4938 Z -0.1250  
G01 F1000 X 15.6174 Y 38.1107 Z -0.1250
G01 F1000 X 19.5008 Y 40.6368 Z -0.1250
G01 F1000 X 16.8033 Y 37.1842 Z -0.1250
G01 F1000 X 19.5008 Y 40.6368 Z -0.1250
G01 F1000 X 15.6174 Y 38.1107 Z -0.1250
G01 F1000 X 17.1240 Y 42.4938 Z -0.1250
G01 F1000 X 14.4264 Y 39.0412 Z -0.1250
S000 (---Laser 0% OFF) 
 G00 Z 10.0000

(End cutting path id: path7382)



(Footer)
M5
G00 X0.0000 Y0.0000
M2
(Using default footer. To add your own footer create file "footer" in the output dir.)
(end)
%