(Changes==========================)
(template_2022_09_02.nc)
(template_2022_11_15.nc Gimp post processing, LaserOn LaserOff keywords easier to select and highlight)
(======HEADER=====================)
(G00 – Rapid Positioning------------Laser OFF)
(G01 – Linear interpolation------------ )
(G02 – Circular interpolation CCW------------ )
(G02 – Circular interpolation CW------------ )
(Gcode G91 & Gcode G90: CNC Absolute and Incremental Programming)
(S00 - S1000 Spindle speed)
(M03 – Spindle on in a clockwise)
(======POST PROCESSING====FREECAD=======)
(REPLACE (CUT); (CUT) \r\n S1000	(---LaserOn 100% ON))
(Penetrate)
(REPLACE F0.166667 ; F1000)
(REPLACE F8.333333 ; F1000)
(REPLACE F1000 ; F1000)
(REPLACE Z-5.000000 ;  )
(REPLACE Z-5.000000 ; \r\n S1000	(---LaserOff 100% ON))
(======POST PROCESSING====GIMP=======)
(REPLACE (Penetrate); (Penetrate) \r\n S1000	(---LaserOn 100% ON))
(REPLACE G00 Z 0.0000 G00 Z 0.0000\n\rS000	(---LaserOff 000%))
(======START=====================)
(======CODE MANDATORY============)
M3 S0  (M03 – Spindle on in a clockwise)
(================================)
S0 		(--LaserOff 000% OFF)
G0 F1000 X0.000000 Y0.000000
S1000	(---LaserOn 100% ON)
S0 		(---LaserOff 000% OFF)
(=BEGIN Engrave=========================)

(Engrave003)
G0 F1000 Z6.000000
S0	(---Laser 0% OFF)
G0 F1000 Z6.000000
S0	(---Laser 0% OFF)
G0 F1000 X67.500000 Y12.990381
G0 F1000 Z4.000000
S1000	(---Laser 100% ON)
G1 F1000 X67.500000 Y12.990381 Z-5.000000
G1 F1000 X37.500000 Y64.951905 Z-5.000000
G3 F1000 I37.500000 J-64.951905 K0.000000 X0.000000 Y0.000000 Z-5.000000
G1 F1000 X60.000000 Y0.000000 Z-5.000000
G2 F1000 I15.000000 J0.000000 K0.000000 X67.500000 Y12.990381 Z-5.000000
G0 F1000 Z6.000000
S0	(---Laser 0% OFF)
G0 F1000 Z6.000000
S0	(---Laser 0% OFF)
G0 F1000 X90.000000 Y-0.000002
G0 F1000 Z4.000000
S1000	(---Laser 100% ON)
G1 F1000 X90.000000 Y-0.000002 Z-5.000000
G1 F1000 X150.000000 Y-0.000002 Z-5.000000
G3 F1000 I-75.000000 J0.000002 K0.000000 X112.500000 Y64.951905 Z-5.000000
G1 F1000 X82.500000 Y12.990381 Z-5.000000
G2 F1000 I-7.500000 J-12.990381 K0.000000 X90.000000 Y-0.000002 Z-5.000000
G0 F1000 Z6.000000
S0	(---Laser 0% OFF)
G0 F1000 Z6.000000
S0	(---Laser 0% OFF)
G0 F1000 X70.000000 Y50.000000
G0 F1000 Z4.000000
S1000	(---Laser 100% ON)
G1 F1000 X70.000000 Y50.000000 Z-5.000000
G3 F1000 I-10.000000 J0.000000 K0.000000 X70.000000 Y50.000000 Z-5.000000
G0 F1000 Z6.000000
S0	(---Laser 0% OFF)
G0 F1000 Z6.000000
S0	(---Laser 0% OFF)
G0 F1000 X100.000000 Y50.000000
G0 F1000 Z4.000000
S1000	(---Laser 100% ON)
G1 F1000 X100.000000 Y50.000000 Z-5.000000
G3 F1000 I-10.000000 J0.000000 K0.000000 X100.000000 Y50.000000 Z-5.000000
G0 Z6.000000

(=END Engrave===========================)
(======END============)
(G00 – Rapid Positioning------------Laser OFF)
S0 
G0 Z10.000000
