%
(Header)
(Generated by gcodetools from Inkscape.)
(Using default header. To add your own header create file "header" in the output dir.)
M3
(Header end.)
G21 (All units in mm)

(Start cutting path id: path3785)
(Change tool to Default tool)

S0
 G0 F1000 Z6.000000
S0	(---Laser 0% OFF)
G00 X 30.6576 Y 1.4572

G01 Z -0.1250 F 100.0000(Penetrate) 
 S250	(---LaserOn 100% ON)
G02 X 30.6022 Y 1.3063 Z -0.1250 I -0.2331 J -0.0000 F 400.0000
G02 X 30.3719 Y 1.1206 Z -0.1250 I -0.6019 J 0.5111
G02 X 30.0806 Y 1.0151 Z -0.1250 I -0.4907 J 0.8997
G02 X 29.6035 Y 0.9682 Z -0.1250 I -0.4770 J 2.4049
G02 X 29.1236 Y 1.0107 Z -0.1250 I 0.0000 J 2.7345
G02 X 28.7844 Y 1.1143 Z -0.1250 I 0.2600 J 1.4582
G02 X 28.5246 Y 1.2961 Z -0.1250 I 0.3110 J 0.7209
G02 X 28.4605 Y 1.4572 Z -0.1250 I 0.1706 J 0.1611
G01 X 28.4605 Y 1.4572 Z -0.1250
G03 X 28.5246 Y 1.2961 Z -0.1250 I 0.2346 J -0.0000
G03 X 28.7844 Y 1.1143 Z -0.1250 I 0.5708 J 0.5391
G03 X 29.1236 Y 1.0107 Z -0.1250 I 0.5992 J 1.3546
G03 X 29.6035 Y 0.9682 Z -0.1250 I 0.4800 J 2.6921
G03 X 30.0806 Y 1.0151 Z -0.1250 I -0.0000 J 2.4517
G03 X 30.3719 Y 1.1206 Z -0.1250 I -0.1994 J 1.0052
G03 X 30.6022 Y 1.3063 Z -0.1250 I -0.3716 J 0.6967
G03 X 30.6576 Y 1.4572 Z -0.1250 I -0.1777 J 0.1509
G01 X 30.6576 Y 2.6002 Z -0.1250
G02 X 30.5959 Y 2.4567 Z -0.1250 I -0.1975 J 0.0000
G02 X 30.3020 Y 2.2636 Z -0.1250 I -0.6883 J 0.7273
G02 X 29.9451 Y 2.1481 Z -0.1250 I -0.7643 J 1.7515
G02 X 29.6035 Y 2.1112 Z -0.1250 I -0.3416 J 1.5655
G02 X 29.1229 Y 2.1519 Z -0.1250 I -0.0000 J 2.8593
G02 X 28.7844 Y 2.2509 Z -0.1250 I 0.2569 J 1.5061
G02 X 28.5241 Y 2.4381 Z -0.1250 I 0.3321 J 0.7364
G02 X 28.4605 Y 2.6002 Z -0.1250 I 0.1748 J 0.1621
G01 X 28.4605 Y 5.3497 Z -0.1250
G01 X 28.4605 Y 2.6002 Z -0.1250
G03 X 28.5241 Y 2.4381 Z -0.1250 I 0.2384 J -0.0000
G03 X 28.7844 Y 2.2509 Z -0.1250 I 0.5924 J 0.5493
G03 X 29.1229 Y 2.1519 Z -0.1250 I 0.5953 J 1.4071
G03 X 29.6035 Y 2.1112 Z -0.1250 I 0.4807 J 2.8186
G03 X 29.9451 Y 2.1481 Z -0.1250 I -0.0000 J 1.6023
G03 X 30.3020 Y 2.2636 Z -0.1250 I -0.4074 J 1.8671
G03 X 30.5959 Y 2.4567 Z -0.1250 I -0.3944 J 0.9204
G03 X 30.6576 Y 2.6002 Z -0.1250 I -0.1358 J 0.1434
G01 X 30.6576 Y 5.3497 Z -0.1250
G01 X 30.6576 Y 1.4572 Z -0.1250
S0
 G0 F1000 Z6.000000
S0	(---Laser 0% OFF)

(End cutting path id: path3785)


(Start cutting path id: path3783)
(Change tool to Default tool)

S0
 G0 F1000 Z6.000000
S0	(---Laser 0% OFF)
G00 X 25.4096 Y 2.1112

G01 Z -0.1250 F 100.0000(Penetrate) 
 S250	(---LaserOn 100% ON)
G01 X 25.4096 Y 4.8608 Z -0.1250 F 400.0000
G01 X 25.4096 Y 5.3497 Z -0.1250
G01 X 25.4096 Y 4.8608 Z -0.1250
G02 X 25.4693 Y 5.0133 Z -0.1250 I 0.2247 J -0.0000
G02 X 25.7207 Y 5.1973 Z -0.1250 I 0.5968 J -0.5517
G02 X 26.0426 Y 5.3034 Z -0.1250 I 0.5453 J -1.1133
G02 X 26.5526 Y 5.3497 Z -0.1250 I 0.5100 J -2.7836
G02 X 27.0296 Y 5.3029 Z -0.1250 I -0.0000 J -2.4517
G02 X 27.3209 Y 5.1973 Z -0.1250 I -0.1994 J -1.0052
G02 X 27.5513 Y 5.0117 Z -0.1250 I -0.3716 J -0.6967
G02 X 27.6067 Y 4.8608 Z -0.1250 I -0.1777 J -0.1509
G01 X 27.6067 Y 4.8608 Z -0.1250
G03 X 27.5513 Y 5.0117 Z -0.1250 I -0.2331 J 0.0000
G03 X 27.3209 Y 5.1973 Z -0.1250 I -0.6019 J -0.5111
G03 X 27.0296 Y 5.3029 Z -0.1250 I -0.4907 J -0.8997
G03 X 26.5526 Y 5.3497 Z -0.1250 I -0.4770 J -2.4049
G03 X 26.0426 Y 5.3034 Z -0.1250 I -0.0000 J -2.8299
G03 X 25.7207 Y 5.1973 Z -0.1250 I 0.2234 J -1.2193
G03 X 25.4693 Y 5.0133 Z -0.1250 I 0.3453 J -0.7357
G03 X 25.4096 Y 4.8608 Z -0.1250 I 0.1650 J -0.1526
G01 X 25.4096 Y 2.1112 Z -0.1250
S0
 G0 F1000 Z6.000000
S0	(---Laser 0% OFF)

(End cutting path id: path3783)


(Start cutting path id: path3781)
(Change tool to Default tool)

S0
 G0 F1000 Z6.000000
S0	(---Laser 0% OFF)
G00 X 22.3586 Y 2.6002

G01 Z -0.1250 F 100.0000(Penetrate) 
 S250	(---LaserOn 100% ON)
G03 X 22.4222 Y 2.4381 Z -0.1250 I 0.2384 J 0.0000 F 400.0000
G03 X 22.6824 Y 2.2509 Z -0.1250 I 0.5924 J 0.5493
G03 X 23.0209 Y 2.1519 Z -0.1250 I 0.5953 J 1.4071
G03 X 23.5016 Y 2.1112 Z -0.1250 I 0.4807 J 2.8186
G03 X 23.9358 Y 2.1549 Z -0.1250 I -0.0000 J 2.1784
G03 X 24.2509 Y 2.2636 Z -0.1250 I -0.2533 J 1.2456
G03 X 24.4984 Y 2.4515 Z -0.1250 I -0.3764 J 0.7529
G03 X 24.5557 Y 2.6002 Z -0.1250 I -0.1642 J 0.1487
G01 X 24.5557 Y 3.5336 Z -0.1250
G03 X 24.4940 Y 3.6771 Z -0.1250 I -0.1975 J -0.0000
G03 X 24.2001 Y 3.8702 Z -0.1250 I -0.6883 J -0.7273
G03 X 23.8432 Y 3.9857 Z -0.1250 I -0.7643 J -1.7515
G03 X 23.5016 Y 4.0226 Z -0.1250 I -0.3416 J -1.5655
G03 X 23.0216 Y 3.9801 Z -0.1250 I 0.0000 J -2.7345
G03 X 22.6824 Y 3.8765 Z -0.1250 I 0.2600 J -1.4582
G03 X 22.4226 Y 3.6947 Z -0.1250 I 0.3110 J -0.7209
G03 X 22.3586 Y 3.5336 Z -0.1250 I 0.1706 J -0.1611
G01 X 22.3586 Y 2.6002 Z -0.1250
S0
 G0 F1000 Z6.000000
S0	(---Laser 0% OFF)

(Change tool to Default tool)

S0
 G0 F1000 Z6.000000
S0	(---Laser 0% OFF)
G00 X 24.5557 Y 2.6002

G01 Z -0.1250 F 100.0000(Penetrate) 
 S250	(---LaserOn 100% ON)
G02 X 24.4984 Y 2.4515 Z -0.1250 I -0.2215 J 0.0000 F 400.0000
G02 X 24.2509 Y 2.2636 Z -0.1250 I -0.6239 J 0.5650
G02 X 23.9358 Y 2.1549 Z -0.1250 I -0.5685 J 1.1369
G02 X 23.5016 Y 2.1112 Z -0.1250 I -0.4342 J 2.1347
G02 X 23.0209 Y 2.1519 Z -0.1250 I 0.0000 J 2.8593
G02 X 22.6824 Y 2.2509 Z -0.1250 I 0.2569 J 1.5061
G02 X 22.4222 Y 2.4381 Z -0.1250 I 0.3321 J 0.7364
G02 X 22.3586 Y 2.6002 Z -0.1250 I 0.1748 J 0.1621
G01 X 22.3586 Y 3.5336 Z -0.1250
G02 X 22.4226 Y 3.6947 Z -0.1250 I 0.2346 J -0.0000
G02 X 22.6824 Y 3.8765 Z -0.1250 I 0.5708 J -0.5391
G02 X 23.0216 Y 3.9801 Z -0.1250 I 0.5992 J -1.3546
G02 X 23.5016 Y 4.0226 Z -0.1250 I 0.4800 J -2.6921
G02 X 23.8432 Y 3.9857 Z -0.1250 I 0.0000 J -1.6023
G02 X 24.2001 Y 3.8702 Z -0.1250 I -0.4074 J -1.8671
G02 X 24.4940 Y 3.6771 Z -0.1250 I -0.3944 J -0.9204
G02 X 24.5557 Y 3.5336 Z -0.1250 I -0.1358 J -0.1434
G01 X 24.5557 Y 4.8608 Z -0.1250
G03 X 24.5003 Y 5.0117 Z -0.1250 I -0.2331 J -0.0000
G03 X 24.2699 Y 5.1973 Z -0.1250 I -0.6019 J -0.5110
G03 X 23.9786 Y 5.3029 Z -0.1250 I -0.4907 J -0.8997
G03 X 23.5016 Y 5.3497 Z -0.1250 I -0.4770 J -2.4049
G03 X 23.0216 Y 5.3073 Z -0.1250 I 0.0000 J -2.7345
G03 X 22.6824 Y 5.2037 Z -0.1250 I 0.2600 J -1.4582
G03 X 22.4226 Y 5.0219 Z -0.1250 I 0.3110 J -0.7209
G03 X 22.3586 Y 4.8608 Z -0.1250 I 0.1706 J -0.1611
G01 X 22.3586 Y 4.5496 Z -0.1250
G01 X 22.3586 Y 4.8608 Z -0.1250
G02 X 22.4226 Y 5.0219 Z -0.1250 I 0.2346 J -0.0000
G02 X 22.6824 Y 5.2037 Z -0.1250 I 0.5708 J -0.5391
G02 X 23.0216 Y 5.3073 Z -0.1250 I 0.5992 J -1.3546
G02 X 23.5016 Y 5.3497 Z -0.1250 I 0.4800 J -2.6921
G02 X 23.9786 Y 5.3029 Z -0.1250 I 0.0000 J -2.4517
G02 X 24.2699 Y 5.1973 Z -0.1250 I -0.1994 J -1.0052
G02 X 24.5003 Y 5.0117 Z -0.1250 I -0.3716 J -0.6967
G02 X 24.5557 Y 4.8608 Z -0.1250 I -0.1777 J -0.1509
G01 X 24.5557 Y 2.1112 Z -0.1250
G01 X 24.5557 Y 2.6002 Z -0.1250
S0
 G0 F1000 Z6.000000
S0	(---Laser 0% OFF)

(End cutting path id: path3781)


(Start cutting path id: path3779)
(Change tool to Default tool)

S0
 G0 F1000 Z6.000000
S0	(---Laser 0% OFF)
G00 X 21.5047 Y 5.3497

G01 Z -0.1250 F 100.0000(Penetrate) 
 S250	(---LaserOn 100% ON)
G01 X 21.5047 Y 2.6002 Z -0.1250 F 400.0000
G01 X 21.5047 Y 2.6002 Z -0.1250
G02 X 21.4448 Y 2.4474 Z -0.1250 I -0.2249 J -0.0000
G02 X 21.1872 Y 2.2573 Z -0.1250 I -0.6279 J 0.5814
G02 X 20.8668 Y 2.1526 Z -0.1250 I -0.5828 J 1.2416
G02 X 20.4379 Y 2.1112 Z -0.1250 I -0.4289 J 2.2005
G02 X 19.8850 Y 2.1603 Z -0.1250 I -0.0000 J 3.1360
G02 X 19.5870 Y 2.2636 Z -0.1250 I 0.1785 J 0.9968
G02 X 19.3624 Y 2.4485 Z -0.1250 I 0.3702 J 0.6788
G02 X 19.3076 Y 2.6002 Z -0.1250 I 0.1827 J 0.1517
G01 X 19.3076 Y 5.3497 Z -0.1250
G01 X 19.3076 Y 2.6002 Z -0.1250
G03 X 19.3624 Y 2.4485 Z -0.1250 I 0.2374 J 0.0000
G03 X 19.5870 Y 2.2636 Z -0.1250 I 0.5949 J 0.4939
G03 X 19.8850 Y 2.1603 Z -0.1250 I 0.4766 J 0.8936
G03 X 20.4379 Y 2.1112 Z -0.1250 I 0.5529 J 3.0869
G03 X 20.8668 Y 2.1526 Z -0.1250 I 0.0000 J 2.2419
G03 X 21.1872 Y 2.2573 Z -0.1250 I -0.2624 J 1.3462
G03 X 21.4448 Y 2.4474 Z -0.1250 I -0.3703 J 0.7715
G03 X 21.5047 Y 2.6002 Z -0.1250 I -0.1650 J 0.1528
G01 X 21.5047 Y 5.3497 Z -0.1250
S0
 G0 F1000 Z6.000000
S0	(---Laser 0% OFF)

(End cutting path id: path3779)


(Start cutting path id: path3777)
(Change tool to Default tool)

S0
 G0 F1000 Z6.000000
S0	(---Laser 0% OFF)
G00 X 16.2566 Y 2.1112

G01 Z -0.1250 F 100.0000(Penetrate) 
 S250	(---LaserOn 100% ON)
G01 X 16.2566 Y 4.8608 Z -0.1250 F 400.0000
G01 X 16.2566 Y 5.3497 Z -0.1250
G01 X 16.2566 Y 4.8608 Z -0.1250
G02 X 16.3164 Y 5.0133 Z -0.1250 I 0.2247 J 0.0000
G02 X 16.5678 Y 5.1973 Z -0.1250 I 0.5968 J -0.5517
G02 X 16.8897 Y 5.3034 Z -0.1250 I 0.5453 J -1.1133
G02 X 17.3996 Y 5.3497 Z -0.1250 I 0.5100 J -2.7836
G02 X 17.8766 Y 5.3029 Z -0.1250 I -0.0000 J -2.4517
G02 X 18.1680 Y 5.1973 Z -0.1250 I -0.1994 J -1.0052
G02 X 18.3983 Y 5.0117 Z -0.1250 I -0.3716 J -0.6967
G02 X 18.4537 Y 4.8608 Z -0.1250 I -0.1777 J -0.1509
G01 X 18.4537 Y 2.1112 Z -0.1250
G01 X 18.4537 Y 4.8608 Z -0.1250
G03 X 18.3983 Y 5.0117 Z -0.1250 I -0.2331 J -0.0000
G03 X 18.1680 Y 5.1973 Z -0.1250 I -0.6019 J -0.5111
G03 X 17.8766 Y 5.3029 Z -0.1250 I -0.4907 J -0.8997
G03 X 17.3996 Y 5.3497 Z -0.1250 I -0.4770 J -2.4049
G03 X 16.8897 Y 5.3034 Z -0.1250 I 0.0000 J -2.8299
G03 X 16.5678 Y 5.1973 Z -0.1250 I 0.2234 J -1.2193
G03 X 16.3164 Y 5.0133 Z -0.1250 I 0.3453 J -0.7357
G03 X 16.2566 Y 4.8608 Z -0.1250 I 0.1650 J -0.1526
G01 X 16.2566 Y 2.1112 Z -0.1250
S0
 G0 F1000 Z6.000000
S0	(---Laser 0% OFF)

(End cutting path id: path3777)


(Start cutting path id: path3775)
(Change tool to Default tool)

S0
 G0 F1000 Z6.000000
S0	(---Laser 0% OFF)
G00 X 13.2057 Y 2.6002

G01 Z -0.1250 F 100.0000(Penetrate) 
 S250	(---LaserOn 100% ON)
G03 X 13.2693 Y 2.4381 Z -0.1250 I 0.2384 J -0.0000 F 400.0000
G03 X 13.5295 Y 2.2509 Z -0.1250 I 0.5924 J 0.5493
G03 X 13.8680 Y 2.1519 Z -0.1250 I 0.5953 J 1.4071
G03 X 14.3487 Y 2.1112 Z -0.1250 I 0.4807 J 2.8186
G03 X 14.7828 Y 2.1549 Z -0.1250 I 0.0000 J 2.1784
G03 X 15.0980 Y 2.2636 Z -0.1250 I -0.2533 J 1.2456
G03 X 15.3454 Y 2.4515 Z -0.1250 I -0.3764 J 0.7529
G03 X 15.4028 Y 2.6002 Z -0.1250 I -0.1642 J 0.1487
G01 X 15.4028 Y 3.5336 Z -0.1250
G03 X 15.3410 Y 3.6771 Z -0.1250 I -0.1975 J 0.0000
G03 X 15.0472 Y 3.8702 Z -0.1250 I -0.6883 J -0.7273
G03 X 14.6902 Y 3.9857 Z -0.1250 I -0.7643 J -1.7515
G03 X 14.3487 Y 4.0226 Z -0.1250 I -0.3416 J -1.5655
G03 X 13.8687 Y 3.9801 Z -0.1250 I 0.0000 J -2.7345
G03 X 13.5295 Y 3.8765 Z -0.1250 I 0.2600 J -1.4582
G03 X 13.2697 Y 3.6947 Z -0.1250 I 0.3110 J -0.7209
G03 X 13.2057 Y 3.5336 Z -0.1250 I 0.1706 J -0.1611
G01 X 13.2057 Y 2.6002 Z -0.1250
S0
 G0 F1000 Z6.000000
S0	(---Laser 0% OFF)

(Change tool to Default tool)

S0
 G0 F1000 Z6.000000
S0	(---Laser 0% OFF)
G00 X 15.4028 Y 2.6002

G01 Z -0.1250 F 100.0000(Penetrate) 
 S250	(---LaserOn 100% ON)
G02 X 15.3454 Y 2.4515 Z -0.1250 I -0.2215 J -0.0000 F 400.0000
G02 X 15.0980 Y 2.2636 Z -0.1250 I -0.6239 J 0.5650
G02 X 14.7828 Y 2.1549 Z -0.1250 I -0.5685 J 1.1369
G02 X 14.3487 Y 2.1112 Z -0.1250 I -0.4342 J 2.1347
G02 X 13.8680 Y 2.1519 Z -0.1250 I -0.0000 J 2.8593
G02 X 13.5295 Y 2.2509 Z -0.1250 I 0.2569 J 1.5061
G02 X 13.2693 Y 2.4381 Z -0.1250 I 0.3321 J 0.7364
G02 X 13.2057 Y 2.6002 Z -0.1250 I 0.1748 J 0.1621
G01 X 13.2057 Y 3.5336 Z -0.1250
G02 X 13.2697 Y 3.6947 Z -0.1250 I 0.2346 J 0.0000
G02 X 13.5295 Y 3.8765 Z -0.1250 I 0.5708 J -0.5391
G02 X 13.8687 Y 3.9801 Z -0.1250 I 0.5992 J -1.3546
G02 X 14.3487 Y 4.0226 Z -0.1250 I 0.4800 J -2.6921
G02 X 14.6902 Y 3.9857 Z -0.1250 I 0.0000 J -1.6023
G02 X 15.0472 Y 3.8702 Z -0.1250 I -0.4074 J -1.8671
G02 X 15.3410 Y 3.6771 Z -0.1250 I -0.3944 J -0.9204
G02 X 15.4028 Y 3.5336 Z -0.1250 I -0.1358 J -0.1434
G01 X 15.4028 Y 4.8608 Z -0.1250
G03 X 15.3473 Y 5.0117 Z -0.1250 I -0.2331 J -0.0000
G03 X 15.1170 Y 5.1973 Z -0.1250 I -0.6019 J -0.5111
G03 X 14.8257 Y 5.3029 Z -0.1250 I -0.4907 J -0.8997
G03 X 14.3487 Y 5.3497 Z -0.1250 I -0.4770 J -2.4049
G03 X 13.8687 Y 5.3073 Z -0.1250 I -0.0000 J -2.7345
G03 X 13.5295 Y 5.2037 Z -0.1250 I 0.2600 J -1.4582
G03 X 13.2697 Y 5.0219 Z -0.1250 I 0.3110 J -0.7209
G03 X 13.2057 Y 4.8608 Z -0.1250 I 0.1706 J -0.1611
G01 X 13.2057 Y 4.5496 Z -0.1250
G01 X 13.2057 Y 4.8608 Z -0.1250
G02 X 13.2697 Y 5.0219 Z -0.1250 I 0.2346 J -0.0000
G02 X 13.5295 Y 5.2037 Z -0.1250 I 0.5708 J -0.5391
G02 X 13.8687 Y 5.3073 Z -0.1250 I 0.5992 J -1.3546
G02 X 14.3487 Y 5.3497 Z -0.1250 I 0.4800 J -2.6921
G02 X 14.8257 Y 5.3029 Z -0.1250 I 0.0000 J -2.4517
G02 X 15.1170 Y 5.1973 Z -0.1250 I -0.1994 J -1.0052
G02 X 15.3473 Y 5.0117 Z -0.1250 I -0.3716 J -0.6967
G02 X 15.4028 Y 4.8608 Z -0.1250 I -0.1777 J -0.1509
G01 X 15.4028 Y 2.1112 Z -0.1250
G01 X 15.4028 Y 2.6002 Z -0.1250
S0
 G0 F1000 Z6.000000
S0	(---Laser 0% OFF)

(End cutting path id: path3775)


(Start cutting path id: path3773)
(Change tool to Default tool)

S0
 G0 F1000 Z6.000000
S0	(---Laser 0% OFF)
G00 X 10.1547 Y 2.9113

G01 Z -0.1250 F 100.0000(Penetrate) 
 S250	(---LaserOn 100% ON)
G01 X 10.1547 Y 2.6002 Z -0.1250 F 400.0000
G03 X 10.2183 Y 2.4381 Z -0.1250 I 0.2384 J -0.0000
G03 X 10.4785 Y 2.2509 Z -0.1250 I 0.5924 J 0.5493
G03 X 10.8170 Y 2.1519 Z -0.1250 I 0.5953 J 1.4071
G03 X 11.2977 Y 2.1112 Z -0.1250 I 0.4807 J 2.8186
G03 X 11.7782 Y 2.1522 Z -0.1250 I -0.0000 J 2.8365
G03 X 12.1105 Y 2.2509 Z -0.1250 I -0.2483 J 1.4447
G03 X 12.3765 Y 2.4388 Z -0.1250 I -0.3340 J 0.7551
G03 X 12.4407 Y 2.6002 Z -0.1250 I -0.1707 J 0.1614
G01 X 12.4407 Y 6.4737 Z -0.1250
G01 X 12.4407 Y 2.6002 Z -0.1250
G02 X 12.3765 Y 2.4388 Z -0.1250 I -0.2349 J -0.0000
G02 X 12.1105 Y 2.2509 Z -0.1250 I -0.6000 J 0.5673
G02 X 11.7782 Y 2.1522 Z -0.1250 I -0.5806 J 1.3460
G02 X 11.2977 Y 2.1112 Z -0.1250 I -0.4805 J 2.7956
G02 X 10.8170 Y 2.1519 Z -0.1250 I -0.0000 J 2.8593
G02 X 10.4785 Y 2.2509 Z -0.1250 I 0.2569 J 1.5061
G02 X 10.2183 Y 2.4381 Z -0.1250 I 0.3321 J 0.7364
G02 X 10.1547 Y 2.6002 Z -0.1250 I 0.1748 J 0.1621
G01 X 10.1547 Y 2.9113 Z -0.1250
S0
 G0 F1000 Z6.000000
S0	(---Laser 0% OFF)

(End cutting path id: path3773)


(Start cutting path id: path3771)
(Change tool to Default tool)

S0
 G0 F1000 Z6.000000
S0	(---Laser 0% OFF)
G00 X 4.5612 Y 2.4414

G01 Z -0.1250 F 100.0000(Penetrate) 
 S250	(---LaserOn 100% ON)
G03 X 4.6303 Y 2.2951 Z -0.1250 I 0.1896 J 0.0000 F 400.0000
G03 X 4.8851 Y 2.1747 Z -0.1250 I 0.3654 J 0.4437
G03 X 5.2171 Y 2.1301 Z -0.1250 I 0.5620 J 2.9224
G03 X 5.7042 Y 2.1112 Z -0.1250 I 0.4872 J 6.2843
G03 X 6.1913 Y 2.1302 Z -0.1250 I -0.0000 J 6.2539
G03 X 6.5170 Y 2.1747 Z -0.1250 I -0.2215 J 2.8352
G03 X 6.7776 Y 2.2957 Z -0.1250 I -0.1120 J 0.5823
G03 X 6.8472 Y 2.4414 Z -0.1250 I -0.1177 J 0.1457
G01 X 6.8472 Y 6.1562 Z -0.1250
G03 X 6.7776 Y 6.3019 Z -0.1250 I -0.1873 J 0.0000
G03 X 6.5170 Y 6.4229 Z -0.1250 I -0.3726 J -0.4613
G03 X 6.1910 Y 6.4719 Z -0.1250 I -0.5491 J -2.5438
G03 X 5.7042 Y 6.4928 Z -0.1250 I -0.4867 J -5.6596
G03 X 5.2175 Y 6.4720 Z -0.1250 I -0.0000 J -5.7252
G03 X 4.8851 Y 6.4229 Z -0.1250 I 0.2315 J -2.7128
G03 X 4.6303 Y 6.3025 Z -0.1250 I 0.1106 J -0.5640
G03 X 4.5612 Y 6.1562 Z -0.1250 I 0.1205 J -0.1464
G01 X 4.5612 Y 2.4414 Z -0.1250
S0
 G0 F1000 Z6.000000
S0	(---Laser 0% OFF)

(Change tool to Default tool)

S0
 G0 F1000 Z6.000000
S0	(---Laser 0% OFF)
G00 X 6.8472 Y 2.4414

G01 Z -0.1250 F 100.0000(Penetrate) 
 S250	(---LaserOn 100% ON)
G02 X 6.7776 Y 2.2957 Z -0.1250 I -0.1873 J -0.0000 F 400.0000
G02 X 6.5170 Y 2.1747 Z -0.1250 I -0.3726 J 0.4613
G02 X 6.1913 Y 2.1302 Z -0.1250 I -0.5472 J 2.7907
G02 X 5.7042 Y 2.1112 Z -0.1250 I -0.4871 J 6.2349
G02 X 5.2171 Y 2.1301 Z -0.1250 I -0.0000 J 6.3031
G02 X 4.8851 Y 2.1747 Z -0.1250 I 0.2300 J 2.9670
G02 X 4.6303 Y 2.2951 Z -0.1250 I 0.1106 J 0.5640
G02 X 4.5612 Y 2.4414 Z -0.1250 I 0.1205 J 0.1464
G01 X 4.5612 Y 6.1562 Z -0.1250
G02 X 4.6303 Y 6.3025 Z -0.1250 I 0.1896 J -0.0000
G02 X 4.8851 Y 6.4229 Z -0.1250 I 0.3654 J -0.4437
G02 X 5.2175 Y 6.4720 Z -0.1250 I 0.5639 J -2.6636
G02 X 5.7042 Y 6.4928 Z -0.1250 I 0.4868 J -5.7045
G02 X 6.1910 Y 6.4719 Z -0.1250 I 0.0000 J -5.6805
G02 X 6.5170 Y 6.4229 Z -0.1250 I -0.2230 J -2.5928
G02 X 6.7776 Y 6.3019 Z -0.1250 I -0.1120 J -0.5823
G02 X 6.8472 Y 6.1562 Z -0.1250 I -0.1177 J -0.1457
G01 X 6.8472 Y 2.4414 Z -0.1250
S0
 G0 F1000 Z6.000000
S0	(---Laser 0% OFF)

(End cutting path id: path3771)


(Start cutting path id: path3769)
(Change tool to Default tool)

S0
 G0 F1000 Z6.000000
S0	(---Laser 0% OFF)
G00 X 1.5039 Y 2.1112

G01 Z -0.1250 F 100.0000(Penetrate) 
 S250	(---LaserOn 100% ON)
G01 X 1.5039 Y 3.9464 Z -0.1250 F 400.0000
G02 X 1.5994 Y 4.1330 Z -0.1250 I 0.2708 J -0.0208
G02 X 1.9548 Y 4.3274 Z -0.1250 I 0.6546 J -0.7747
G03 X 2.1321 Y 4.3437 Z -0.1250 I -0.3064 J 4.2899
G03 X 2.2913 Y 4.3655 Z -0.1250 I -0.3935 J 3.4760
G03 X 2.4564 Y 4.3972 Z -0.1250 I -108.5423 J 565.2889
G03 X 2.6215 Y 4.4290 Z -0.1250 I -108.7240 J 565.3857
G03 X 2.9260 Y 4.4814 Z -0.1250 I -4.6257 J 27.7540
G03 X 3.0851 Y 4.5115 Z -0.1250 I -1.3530 J 7.6023
G03 X 3.2488 Y 4.5484 Z -0.1250 I -0.4906 J 2.5550
G03 X 3.4026 Y 4.5940 Z -0.1250 I -0.5974 J 2.2990
G03 X 3.7208 Y 4.7925 Z -0.1250 I -0.3240 J 0.8734
G03 X 3.7963 Y 4.9686 Z -0.1250 I -0.1676 J 0.1761
G01 X 3.7963 Y 6.0037 Z -0.1250
G03 X 3.7316 Y 6.1640 Z -0.1250 I -0.2312 J -0.0000
G03 X 3.4661 Y 6.3466 Z -0.1250 I -0.5784 J -0.5570
G03 X 3.1330 Y 6.4499 Z -0.1250 I -0.5845 J -1.2960
G03 X 2.6533 Y 6.4926 Z -0.1250 I -0.4798 J -2.6699
G03 X 2.1733 Y 6.4502 Z -0.1250 I -0.0000 J -2.7345
G03 X 1.8341 Y 6.3466 Z -0.1250 I 0.2600 J -1.4582
G03 X 1.5743 Y 6.1648 Z -0.1250 I 0.3110 J -0.7209
G03 X 1.5103 Y 6.0037 Z -0.1250 I 0.1706 J -0.1611
G01 X 1.5103 Y 5.6925 Z -0.1250
G01 X 1.5103 Y 6.0037 Z -0.1250
G02 X 1.5743 Y 6.1648 Z -0.1250 I 0.2346 J -0.0000
G02 X 1.8341 Y 6.3466 Z -0.1250 I 0.5708 J -0.5391
G02 X 2.1733 Y 6.4502 Z -0.1250 I 0.5992 J -1.3546
G02 X 2.6533 Y 6.4926 Z -0.1250 I 0.4800 J -2.6921
G02 X 3.1330 Y 6.4499 Z -0.1250 I -0.0000 J -2.7127
G02 X 3.4661 Y 6.3466 Z -0.1250 I -0.2514 J -1.3993
G02 X 3.7316 Y 6.1640 Z -0.1250 I -0.3129 J -0.7396
G02 X 3.7963 Y 6.0037 Z -0.1250 I -0.1665 J -0.1604
G01 X 3.7963 Y 4.9686 Z -0.1250
G02 X 3.7208 Y 4.7925 Z -0.1250 I -0.2431 J -0.0000
G02 X 3.4026 Y 4.5940 Z -0.1250 I -0.6422 J 0.6749
G02 X 3.2488 Y 4.5484 Z -0.1250 I -0.7512 J 2.2535
G02 X 3.0851 Y 4.5115 Z -0.1250 I -0.6543 J 2.5181
G02 X 2.9260 Y 4.4814 Z -0.1250 I -1.4742 J 7.3596
G02 X 2.6215 Y 4.4290 Z -0.1250 I -4.7906 J 26.9174
G02 X 2.4564 Y 4.3972 Z -0.1250 I -108.9004 J 565.3518
G02 X 2.2913 Y 4.3655 Z -0.1250 I -108.6960 J 565.2594
G02 X 2.1321 Y 4.3437 Z -0.1250 I -0.5527 J 3.4543
G02 X 1.9548 Y 4.3274 Z -0.1250 I -0.4838 J 4.2736
G03 X 1.5994 Y 4.1330 Z -0.1250 I 0.2993 J -0.9691
G03 X 1.5039 Y 3.9464 Z -0.1250 I 0.1753 J -0.2074
G01 X 1.5039 Y 2.1112 Z -0.1250
G01 X 3.6756 Y 2.1112 Z -0.1250
G01 X 1.5039 Y 2.1112 Z -0.1250
S0
 G0 F1000 Z6.000000
S0	(---Laser 0% OFF)

(End cutting path id: path3769)


(Start cutting path id: path925)
(Change tool to Default tool)

S0
 G0 F1000 Z6.000000
S0	(---Laser 0% OFF)
G00 X 27.7593 Y 33.9782

G01 Z -0.1250 F 100.0000(Penetrate) 
 S250	(---LaserOn 100% ON)
G01 X 29.3846 Y 36.0296 Z -0.1250 F 400.0000
G01 X 29.6737 Y 36.3944 Z -0.1250
G01 X 29.3846 Y 36.0296 Z -0.1250
G02 X 29.5195 Y 36.1088 Z -0.1250 I 0.1695 J -0.1343
G02 X 29.8182 Y 36.1000 Z -0.1250 I 0.1264 J -0.7791
G02 X 30.1241 Y 35.9919 Z -0.1250 I -0.2419 J -1.1715
G02 X 30.5356 Y 35.7304 Z -0.1250 I -1.2369 J -2.4011
G02 X 30.8679 Y 35.4180 Z -0.1250 I -1.4204 J -1.8437
G02 X 31.0249 Y 35.1704 Z -0.1250 I -0.7240 J -0.6325
G02 X 31.0887 Y 34.8983 Z -0.1250 I -0.6718 J -0.3012
G02 X 31.0414 Y 34.7533 Z -0.1250 I -0.2195 J -0.0087
G01 X 31.0414 Y 34.7533 Z -0.1250
G03 X 31.0887 Y 34.8983 Z -0.1250 I -0.1721 J 0.1364
G03 X 31.0249 Y 35.1704 Z -0.1250 I -0.7357 J -0.0292
G03 X 30.8679 Y 35.4180 Z -0.1250 I -0.8810 J -0.3849
G03 X 30.5356 Y 35.7304 Z -0.1250 I -1.7527 J -1.5313
G03 X 30.1241 Y 35.9919 Z -0.1250 I -1.6484 J -2.1396
G03 X 29.8182 Y 36.1000 Z -0.1250 I -0.5478 J -1.0634
G03 X 29.5195 Y 36.1088 Z -0.1250 I -0.1723 J -0.7702
G03 X 29.3846 Y 36.0296 Z -0.1250 I 0.0346 J -0.2135
G01 X 27.7593 Y 33.9782 Z -0.1250
S0
 G0 F1000 Z6.000000
S0	(---Laser 0% OFF)

(End cutting path id: path925)


(Start cutting path id: path923)
(Change tool to Default tool)

S0
 G0 F1000 Z6.000000
S0	(---Laser 0% OFF)
G00 X 25.7477 Y 36.1154

G01 Z -0.1250 F 100.0000(Penetrate) 
 S250	(---LaserOn 100% ON)
G03 X 25.7000 Y 35.9572 Z -0.1250 I 0.1759 J -0.1394 F 400.0000
G03 X 25.7855 Y 35.6667 Z -0.1250 I 0.7512 J 0.0632
G03 X 25.9818 Y 35.3965 Z -0.1250 I 1.2523 J 0.7040
G03 X 26.3206 Y 35.0866 Z -0.1250 I 1.9960 J 1.8412
G03 X 26.6734 Y 34.8672 Z -0.1250 I 1.2693 J 1.6475
G03 X 26.9757 Y 34.7650 Z -0.1250 I 0.5407 J 1.1015
G03 X 27.2736 Y 34.7613 Z -0.1250 I 0.1588 J 0.8020
G03 X 27.4045 Y 34.8390 Z -0.1250 I -0.0363 J 0.2101
G01 X 27.9563 Y 35.5355 Z -0.1250
G03 X 27.9943 Y 35.6786 Z -0.1250 I -0.1456 J 0.1154
G03 X 27.8870 Y 35.9931 Z -0.1250 I -0.9245 J -0.1398
G03 X 27.6865 Y 36.2864 Z -0.1250 I -1.5750 J -0.8620
G03 X 27.4504 Y 36.5126 Z -0.1250 I -1.1642 J -0.9785
G03 X 27.0638 Y 36.7596 Z -0.1250 I -1.5927 J -2.0673
G03 X 26.7464 Y 36.8795 Z -0.1250 I -0.6600 J -1.2664
G03 X 26.4427 Y 36.8949 Z -0.1250 I -0.1895 J -0.7382
G03 X 26.2995 Y 36.8118 Z -0.1250 I 0.0338 J -0.2233
G01 X 25.7477 Y 36.1154 Z -0.1250
S0
 G0 F1000 Z6.000000
S0	(---Laser 0% OFF)

(Change tool to Default tool)

S0
 G0 F1000 Z6.000000
S0	(---Laser 0% OFF)
G00 X 27.4045 Y 34.8390

G01 Z -0.1250 F 100.0000(Penetrate) 
 S250	(---LaserOn 100% ON)
G02 X 27.2736 Y 34.7613 Z -0.1250 I -0.1671 J 0.1324 F 400.0000
G02 X 26.9757 Y 34.7650 Z -0.1250 I -0.1391 J 0.8057
G02 X 26.6734 Y 34.8672 Z -0.1250 I 0.2384 J 1.2036
G02 X 26.3206 Y 35.0866 Z -0.1250 I 0.9165 J 1.8669
G02 X 25.9818 Y 35.3965 Z -0.1250 I 1.6573 J 2.1512
G02 X 25.7855 Y 35.6667 Z -0.1250 I 1.0560 J 0.9741
G02 X 25.7000 Y 35.9572 Z -0.1250 I 0.6657 J 0.3537
G02 X 25.7477 Y 36.1154 Z -0.1250 I 0.2237 J 0.0188
G01 X 26.2995 Y 36.8118 Z -0.1250
G02 X 26.4427 Y 36.8949 Z -0.1250 I 0.1770 J -0.1403
G02 X 26.7464 Y 36.8795 Z -0.1250 I 0.1142 J -0.7536
G02 X 27.0638 Y 36.7596 Z -0.1250 I -0.3426 J -1.3864
G02 X 27.4504 Y 36.5126 Z -0.1250 I -1.2061 J -2.3143
G02 X 27.6865 Y 36.2864 Z -0.1250 I -0.9281 J -1.2047
G02 X 27.8870 Y 35.9931 Z -0.1250 I -1.3745 J -1.1553
G02 X 27.9943 Y 35.6786 Z -0.1250 I -0.8172 J -0.4543
G02 X 27.9563 Y 35.5355 Z -0.1250 I -0.1837 J -0.0278
G01 X 28.7408 Y 36.5257 Z -0.1250
G03 X 28.7881 Y 36.6707 Z -0.1250 I -0.1721 J 0.1364
G03 X 28.7242 Y 36.9428 Z -0.1250 I -0.7357 J -0.0292
G03 X 28.5673 Y 37.1904 Z -0.1250 I -0.8810 J -0.3849
G03 X 28.2349 Y 37.5028 Z -0.1250 I -1.7527 J -1.5313
G03 X 27.8483 Y 37.7497 Z -0.1250 I -1.5926 J -2.0673
G03 X 27.5309 Y 37.8697 Z -0.1250 I -0.6600 J -1.2664
G03 X 27.2272 Y 37.8851 Z -0.1250 I -0.1895 J -0.7382
G03 X 27.0840 Y 37.8020 Z -0.1250 I 0.0338 J -0.2233
G01 X 26.9001 Y 37.5699 Z -0.1250
G01 X 27.0840 Y 37.8020 Z -0.1250
G02 X 27.2272 Y 37.8851 Z -0.1250 I 0.1770 J -0.1403
G02 X 27.5309 Y 37.8697 Z -0.1250 I 0.1142 J -0.7536
G02 X 27.8483 Y 37.7497 Z -0.1250 I -0.3426 J -1.3864
G02 X 28.2349 Y 37.5028 Z -0.1250 I -1.2061 J -2.3142
G02 X 28.5673 Y 37.1904 Z -0.1250 I -1.4204 J -1.8437
G02 X 28.7242 Y 36.9428 Z -0.1250 I -0.7240 J -0.6325
G02 X 28.7881 Y 36.6707 Z -0.1250 I -0.6718 J -0.3012
G02 X 28.7408 Y 36.5257 Z -0.1250 I -0.2195 J -0.0087
G01 X 27.1154 Y 34.4742 Z -0.1250
G01 X 27.4045 Y 34.8390 Z -0.1250
S0
 G0 F1000 Z6.000000
S0	(---Laser 0% OFF)

(End cutting path id: path923)


(Start cutting path id: path927)
(Change tool to Default tool)

S0
 G0 F1000 Z6.000000
S0	(---Laser 0% OFF)
G00 X 32.0057 Y 31.2942

G01 Z -0.1250 F 100.0000(Penetrate) 
 S250	(---LaserOn 100% ON)
G02 X 31.8750 Y 31.2148 Z -0.1250 I -0.1727 J 0.1369 F 400.0000
G02 X 31.5865 Y 31.2128 Z -0.1250 I -0.1494 J 0.7692
G02 X 31.2942 Y 31.3094 Z -0.1250 I 0.1951 J 1.0815
G02 X 30.9218 Y 31.5418 Z -0.1250 I 0.9906 J 2.0015
G02 X 30.5831 Y 31.8518 Z -0.1250 I 1.6573 J 2.1512
G02 X 30.3867 Y 32.1219 Z -0.1250 I 1.0560 J 0.9741
G02 X 30.3012 Y 32.4124 Z -0.1250 I 0.6657 J 0.3537
G02 X 30.3490 Y 32.5706 Z -0.1250 I 0.2237 J 0.0188
G01 X 31.6853 Y 34.2572 Z -0.1250
G02 X 31.8285 Y 34.3403 Z -0.1250 I 0.1770 J -0.1403
G02 X 32.1322 Y 34.3249 Z -0.1250 I 0.1142 J -0.7536
G02 X 32.4496 Y 34.2050 Z -0.1250 I -0.3426 J -1.3864
G02 X 32.8362 Y 33.9580 Z -0.1250 I -1.2061 J -2.3142
G02 X 33.1685 Y 33.6456 Z -0.1250 I -1.4204 J -1.8437
G02 X 33.3255 Y 33.3980 Z -0.1250 I -0.7240 J -0.6325
G02 X 33.3893 Y 33.1259 Z -0.1250 I -0.6718 J -0.3012
G02 X 33.3420 Y 32.9809 Z -0.1250 I -0.2195 J -0.0087
G01 X 33.1581 Y 32.7487 Z -0.1250
G01 X 33.3420 Y 32.9809 Z -0.1250
G03 X 33.3893 Y 33.1259 Z -0.1250 I -0.1721 J 0.1364
G03 X 33.3255 Y 33.3980 Z -0.1250 I -0.7357 J -0.0292
G03 X 33.1685 Y 33.6456 Z -0.1250 I -0.8810 J -0.3849
G03 X 32.8362 Y 33.9580 Z -0.1250 I -1.7527 J -1.5313
G03 X 32.4496 Y 34.2050 Z -0.1250 I -1.5926 J -2.0673
G03 X 32.1322 Y 34.3249 Z -0.1250 I -0.6600 J -1.2664
G03 X 31.8285 Y 34.3403 Z -0.1250 I -0.1895 J -0.7382
G03 X 31.6853 Y 34.2572 Z -0.1250 I 0.0338 J -0.2233
G01 X 30.3490 Y 32.5706 Z -0.1250
G03 X 30.3012 Y 32.4124 Z -0.1250 I 0.1759 J -0.1394
G03 X 30.3867 Y 32.1219 Z -0.1250 I 0.7512 J 0.0632
G03 X 30.5831 Y 31.8518 Z -0.1250 I 1.2523 J 0.7040
G03 X 30.9218 Y 31.5418 Z -0.1250 I 1.9960 J 1.8412
G03 X 31.2942 Y 31.3094 Z -0.1250 I 1.3629 J 1.7691
G03 X 31.5865 Y 31.2128 Z -0.1250 I 0.4874 J 0.9849
G03 X 31.8750 Y 31.2148 Z -0.1250 I 0.1391 J 0.7711
G03 X 32.0057 Y 31.2942 Z -0.1250 I -0.0420 J 0.2163
G01 X 32.1897 Y 31.5264 Z -0.1250
G01 X 32.0057 Y 31.2942 Z -0.1250
S0
 G0 F1000 Z6.000000
S0	(---Laser 0% OFF)

(End cutting path id: path927)


(Start cutting path id: path929)
(Change tool to Default tool)

S0
 G0 F1000 Z6.000000
S0	(---Laser 0% OFF)
G00 X 32.3606 Y 30.4334

G01 Z -0.1250 F 100.0000(Penetrate) 
 S250	(---LaserOn 100% ON)
G01 X 33.9859 Y 32.4848 Z -0.1250 F 400.0000
G01 X 34.9506 Y 33.7024 Z -0.1250
G01 X 33.9859 Y 32.4848 Z -0.1250
G02 X 34.1208 Y 32.5640 Z -0.1250 I 0.1695 J -0.1343
G02 X 34.4195 Y 32.5552 Z -0.1250 I 0.1264 J -0.7791
G02 X 34.7254 Y 32.4471 Z -0.1250 I -0.2419 J -1.1715
G02 X 35.1368 Y 32.1856 Z -0.1250 I -1.2369 J -2.4011
G02 X 35.4692 Y 31.8732 Z -0.1250 I -1.4204 J -1.8437
G02 X 35.6261 Y 31.6256 Z -0.1250 I -0.7240 J -0.6325
G02 X 35.6900 Y 31.3536 Z -0.1250 I -0.6718 J -0.3012
G02 X 35.6427 Y 31.2085 Z -0.1250 I -0.2195 J -0.0087
G01 X 34.0173 Y 29.1570 Z -0.1250
G01 X 35.6427 Y 31.2085 Z -0.1250
G03 X 35.6900 Y 31.3536 Z -0.1250 I -0.1721 J 0.1364
G03 X 35.6261 Y 31.6256 Z -0.1250 I -0.7357 J -0.0292
G03 X 35.4692 Y 31.8732 Z -0.1250 I -0.8810 J -0.3849
G03 X 35.1368 Y 32.1856 Z -0.1250 I -1.7527 J -1.5313
G03 X 34.7254 Y 32.4471 Z -0.1250 I -1.6484 J -2.1396
G03 X 34.4195 Y 32.5552 Z -0.1250 I -0.5478 J -1.0634
G03 X 34.1208 Y 32.5640 Z -0.1250 I -0.1723 J -0.7702
G03 X 33.9859 Y 32.4848 Z -0.1250 I 0.0346 J -0.2135
G01 X 32.3606 Y 30.4334 Z -0.1250
S0
 G0 F1000 Z6.000000
S0	(---Laser 0% OFF)

(End cutting path id: path929)


(Start cutting path id: path931)
(Change tool to Default tool)

S0
 G0 F1000 Z6.000000
S0	(---Laser 0% OFF)
G00 X 37.0513 Y 27.7810

G01 Z -0.1250 F 100.0000(Penetrate) 
 S250	(---LaserOn 100% ON)
G01 X 36.8674 Y 27.5488 Z -0.1250 F 400.0000
G03 X 36.8197 Y 27.3906 Z -0.1250 I 0.1759 J -0.1394
G03 X 36.9052 Y 27.1001 Z -0.1250 I 0.7512 J 0.0632
G03 X 37.1015 Y 26.8300 Z -0.1250 I 1.2523 J 0.7040
G03 X 37.4403 Y 26.5200 Z -0.1250 I 1.9960 J 1.8412
G03 X 37.8264 Y 26.2717 Z -0.1250 I 1.6520 J 2.1443
G03 X 38.1358 Y 26.1521 Z -0.1250 I 0.6607 J 1.2489
G03 X 38.4477 Y 26.1376 Z -0.1250 I 0.1923 J 0.7782
G03 X 38.5912 Y 26.2208 Z -0.1250 I -0.0338 J 0.2236
G01 X 39.3665 Y 27.1799 Z -0.1250
G03 X 39.4359 Y 27.5857 Z -0.1250 I -0.3458 J 0.2679
G03 X 39.0500 Y 28.1333 Z -0.1250 I -1.0995 J -0.3650
G02 X 38.4127 Y 28.6572 Z -0.1250 I 10.4661 J 13.3820
G02 X 38.3129 Y 28.7698 Z -0.1250 I 0.3691 J 0.4275
G02 X 38.1905 Y 29.1026 Z -0.1250 I 0.7385 J 0.4604
G02 X 38.2375 Y 29.2781 Z -0.1250 I 0.2261 J 0.0336
G01 X 38.8794 Y 30.0882 Z -0.1250
G02 X 39.0226 Y 30.1713 Z -0.1250 I 0.1770 J -0.1403
G02 X 39.3263 Y 30.1559 Z -0.1250 I 0.1142 J -0.7536
G02 X 39.6437 Y 30.0360 Z -0.1250 I -0.3426 J -1.3864
G02 X 40.0303 Y 29.7890 Z -0.1250 I -1.2061 J -2.3142
G02 X 40.3671 Y 29.4781 Z -0.1250 I -1.5720 J -2.0406
G02 X 40.5569 Y 29.2079 Z -0.1250 I -0.9901 J -0.8971
G02 X 40.6490 Y 28.9177 Z -0.1250 I -0.6534 J -0.3673
G02 X 40.6032 Y 28.7602 Z -0.1250 I -0.2164 J -0.0224
G01 X 40.4192 Y 28.5281 Z -0.1250
G01 X 40.6032 Y 28.7602 Z -0.1250
G03 X 40.6490 Y 28.9177 Z -0.1250 I -0.1705 J 0.1351
G03 X 40.5569 Y 29.2079 Z -0.1250 I -0.7456 J -0.0771
G03 X 40.3671 Y 29.4781 Z -0.1250 I -1.1798 J -0.6269
G03 X 40.0303 Y 29.7890 Z -0.1250 I -1.9089 J -1.7296
G03 X 39.6437 Y 30.0360 Z -0.1250 I -1.5926 J -2.0673
G03 X 39.3263 Y 30.1559 Z -0.1250 I -0.6600 J -1.2664
G03 X 39.0226 Y 30.1713 Z -0.1250 I -0.1895 J -0.7382
G03 X 38.8794 Y 30.0882 Z -0.1250 I 0.0338 J -0.2233
G01 X 38.2375 Y 29.2781 Z -0.1250
G03 X 38.1905 Y 29.1026 Z -0.1250 I 0.1792 J -0.1420
G03 X 38.3129 Y 28.7698 Z -0.1250 I 0.8608 J 0.1277
G03 X 38.4127 Y 28.6572 Z -0.1250 I 0.4688 J 0.3148
G03 X 39.0500 Y 28.1333 Z -0.1250 I 11.1016 J 12.8558
G02 X 39.4359 Y 27.5857 Z -0.1250 I -0.7137 J -0.9126
G02 X 39.3665 Y 27.1799 Z -0.1250 I -0.4152 J -0.1378
G01 X 38.5912 Y 26.2208 Z -0.1250
G02 X 38.4477 Y 26.1376 Z -0.1250 I -0.1773 J 0.1404
G02 X 38.1358 Y 26.1521 Z -0.1250 I -0.1197 J 0.7926
G02 X 37.8264 Y 26.2717 Z -0.1250 I 0.3514 J 1.3685
G02 X 37.4403 Y 26.5200 Z -0.1250 I 1.2658 J 2.3926
G02 X 37.1015 Y 26.8300 Z -0.1250 I 1.6573 J 2.1512
G02 X 36.9052 Y 27.1001 Z -0.1250 I 1.0560 J 0.9741
G02 X 36.8197 Y 27.3906 Z -0.1250 I 0.6657 J 0.3537
G02 X 36.8674 Y 27.5488 Z -0.1250 I 0.2237 J 0.0188
G01 X 37.0513 Y 27.7810 Z -0.1250
S0
 G0 F1000 Z6.000000
S0	(---Laser 0% OFF)

(End cutting path id: path931)


(Start cutting path id: path933)
(Change tool to Default tool)

S0
 G0 F1000 Z6.000000
S0	(---Laser 0% OFF)
G00 X 42.1517 Y 26.1939

G01 Z -0.1250 F 100.0000(Penetrate) 
 S250	(---LaserOn 100% ON)
G03 X 42.1976 Y 26.3514 Z -0.1250 I -0.1705 J 0.1351 F 400.0000
G03 X 42.1054 Y 26.6415 Z -0.1250 I -0.7456 J -0.0771
G03 X 41.9142 Y 26.9180 Z -0.1250 I -1.3526 J -0.7315
G03 X 41.6459 Y 27.1711 Z -0.1250 I -1.3977 J -1.2130
G03 X 41.2247 Y 27.4391 Z -0.1250 I -1.7006 J -2.2075
G03 X 40.9238 Y 27.5443 Z -0.1250 I -0.5217 J -1.0094
G03 X 40.6258 Y 27.5479 Z -0.1250 I -0.1588 J -0.8020
G03 X 40.4950 Y 27.4702 Z -0.1250 I 0.0363 J -0.2101
G01 X 39.9432 Y 26.7738 Z -0.1250
G03 X 39.9044 Y 26.6305 Z -0.1250 I 0.1475 J -0.1169
G03 X 40.0076 Y 26.3198 Z -0.1250 I 0.9057 J 0.1285
G03 X 40.2116 Y 26.0295 Z -0.1250 I 1.3958 J 0.7639
G03 X 40.5161 Y 25.7450 Z -0.1250 I 1.6438 J 1.4540
G03 X 40.8287 Y 25.5484 Z -0.1250 I 1.1873 J 1.5412
G03 X 41.1445 Y 25.4287 Z -0.1250 I 0.7312 J 1.4527
G03 X 41.4565 Y 25.4143 Z -0.1250 I 0.1923 J 0.7782
G03 X 41.6000 Y 25.4974 Z -0.1250 I -0.0338 J 0.2236
G01 X 42.1517 Y 26.1939 Z -0.1250
S0
 G0 F1000 Z6.000000
S0	(---Laser 0% OFF)

(Change tool to Default tool)

S0
 G0 F1000 Z6.000000
S0	(---Laser 0% OFF)
G00 X 40.4950 Y 27.4702

G01 Z -0.1250 F 100.0000(Penetrate) 
 S250	(---LaserOn 100% ON)
G02 X 40.6258 Y 27.5479 Z -0.1250 I 0.1671 J -0.1324 F 400.0000
G02 X 40.9238 Y 27.5443 Z -0.1250 I 0.1391 J -0.8057
G02 X 41.2247 Y 27.4391 Z -0.1250 I -0.2207 J -1.1146
G02 X 41.6459 Y 27.1711 Z -0.1250 I -1.2794 J -2.4755
G02 X 41.9142 Y 26.9180 Z -0.1250 I -1.1295 J -1.4661
G02 X 42.1054 Y 26.6415 Z -0.1250 I -1.1614 J -1.0079
G02 X 42.1976 Y 26.3514 Z -0.1250 I -0.6534 J -0.3673
G02 X 42.1517 Y 26.1939 Z -0.1250 I -0.2164 J -0.0224
G01 X 41.6000 Y 25.4974 Z -0.1250
G02 X 41.4565 Y 25.4143 Z -0.1250 I -0.1773 J 0.1404
G02 X 41.1445 Y 25.4287 Z -0.1250 I -0.1197 J 0.7926
G02 X 40.8287 Y 25.5484 Z -0.1250 I 0.4154 J 1.5724
G02 X 40.5161 Y 25.7450 Z -0.1250 I 0.8746 J 1.7378
G02 X 40.2116 Y 26.0295 Z -0.1250 I 1.3393 J 1.7385
G02 X 40.0076 Y 26.3198 Z -0.1250 I 1.1919 J 1.0542
G02 X 39.9044 Y 26.6305 Z -0.1250 I 0.8024 J 0.4392
G02 X 39.9432 Y 26.7738 Z -0.1250 I 0.1864 J 0.0264
G01 X 39.1587 Y 25.7836 Z -0.1250
G03 X 39.1104 Y 25.6384 Z -0.1250 I 0.1753 J -0.1389
G03 X 39.1704 Y 25.3702 Z -0.1250 I 0.7206 J 0.0205
G03 X 39.3341 Y 25.1207 Z -0.1250 I 0.8602 J 0.3856
G03 X 39.7316 Y 24.7548 Z -0.1250 I 2.2832 J 2.0818
G03 X 40.0442 Y 24.5582 Z -0.1250 I 1.1873 J 1.5412
G03 X 40.3600 Y 24.4385 Z -0.1250 I 0.7312 J 1.4527
G03 X 40.6719 Y 24.4241 Z -0.1250 I 0.1923 J 0.7782
G03 X 40.8154 Y 24.5073 Z -0.1250 I -0.0338 J 0.2236
G01 X 40.9994 Y 24.7394 Z -0.1250
G01 X 40.8154 Y 24.5073 Z -0.1250
G02 X 40.6719 Y 24.4241 Z -0.1250 I -0.1773 J 0.1404
G02 X 40.3600 Y 24.4385 Z -0.1250 I -0.1197 J 0.7927
G02 X 40.0442 Y 24.5582 Z -0.1250 I 0.4154 J 1.5724
G02 X 39.7316 Y 24.7548 Z -0.1250 I 0.8747 J 1.7378
G02 X 39.3341 Y 25.1207 Z -0.1250 I 1.8857 J 2.4477
G02 X 39.1704 Y 25.3702 Z -0.1250 I 0.6966 J 0.6352
G02 X 39.1104 Y 25.6384 Z -0.1250 I 0.6606 J 0.2886
G02 X 39.1587 Y 25.7836 Z -0.1250 I 0.2236 J 0.0063
G01 X 40.4950 Y 27.4702 Z -0.1250
S0
 G0 F1000 Z6.000000
S0	(---Laser 0% OFF)

(End cutting path id: path933)


(Start cutting path id: path935)
(Change tool to Default tool)

S0
 G0 F1000 Z6.000000
S0	(---Laser 0% OFF)
G00 X 41.4593 Y 24.0112

G01 Z -0.1250 F 100.0000(Penetrate) 
 S250	(---LaserOn 100% ON)
G01 X 42.7956 Y 25.6979 Z -0.1250 F 400.0000
G02 X 42.9265 Y 25.7738 Z -0.1250 I 0.1620 J -0.1283
G02 X 43.2340 Y 25.7645 Z -0.1250 I 0.1283 J -0.8438
G02 X 43.5562 Y 25.6506 Z -0.1250 I -0.3393 J -1.4730
G02 X 43.8795 Y 25.4503 Z -0.1250 I -0.8197 J -1.6840
G02 X 44.0772 Y 25.2830 Z -0.1250 I -1.7191 J -2.2315
G02 X 44.2171 Y 25.1368 Z -0.1250 I -1.1716 J -1.2617
G02 X 44.3475 Y 24.9761 Z -0.1250 I -1.3202 J -1.2038
G02 X 44.4263 Y 24.8460 Z -0.1250 I -0.7840 J -0.5638
G02 X 44.4820 Y 24.7056 Z -0.1250 I -0.7668 J -0.3854
G02 X 44.5000 Y 24.5984 Z -0.1250 I -0.4259 J -0.1269
G02 X 44.4909 Y 24.4980 Z -0.1250 I -0.2931 J -0.0240
G02 X 44.4524 Y 24.4215 Z -0.1250 I -0.2045 J 0.0551
G01 X 43.1161 Y 22.7349 Z -0.1250
G02 X 43.0505 Y 22.6790 Z -0.1250 I -0.1741 J 0.1380
G02 X 42.9498 Y 22.6417 Z -0.1250 I -0.1685 J 0.3010
G02 X 42.8438 Y 22.6363 Z -0.1250 I -0.0773 J 0.4740
G02 X 42.6921 Y 22.6572 Z -0.1250 I 0.0597 J 0.9991
G02 X 42.5442 Y 22.7001 Z -0.1250 I 0.2343 J 1.0842
G02 X 42.3516 Y 22.7821 Z -0.1250 I 0.7065 J 1.9248
G02 X 42.1765 Y 22.8841 Z -0.1250 I 0.9239 J 1.7876
G02 X 41.9652 Y 23.0341 Z -0.1250 I 1.7993 J 2.7599
G02 X 41.6952 Y 23.2946 Z -0.1250 I 1.2291 J 1.5440
G02 X 41.5046 Y 23.5720 Z -0.1250 I 1.2064 J 1.0329
G02 X 41.4173 Y 23.8672 Z -0.1250 I 0.7464 J 0.3811
G02 X 41.4593 Y 24.0112 Z -0.1250 I 0.1980 J 0.0204
G01 X 41.4593 Y 24.0112 Z -0.1250
S0
 G0 F1000 Z6.000000
S0	(---Laser 0% OFF)

(Change tool to Default tool)

S0
 G0 F1000 Z6.000000
S0	(---Laser 0% OFF)
G00 X 43.1161 Y 22.7349

G01 Z -0.1250 F 100.0000(Penetrate) 
 S250	(---LaserOn 100% ON)
G01 X 44.4524 Y 24.4215 Z -0.1250 F 400.0000
G03 X 44.4909 Y 24.4980 Z -0.1250 I -0.1660 J 0.1315
G03 X 44.5000 Y 24.5984 Z -0.1250 I -0.2840 J 0.0765
G03 X 44.4820 Y 24.7056 Z -0.1250 I -0.4439 J -0.0197
G03 X 44.4263 Y 24.8460 Z -0.1250 I -0.8225 J -0.2450
G03 X 44.3475 Y 24.9761 Z -0.1250 I -0.8628 J -0.4337
G03 X 44.2171 Y 25.1368 Z -0.1250 I -1.4506 J -1.0431
G03 X 44.0772 Y 25.2830 Z -0.1250 I -1.3116 J -1.1155
G03 X 43.8795 Y 25.4503 Z -0.1250 I -1.9168 J -2.0642
G03 X 43.5562 Y 25.6506 Z -0.1250 I -1.1430 J -1.4837
G03 X 43.2340 Y 25.7645 Z -0.1250 I -0.6615 J -1.3591
G03 X 42.9265 Y 25.7738 Z -0.1250 I -0.1791 J -0.8345
G03 X 42.7956 Y 25.6979 Z -0.1250 I 0.0311 J -0.2043
G01 X 40.4609 Y 22.7510 Z -0.1250
G01 X 41.4593 Y 24.0112 Z -0.1250
G03 X 41.4173 Y 23.8672 Z -0.1250 I 0.1560 J -0.1236
G03 X 41.5046 Y 23.5720 Z -0.1250 I 0.8336 J 0.0859
G03 X 41.6952 Y 23.2946 Z -0.1250 I 1.3968 J 0.7553
G03 X 41.9652 Y 23.0341 Z -0.1250 I 1.4989 J 1.2834
G03 X 42.1765 Y 22.8841 Z -0.1250 I 2.0107 J 2.6099
G03 X 42.3516 Y 22.7821 Z -0.1250 I 1.0989 J 1.6856
G03 X 42.5442 Y 22.7001 Z -0.1250 I 0.8991 J 1.8427
G03 X 42.6921 Y 22.6572 Z -0.1250 I 0.3822 J 1.0413
G03 X 42.8438 Y 22.6363 Z -0.1250 I 0.2115 J 0.9783
G03 X 42.9498 Y 22.6417 Z -0.1250 I 0.0287 J 0.4794
G03 X 43.0505 Y 22.6790 Z -0.1250 I -0.0678 J 0.3382
G03 X 43.1161 Y 22.7349 Z -0.1250 I -0.1086 J 0.1939
G01 X 43.1161 Y 22.7349 Z -0.1250
S0
 G0 F1000 Z6.000000
S0	(---Laser 0% OFF)

(Change tool to Default tool)

S0
 G0 F1000 Z6.000000
S0	(---Laser 0% OFF)
G00 X 43.0847 Y 26.0627

G01 Z -0.1250 F 100.0000(Penetrate) 
 S250	(---LaserOn 100% ON)
G01 X 42.9796 Y 25.9300 Z -0.1250 F 400.0000
G01 X 42.7956 Y 25.6979 Z -0.1250
G01 X 43.0847 Y 26.0627 Z -0.1250
S0
 G0 F1000 Z6.000000
S0	(---Laser 0% OFF)

(End cutting path id: path935)


(Start cutting path id: path937)
(Change tool to Default tool)

S0
 G0 F1000 Z6.000000
S0	(---Laser 0% OFF)
G00 X 44.8500 Y 20.8116

G01 Z -0.1250 F 100.0000(Penetrate) 
 S250	(---LaserOn 100% ON)
G02 X 44.5248 Y 21.1100 Z -0.1250 I 1.5687 J 2.0363 F 400.0000
G02 X 44.3244 Y 21.3844 Z -0.1250 I 1.1222 J 1.0297
G02 X 44.2311 Y 21.6826 Z -0.1250 I 0.6902 J 0.3796
G02 X 44.2771 Y 21.8404 Z -0.1250 I 0.2168 J 0.0225
G01 X 45.8649 Y 23.8445 Z -0.1250
G01 X 45.3477 Y 24.2429 Z -0.1250
G01 X 45.8649 Y 23.8445 Z -0.1250
G01 X 46.3791 Y 24.4935 Z -0.1250
G01 X 45.8649 Y 23.8445 Z -0.1250
G01 X 46.7172 Y 23.1879 Z -0.1250
G01 X 45.8649 Y 23.8445 Z -0.1250
G01 X 44.2771 Y 21.8404 Z -0.1250
G03 X 44.2311 Y 21.6826 Z -0.1250 I 0.1708 J -0.1353
G03 X 44.3244 Y 21.3844 Z -0.1250 I 0.7835 J 0.0813
G03 X 44.5248 Y 21.1100 Z -0.1250 I 1.3225 J 0.7554
G03 X 44.8500 Y 20.8116 Z -0.1250 I 1.8939 J 1.7379
G01 X 44.8500 Y 20.8116 Z -0.1250
S0
 G0 F1000 Z6.000000
S0	(---Laser 0% OFF)

(End cutting path id: path937)


(Start cutting path id: path941)
(Change tool to Default tool)

S0
 G0 F1000 Z6.000000
S0	(---Laser 0% OFF)
G00 X 48.0722 Y 18.3292

G01 Z -0.1250 F 100.0000(Penetrate) 
 S250	(---LaserOn 100% ON)
G01 X 49.6975 Y 20.3807 Z -0.1250 F 400.0000
G01 X 49.9865 Y 20.7455 Z -0.1250
G01 X 49.6975 Y 20.3807 Z -0.1250
G02 X 49.8324 Y 20.4599 Z -0.1250 I 0.1695 J -0.1343
G02 X 50.1311 Y 20.4510 Z -0.1250 I 0.1264 J -0.7791
G02 X 50.4370 Y 20.3429 Z -0.1250 I -0.2419 J -1.1715
G02 X 50.8484 Y 20.0815 Z -0.1250 I -1.2369 J -2.4011
G02 X 51.1808 Y 19.7690 Z -0.1250 I -1.4204 J -1.8437
G02 X 51.3377 Y 19.5214 Z -0.1250 I -0.7240 J -0.6325
G02 X 51.4016 Y 19.2494 Z -0.1250 I -0.6718 J -0.3012
G02 X 51.3543 Y 19.1043 Z -0.1250 I -0.2195 J -0.0087
G01 X 49.7289 Y 17.0529 Z -0.1250
G01 X 51.3543 Y 19.1043 Z -0.1250
G03 X 51.4016 Y 19.2494 Z -0.1250 I -0.1721 J 0.1364
G03 X 51.3377 Y 19.5214 Z -0.1250 I -0.7357 J -0.0292
G03 X 51.1808 Y 19.7690 Z -0.1250 I -0.8810 J -0.3849
G03 X 50.8484 Y 20.0815 Z -0.1250 I -1.7527 J -1.5313
G03 X 50.4370 Y 20.3429 Z -0.1250 I -1.6484 J -2.1396
G03 X 50.1311 Y 20.4510 Z -0.1250 I -0.5478 J -1.0634
G03 X 49.8324 Y 20.4599 Z -0.1250 I -0.1723 J -0.7702
G03 X 49.6975 Y 20.3807 Z -0.1250 I 0.0346 J -0.2135
G01 X 48.0722 Y 18.3292 Z -0.1250
S0
 G0 F1000 Z6.000000
S0	(---Laser 0% OFF)

(Change tool to Default tool)

S0
 G0 F1000 Z6.000000
S0	(---Laser 0% OFF)
G00 X 49.7289 Y 17.0529

G01 Z -0.1250 F 100.0000(Penetrate) 
 S250	(---LaserOn 100% ON)
G01 X 51.3543 Y 19.1043 Z -0.1250 F 400.0000
G01 X 51.3543 Y 19.1043 Z -0.1250
G02 X 51.4892 Y 19.1835 Z -0.1250 I 0.1695 J -0.1343
G02 X 51.7878 Y 19.1747 Z -0.1250 I 0.1264 J -0.7791
G02 X 52.0937 Y 19.0666 Z -0.1250 I -0.2419 J -1.1715
G02 X 52.5052 Y 18.8051 Z -0.1250 I -1.2369 J -2.4011
G02 X 52.8329 Y 18.4965 Z -0.1250 I -1.3905 J -1.8049
G02 X 52.9897 Y 18.2487 Z -0.1250 I -0.7288 J -0.6347
G02 X 53.0535 Y 17.9767 Z -0.1250 I -0.6718 J -0.3012
G02 X 53.0062 Y 17.8316 Z -0.1250 I -0.2195 J -0.0087
G01 X 51.3809 Y 15.7802 Z -0.1250
G01 X 53.0062 Y 17.8316 Z -0.1250
G03 X 53.0535 Y 17.9767 Z -0.1250 I -0.1721 J 0.1364
G03 X 52.9897 Y 18.2487 Z -0.1250 I -0.7357 J -0.0292
G03 X 52.8329 Y 18.4965 Z -0.1250 I -0.8856 J -0.3870
G03 X 52.5052 Y 18.8051 Z -0.1250 I -1.7182 J -1.4963
G03 X 52.0937 Y 19.0666 Z -0.1250 I -1.6484 J -2.1396
G03 X 51.7878 Y 19.1747 Z -0.1250 I -0.5478 J -1.0634
G03 X 51.4892 Y 19.1835 Z -0.1250 I -0.1723 J -0.7702
G03 X 51.3543 Y 19.1043 Z -0.1250 I 0.0346 J -0.2135
G01 X 49.7289 Y 17.0529 Z -0.1250
S0
 G0 F1000 Z6.000000
S0	(---Laser 0% OFF)

(End cutting path id: path941)


(Start cutting path id: path943)
(Change tool to Default tool)

S0
 G0 F1000 Z6.000000
S0	(---Laser 0% OFF)
G00 X 52.1956 Y 15.7401

G01 Z -0.1250 F 100.0000(Penetrate) 
 S250	(---LaserOn 100% ON)
G03 X 52.1582 Y 15.5971 Z -0.1250 I 0.1438 J -0.1139 F 400.0000
G03 X 52.2696 Y 15.2787 Z -0.1250 I 0.9436 J 0.1513
G03 X 52.4859 Y 14.9761 Z -0.1250 I 1.6078 J 0.9207
G03 X 52.7685 Y 14.7113 Z -0.1250 I 1.5078 J 1.3256
G03 X 53.1310 Y 14.4854 Z -0.1250 I 1.3158 J 1.7079
G03 X 53.4284 Y 14.3860 Z -0.1250 I 0.5133 J 1.0414
G03 X 53.7216 Y 14.3851 Z -0.1250 I 0.1489 J 0.7864
G03 X 53.8523 Y 14.4637 Z -0.1250 I -0.0391 J 0.2131
G01 X 55.1886 Y 16.1503 Z -0.1250
G03 X 55.2341 Y 16.2951 Z -0.1250 I -0.1662 J 0.1317
G03 X 55.1625 Y 16.5748 Z -0.1250 I -0.7669 J -0.0472
G03 X 54.9935 Y 16.8345 Z -0.1250 I -1.0215 J -0.4802
G03 X 54.6828 Y 17.1275 Z -0.1250 I -1.6190 J -1.4052
G03 X 54.2909 Y 17.3758 Z -0.1250 I -1.5455 J -2.0061
G03 X 53.9750 Y 17.4896 Z -0.1250 I -0.6040 J -1.1804
G03 X 53.6628 Y 17.5018 Z -0.1250 I -0.1895 J -0.8512
G03 X 53.5319 Y 17.4267 Z -0.1250 I 0.0286 J -0.2016
G01 X 52.1956 Y 15.7401 Z -0.1250
S0
 G0 F1000 Z6.000000
S0	(---Laser 0% OFF)

(Change tool to Default tool)

S0
 G0 F1000 Z6.000000
S0	(---Laser 0% OFF)
G00 X 53.8523 Y 14.4637

G01 Z -0.1250 F 100.0000(Penetrate) 
 S250	(---LaserOn 100% ON)
G02 X 53.7216 Y 14.3851 Z -0.1250 I -0.1699 J 0.1346 F 400.0000
G02 X 53.4284 Y 14.3860 Z -0.1250 I -0.1443 J 0.7873
G02 X 53.1310 Y 14.4854 Z -0.1250 I 0.2160 J 1.1408
G02 X 52.7685 Y 14.7113 Z -0.1250 I 0.9532 J 1.9338
G02 X 52.4859 Y 14.9761 Z -0.1250 I 1.2252 J 1.5904
G02 X 52.2696 Y 15.2787 Z -0.1250 I 1.3915 J 1.2233
G02 X 52.1582 Y 15.5971 Z -0.1250 I 0.8322 J 0.4697
G02 X 52.1956 Y 15.7401 Z -0.1250 I 0.1812 J 0.0291
G01 X 51.9066 Y 15.3753 Z -0.1250
G01 X 54.5341 Y 18.6916 Z -0.1250
G01 X 53.5319 Y 17.4267 Z -0.1250
G02 X 53.6628 Y 17.5018 Z -0.1250 I 0.1596 J -0.1264
G02 X 53.9750 Y 17.4896 Z -0.1250 I 0.1227 J -0.8634
G02 X 54.2909 Y 17.3758 Z -0.1250 I -0.2882 J -1.2943
G02 X 54.6828 Y 17.1275 Z -0.1250 I -1.1536 J -2.2544
G02 X 54.9935 Y 16.8345 Z -0.1250 I -1.3083 J -1.6983
G02 X 55.1625 Y 16.5748 Z -0.1250 I -0.8524 J -0.7399
G02 X 55.2341 Y 16.2951 Z -0.1250 I -0.6954 J -0.3269
G02 X 55.1886 Y 16.1503 Z -0.1250 I -0.2117 J -0.0130
G01 X 53.8523 Y 14.4637 Z -0.1250
S0
 G0 F1000 Z6.000000
S0	(---Laser 0% OFF)

(End cutting path id: path943)


(Start cutting path id: path945)
(Change tool to Default tool)

S0
 G0 F1000 Z6.000000
S0	(---Laser 0% OFF)
G00 X 57.4893 Y 14.3779

G01 Z -0.1250 F 100.0000(Penetrate) 
 S250	(---LaserOn 100% ON)
G03 X 57.5351 Y 14.5354 Z -0.1250 I -0.1705 J 0.1351 F 400.0000
G03 X 57.4430 Y 14.8256 Z -0.1250 I -0.7456 J -0.0771
G03 X 57.2517 Y 15.1020 Z -0.1250 I -1.3526 J -0.7315
G03 X 56.9834 Y 15.3551 Z -0.1250 I -1.3977 J -1.2130
G03 X 56.5622 Y 15.6231 Z -0.1250 I -1.7006 J -2.2075
G03 X 56.2613 Y 15.7283 Z -0.1250 I -0.5217 J -1.0094
G03 X 55.9633 Y 15.7320 Z -0.1250 I -0.1588 J -0.8020
G03 X 55.8325 Y 15.6543 Z -0.1250 I 0.0363 J -0.2101
G01 X 55.2807 Y 14.9578 Z -0.1250
G03 X 55.2419 Y 14.8145 Z -0.1250 I 0.1475 J -0.1169
G03 X 55.3451 Y 14.5039 Z -0.1250 I 0.9057 J 0.1285
G03 X 55.5491 Y 14.2135 Z -0.1250 I 1.3958 J 0.7639
G03 X 55.8536 Y 13.9290 Z -0.1250 I 1.6438 J 1.4540
G03 X 56.1663 Y 13.7324 Z -0.1250 I 1.1873 J 1.5412
G03 X 56.4820 Y 13.6127 Z -0.1250 I 0.7312 J 1.4527
G03 X 56.7940 Y 13.5983 Z -0.1250 I 0.1923 J 0.7782
G03 X 56.9375 Y 13.6815 Z -0.1250 I -0.0338 J 0.2236
G01 X 57.4893 Y 14.3779 Z -0.1250
S0
 G0 F1000 Z6.000000
S0	(---Laser 0% OFF)

(Change tool to Default tool)

S0
 G0 F1000 Z6.000000
S0	(---Laser 0% OFF)
G00 X 55.8325 Y 15.6543

G01 Z -0.1250 F 100.0000(Penetrate) 
 S250	(---LaserOn 100% ON)
G02 X 55.9633 Y 15.7320 Z -0.1250 I 0.1671 J -0.1324 F 400.0000
G02 X 56.2613 Y 15.7283 Z -0.1250 I 0.1391 J -0.8057
G02 X 56.5622 Y 15.6231 Z -0.1250 I -0.2207 J -1.1146
G02 X 56.9834 Y 15.3551 Z -0.1250 I -1.2794 J -2.4755
G02 X 57.2517 Y 15.1020 Z -0.1250 I -1.1295 J -1.4661
G02 X 57.4430 Y 14.8256 Z -0.1250 I -1.1614 J -1.0079
G02 X 57.5351 Y 14.5354 Z -0.1250 I -0.6534 J -0.3673
G02 X 57.4893 Y 14.3779 Z -0.1250 I -0.2164 J -0.0224
G01 X 56.9375 Y 13.6815 Z -0.1250
G02 X 56.7940 Y 13.5983 Z -0.1250 I -0.1773 J 0.1404
G02 X 56.4820 Y 13.6127 Z -0.1250 I -0.1197 J 0.7926
G02 X 56.1663 Y 13.7324 Z -0.1250 I 0.4154 J 1.5724
G02 X 55.8536 Y 13.9290 Z -0.1250 I 0.8746 J 1.7378
G02 X 55.5491 Y 14.2135 Z -0.1250 I 1.3393 J 1.7385
G02 X 55.3451 Y 14.5039 Z -0.1250 I 1.1919 J 1.0542
G02 X 55.2419 Y 14.8145 Z -0.1250 I 0.8024 J 0.4392
G02 X 55.2807 Y 14.9578 Z -0.1250 I 0.1864 J 0.0264
G01 X 54.4962 Y 13.9677 Z -0.1250
G03 X 54.4480 Y 13.8224 Z -0.1250 I 0.1753 J -0.1389
G03 X 54.5080 Y 13.5543 Z -0.1250 I 0.7206 J 0.0205
G03 X 54.6716 Y 13.3047 Z -0.1250 I 0.8602 J 0.3856
G03 X 55.0691 Y 12.9389 Z -0.1250 I 2.2832 J 2.0818
G03 X 55.3818 Y 12.7422 Z -0.1250 I 1.1873 J 1.5412
G03 X 55.6975 Y 12.6226 Z -0.1250 I 0.7312 J 1.4527
G03 X 56.0095 Y 12.6081 Z -0.1250 I 0.1923 J 0.7782
G03 X 56.1530 Y 12.6913 Z -0.1250 I -0.0338 J 0.2236
G01 X 56.3369 Y 12.9235 Z -0.1250
G01 X 56.1530 Y 12.6913 Z -0.1250
G02 X 56.0095 Y 12.6081 Z -0.1250 I -0.1773 J 0.1404
G02 X 55.6975 Y 12.6226 Z -0.1250 I -0.1197 J 0.7927
G02 X 55.3818 Y 12.7422 Z -0.1250 I 0.4154 J 1.5724
G02 X 55.0691 Y 12.9389 Z -0.1250 I 0.8747 J 1.7378
G02 X 54.6716 Y 13.3047 Z -0.1250 I 1.8857 J 2.4477
G02 X 54.5080 Y 13.5543 Z -0.1250 I 0.6966 J 0.6352
G02 X 54.4480 Y 13.8224 Z -0.1250 I 0.6606 J 0.2886
G02 X 54.4962 Y 13.9677 Z -0.1250 I 0.2236 J 0.0063
G01 X 55.8325 Y 15.6543 Z -0.1250
S0
 G0 F1000 Z6.000000
S0	(---Laser 0% OFF)

(End cutting path id: path945)


(Start cutting path id: path947)
(Change tool to Default tool)

S0
 G0 F1000 Z6.000000
S0	(---Laser 0% OFF)
G00 X 56.5078 Y 11.8305

G01 Z -0.1250 F 100.0000(Penetrate) 
 S250	(---LaserOn 100% ON)
G01 X 58.1331 Y 13.8819 Z -0.1250 F 400.0000
G01 X 58.4222 Y 14.2467 Z -0.1250
G01 X 58.1331 Y 13.8819 Z -0.1250
G02 X 58.2680 Y 13.9611 Z -0.1250 I 0.1695 J -0.1343
G02 X 58.5667 Y 13.9522 Z -0.1250 I 0.1264 J -0.7791
G02 X 58.8726 Y 13.8441 Z -0.1250 I -0.2419 J -1.1715
G02 X 59.2841 Y 13.5827 Z -0.1250 I -1.2369 J -2.4011
G02 X 59.6164 Y 13.2702 Z -0.1250 I -1.4204 J -1.8437
G02 X 59.7734 Y 13.0226 Z -0.1250 I -0.7240 J -0.6325
G02 X 59.8372 Y 12.7506 Z -0.1250 I -0.6718 J -0.3012
G02 X 59.7899 Y 12.6055 Z -0.1250 I -0.2195 J -0.0087
G01 X 59.7899 Y 12.6055 Z -0.1250
G03 X 59.8372 Y 12.7506 Z -0.1250 I -0.1721 J 0.1364
G03 X 59.7734 Y 13.0226 Z -0.1250 I -0.7357 J -0.0292
G03 X 59.6164 Y 13.2702 Z -0.1250 I -0.8810 J -0.3849
G03 X 59.2841 Y 13.5827 Z -0.1250 I -1.7527 J -1.5313
G03 X 58.8726 Y 13.8441 Z -0.1250 I -1.6484 J -2.1396
G03 X 58.5667 Y 13.9522 Z -0.1250 I -0.5478 J -1.0634
G03 X 58.2680 Y 13.9611 Z -0.1250 I -0.1723 J -0.7702
G03 X 58.1331 Y 13.8819 Z -0.1250 I 0.0346 J -0.2135
G01 X 56.5078 Y 11.8305 Z -0.1250
S0
 G0 F1000 Z6.000000
S0	(---Laser 0% OFF)

(End cutting path id: path947)


(Start cutting path id: path939)
(Change tool to Default tool)

S0
 G0 F1000 Z6.000000
S0	(---Laser 0% OFF)
G00 X 49.0536 Y 20.8767

G01 Z -0.1250 F 100.0000(Penetrate) 
 S250	(---LaserOn 100% ON)
G03 X 49.0995 Y 21.0342 Z -0.1250 I -0.1705 J 0.1351 F 400.0000
G03 X 49.0073 Y 21.3244 Z -0.1250 I -0.7456 J -0.0771
G03 X 48.8161 Y 21.6008 Z -0.1250 I -1.3526 J -0.7315
G03 X 48.5478 Y 21.8539 Z -0.1250 I -1.3977 J -1.2130
G03 X 48.1266 Y 22.1219 Z -0.1250 I -1.7006 J -2.2075
G03 X 47.8257 Y 22.2271 Z -0.1250 I -0.5217 J -1.0094
G03 X 47.5277 Y 22.2308 Z -0.1250 I -0.1588 J -0.8020
G03 X 47.3969 Y 22.1531 Z -0.1250 I 0.0363 J -0.2101
G01 X 46.8451 Y 21.4566 Z -0.1250
G03 X 46.8063 Y 21.3133 Z -0.1250 I 0.1475 J -0.1169
G03 X 46.9095 Y 21.0026 Z -0.1250 I 0.9057 J 0.1285
G03 X 47.1135 Y 20.7123 Z -0.1250 I 1.3958 J 0.7639
G03 X 47.4180 Y 20.4278 Z -0.1250 I 1.6438 J 1.4540
G03 X 47.7306 Y 20.2312 Z -0.1250 I 1.1873 J 1.5412
G03 X 48.0464 Y 20.1115 Z -0.1250 I 0.7312 J 1.4527
G03 X 48.3583 Y 20.0971 Z -0.1250 I 0.1923 J 0.7782
G03 X 48.5018 Y 20.1803 Z -0.1250 I -0.0338 J 0.2236
G01 X 49.0536 Y 20.8767 Z -0.1250
S0
 G0 F1000 Z6.000000
S0	(---Laser 0% OFF)

(Change tool to Default tool)

S0
 G0 F1000 Z6.000000
S0	(---Laser 0% OFF)
G00 X 47.3969 Y 22.1531

G01 Z -0.1250 F 100.0000(Penetrate) 
 S250	(---LaserOn 100% ON)
G02 X 47.5277 Y 22.2308 Z -0.1250 I 0.1671 J -0.1324 F 400.0000
G02 X 47.8257 Y 22.2271 Z -0.1250 I 0.1391 J -0.8057
G02 X 48.1266 Y 22.1219 Z -0.1250 I -0.2207 J -1.1146
G02 X 48.5478 Y 21.8539 Z -0.1250 I -1.2794 J -2.4755
G02 X 48.8161 Y 21.6008 Z -0.1250 I -1.1295 J -1.4661
G02 X 49.0073 Y 21.3244 Z -0.1250 I -1.1614 J -1.0079
G02 X 49.0995 Y 21.0342 Z -0.1250 I -0.6534 J -0.3673
G02 X 49.0536 Y 20.8767 Z -0.1250 I -0.2164 J -0.0224
G01 X 48.5018 Y 20.1803 Z -0.1250
G02 X 48.3583 Y 20.0971 Z -0.1250 I -0.1773 J 0.1404
G02 X 48.0464 Y 20.1115 Z -0.1250 I -0.1197 J 0.7926
G02 X 47.7306 Y 20.2312 Z -0.1250 I 0.4154 J 1.5724
G02 X 47.4180 Y 20.4278 Z -0.1250 I 0.8746 J 1.7378
G02 X 47.1135 Y 20.7123 Z -0.1250 I 1.3393 J 1.7385
G02 X 46.9095 Y 21.0026 Z -0.1250 I 1.1919 J 1.0542
G02 X 46.8063 Y 21.3133 Z -0.1250 I 0.8024 J 0.4392
G02 X 46.8451 Y 21.4566 Z -0.1250 I 0.1864 J 0.0264
G01 X 46.0606 Y 20.4664 Z -0.1250
G03 X 46.0123 Y 20.3212 Z -0.1250 I 0.1753 J -0.1389
G03 X 46.0723 Y 20.0530 Z -0.1250 I 0.7206 J 0.0205
G03 X 46.2359 Y 19.8035 Z -0.1250 I 0.8602 J 0.3856
G03 X 46.6334 Y 19.4376 Z -0.1250 I 2.2832 J 2.0818
G03 X 46.9461 Y 19.2410 Z -0.1250 I 1.1873 J 1.5412
G03 X 47.2619 Y 19.1213 Z -0.1250 I 0.7312 J 1.4527
G03 X 47.5738 Y 19.1069 Z -0.1250 I 0.1923 J 0.7782
G03 X 47.7173 Y 19.1901 Z -0.1250 I -0.0338 J 0.2236
G01 X 47.9013 Y 19.4222 Z -0.1250
G01 X 47.7173 Y 19.1901 Z -0.1250
G02 X 47.5738 Y 19.1069 Z -0.1250 I -0.1773 J 0.1404
G02 X 47.2619 Y 19.1213 Z -0.1250 I -0.1197 J 0.7927
G02 X 46.9461 Y 19.2410 Z -0.1250 I 0.4154 J 1.5724
G02 X 46.6334 Y 19.4376 Z -0.1250 I 0.8747 J 1.7378
G02 X 46.2359 Y 19.8035 Z -0.1250 I 1.8857 J 2.4477
G02 X 46.0723 Y 20.0530 Z -0.1250 I 0.6966 J 0.6352
G02 X 46.0123 Y 20.3212 Z -0.1250 I 0.6606 J 0.2886
G02 X 46.0606 Y 20.4664 Z -0.1250 I 0.2236 J 0.0063
G01 X 47.3969 Y 22.1531 Z -0.1250
S0
 G0 F1000 Z6.000000
S0	(---Laser 0% OFF)

(End cutting path id: path939)


(Start cutting path id: path3806)
(Change tool to Default tool)

S0
 G0 F1000 Z6.000000
S0	(---Laser 0% OFF)
G00 X 49.6502 Y 31.7382

G01 Z -0.1250 F 100.0000(Penetrate) 
 S250	(---LaserOn 100% ON)
G01 X 52.0314 Y 33.1130 Z -0.1250 F 400.0000
G01 X 52.4548 Y 33.3575 Z -0.1250
G01 X 52.0314 Y 33.1130 Z -0.1250
G02 X 52.1933 Y 33.1376 Z -0.1250 I 0.1124 J -0.1946
G02 X 52.4784 Y 33.0118 Z -0.1250 I -0.1794 J -0.7927
G02 X 52.7312 Y 32.7861 Z -0.1250 I -0.6915 J -1.0289
G02 X 53.0263 Y 32.3676 Z -0.1250 I -2.1556 J -1.8334
G02 X 53.2242 Y 31.9311 Z -0.1250 I -2.1233 J -1.2259
G02 X 53.2785 Y 31.6260 Z -0.1250 I -0.9702 J -0.3299
G02 X 53.2329 Y 31.3337 Z -0.1250 I -0.7892 J -0.0266
G02 X 53.1299 Y 31.2102 Z -0.1250 I -0.2195 J 0.0785
G01 X 53.1299 Y 31.2102 Z -0.1250
G03 X 53.2329 Y 31.3337 Z -0.1250 I -0.1166 J 0.2019
G03 X 53.2785 Y 31.6260 Z -0.1250 I -0.7435 J 0.2657
G03 X 53.2242 Y 31.9311 Z -0.1250 I -1.0245 J -0.0249
G03 X 53.0263 Y 32.3676 Z -0.1250 I -2.3212 J -0.7893
G03 X 52.7312 Y 32.7861 Z -0.1250 I -2.4507 J -1.4149
G03 X 52.4784 Y 33.0118 Z -0.1250 I -0.9443 J -0.8031
G03 X 52.1933 Y 33.1376 Z -0.1250 I -0.4645 J -0.6669
G03 X 52.0314 Y 33.1130 Z -0.1250 I -0.0496 J -0.2192
G01 X 49.6502 Y 31.7382 Z -0.1250
S0
 G0 F1000 Z6.000000
S0	(---Laser 0% OFF)

(End cutting path id: path3806)


(Start cutting path id: path3804)
(Change tool to Default tool)

S0
 G0 F1000 Z6.000000
S0	(---Laser 0% OFF)
G00 X 51.6044 Y 33.8525

G01 Z -0.1250 F 100.0000(Penetrate) 
 S250	(---LaserOn 100% ON)
G03 X 51.7110 Y 33.9886 Z -0.1250 I -0.1156 J 0.2002 F 400.0000
G03 X 51.7363 Y 34.3099 Z -0.1250 I -0.7716 J 0.2224
G03 X 51.6602 Y 34.6567 Z -0.1250 I -1.6272 J -0.1750
G03 X 51.5008 Y 35.0098 Z -0.1250 I -1.8478 J -0.6216
G03 X 51.1989 Y 35.4386 Z -0.1250 I -2.5285 J -1.4598
G03 X 50.9497 Y 35.6595 Z -0.1250 I -0.8979 J -0.7616
G03 X 50.6633 Y 35.7799 Z -0.1250 I -0.4638 J -0.7024
G03 X 50.5059 Y 35.7552 Z -0.1250 I -0.0467 J -0.2166
G01 X 49.6975 Y 35.2885 Z -0.1250
G03 X 49.6033 Y 35.1634 Z -0.1250 I 0.1000 J -0.1733
G03 X 49.5806 Y 34.8178 Z -0.1250 I 0.9509 J -0.2360
G03 X 49.6635 Y 34.4523 Z -0.1250 I 1.6825 J 0.1895
G03 X 49.8455 Y 34.0541 Z -0.1250 I 2.1838 J 0.7576
G03 X 50.0706 Y 33.7381 Z -0.1250 I 1.7651 J 1.0191
G03 X 50.3285 Y 33.4971 Z -0.1250 I 1.2748 J 1.1052
G03 X 50.6241 Y 33.3607 Z -0.1250 I 0.4870 J 0.6668
G03 X 50.7960 Y 33.3857 Z -0.1250 I 0.0544 J 0.2285
G01 X 51.6044 Y 33.8525 Z -0.1250
S0
 G0 F1000 Z6.000000
S0	(---Laser 0% OFF)

(Change tool to Default tool)

S0
 G0 F1000 Z6.000000
S0	(---Laser 0% OFF)
G00 X 50.5059 Y 35.7552

G01 Z -0.1250 F 100.0000(Penetrate) 
 S250	(---LaserOn 100% ON)
G02 X 50.6633 Y 35.7799 Z -0.1250 I 0.1108 J -0.1919 F 400.0000
G02 X 50.9497 Y 35.6595 Z -0.1250 I -0.1774 J -0.8228
G02 X 51.1989 Y 35.4386 Z -0.1250 I -0.6487 J -0.9825
G02 X 51.5008 Y 35.0098 Z -0.1250 I -2.2266 J -1.8886
G02 X 51.6602 Y 34.6567 Z -0.1250 I -1.6884 J -0.9748
G02 X 51.7363 Y 34.3099 Z -0.1250 I -1.5511 J -0.5218
G02 X 51.7110 Y 33.9886 Z -0.1250 I -0.7969 J -0.0988
G02 X 51.6044 Y 33.8525 Z -0.1250 I -0.2221 J 0.0640
G01 X 50.7960 Y 33.3857 Z -0.1250
G02 X 50.6241 Y 33.3607 Z -0.1250 I -0.1175 J 0.2034
G02 X 50.3285 Y 33.4971 Z -0.1250 I 0.1913 J 0.8032
G02 X 50.0706 Y 33.7381 Z -0.1250 I 1.0169 J 1.3462
G02 X 49.8455 Y 34.0541 Z -0.1250 I 1.5400 J 1.3351
G02 X 49.6635 Y 34.4523 Z -0.1250 I 2.0018 J 1.1558
G02 X 49.5806 Y 34.8178 Z -0.1250 I 1.5996 J 0.5549
G02 X 49.6033 Y 35.1634 Z -0.1250 I 0.9736 J 0.1096
G02 X 49.6975 Y 35.2885 Z -0.1250 I 0.1942 J -0.0482
G01 X 48.5481 Y 34.6249 Z -0.1250
G03 X 48.4442 Y 34.5017 Z -0.1250 I 0.1187 J -0.2056
G03 X 48.3964 Y 34.2147 Z -0.1250 I 0.7252 J -0.2683
G03 X 48.4563 Y 33.9050 Z -0.1250 I 1.0039 J 0.0338
G03 X 48.6962 Y 33.3906 Z -0.1250 I 3.0578 J 1.1125
G03 X 48.9213 Y 33.0746 Z -0.1250 I 1.7651 J 1.0191
G03 X 49.1791 Y 32.8335 Z -0.1250 I 1.2748 J 1.1052
G03 X 49.4748 Y 32.6971 Z -0.1250 I 0.4870 J 0.6668
G03 X 49.6467 Y 32.7222 Z -0.1250 I 0.0544 J 0.2285
G01 X 49.9161 Y 32.8777 Z -0.1250
G01 X 49.6467 Y 32.7222 Z -0.1250
G02 X 49.4748 Y 32.6971 Z -0.1250 I -0.1175 J 0.2034
G02 X 49.1791 Y 32.8335 Z -0.1250 I 0.1913 J 0.8032
G02 X 48.9213 Y 33.0746 Z -0.1250 I 1.0169 J 1.3462
G02 X 48.6962 Y 33.3906 Z -0.1250 I 1.5400 J 1.3351
G02 X 48.4563 Y 33.9050 Z -0.1250 I 2.8179 J 1.6269
G02 X 48.3964 Y 34.2147 Z -0.1250 I 0.9439 J 0.3434
G02 X 48.4442 Y 34.5017 Z -0.1250 I 0.7730 J 0.0187
G02 X 48.5481 Y 34.6249 Z -0.1250 I 0.2227 J -0.0824
G01 X 50.5059 Y 35.7552 Z -0.1250
S0
 G0 F1000 Z6.000000
S0	(---Laser 0% OFF)

(End cutting path id: path3804)


(Start cutting path id: path3802)
(Change tool to Default tool)

S0
 G0 F1000 Z6.000000
S0	(---Laser 0% OFF)
G00 X 47.0226 Y 37.2671

G01 Z -0.1250 F 100.0000(Penetrate) 
 S250	(---LaserOn 100% ON)
G03 X 46.9301 Y 37.1418 Z -0.1250 I 0.0975 J -0.1689 F 400.0000
G03 X 46.9121 Y 36.7854 Z -0.1250 I 0.9974 J -0.2288
G03 X 47.0021 Y 36.4031 Z -0.1250 I 1.9537 J 0.2579
G03 X 47.1707 Y 36.0328 Z -0.1250 I 1.9999 J 0.6870
G03 X 47.4325 Y 35.6684 Z -0.1250 I 1.9558 J 1.1292
G03 X 47.6805 Y 35.4546 Z -0.1250 I 0.9021 J 0.7954
G03 X 47.9634 Y 35.3388 Z -0.1250 I 0.4481 J 0.6914
G03 X 48.1212 Y 35.3644 Z -0.1250 I 0.0452 J 0.2206
G01 X 50.0789 Y 36.4947 Z -0.1250
G03 X 50.1800 Y 36.6185 Z -0.1250 I -0.1126 J 0.1950
G03 X 50.2212 Y 36.9214 Z -0.1250 I -0.7816 J 0.2605
G03 X 50.1600 Y 37.2431 Z -0.1250 I -1.2010 J -0.0619
G03 X 49.9753 Y 37.6521 Z -0.1250 I -2.1404 J -0.7202
G03 X 49.6939 Y 38.0499 Z -0.1250 I -2.2978 J -1.3266
G03 X 49.4338 Y 38.2853 Z -0.1250 I -1.0446 J -0.8934
G03 X 49.1369 Y 38.4196 Z -0.1250 I -0.5126 J -0.7375
G03 X 48.9804 Y 38.3974 Z -0.1250 I -0.0508 J -0.2053
G01 X 47.0226 Y 37.2671 Z -0.1250
S0
 G0 F1000 Z6.000000
S0	(---Laser 0% OFF)

(Change tool to Default tool)

S0
 G0 F1000 Z6.000000
S0	(---Laser 0% OFF)
G00 X 48.1212 Y 35.3644

G01 Z -0.1250 F 100.0000(Penetrate) 
 S250	(---LaserOn 100% ON)
G02 X 47.9634 Y 35.3388 Z -0.1250 I -0.1126 J 0.1950 F 400.0000
G02 X 47.6805 Y 35.4546 Z -0.1250 I 0.1652 J 0.8072
G02 X 47.4325 Y 35.6684 Z -0.1250 I 0.6541 J 1.0092
G02 X 47.1707 Y 36.0328 Z -0.1250 I 1.6940 J 1.4936
G02 X 47.0021 Y 36.4031 Z -0.1250 I 1.8313 J 1.0573
G02 X 46.9121 Y 36.7854 Z -0.1250 I 1.8637 J 0.6402
G02 X 46.9301 Y 37.1418 Z -0.1250 I 1.0153 J 0.1277
G02 X 47.0226 Y 37.2671 Z -0.1250 I 0.1901 J -0.0436
G01 X 46.5992 Y 37.0227 Z -0.1250
G01 X 50.4487 Y 39.2452 Z -0.1250
G01 X 48.9804 Y 38.3974 Z -0.1250
G02 X 49.1369 Y 38.4196 Z -0.1250 I 0.1057 J -0.1832
G02 X 49.4338 Y 38.2853 Z -0.1250 I -0.2157 J -0.8719
G02 X 49.6939 Y 38.0499 Z -0.1250 I -0.7844 J -1.1287
G02 X 49.9753 Y 37.6521 Z -0.1250 I -2.0163 J -1.7245
G02 X 50.1600 Y 37.2431 Z -0.1250 I -1.9558 J -1.1292
G02 X 50.2212 Y 36.9214 Z -0.1250 I -1.1398 J -0.3835
G02 X 50.1800 Y 36.6185 Z -0.1250 I -0.8228 J -0.0424
G02 X 50.0789 Y 36.4947 Z -0.1250 I -0.2137 J 0.0712
G01 X 48.1212 Y 35.3644 Z -0.1250
S0
 G0 F1000 Z6.000000
S0	(---Laser 0% OFF)

(End cutting path id: path3802)


(Start cutting path id: path3800)
(Change tool to Default tool)

S0
 G0 F1000 Z6.000000
S0	(---Laser 0% OFF)
G00 X 44.0567 Y 41.4264

G01 Z -0.1250 F 100.0000(Penetrate) 
 S250	(---LaserOn 100% ON)
G01 X 46.4379 Y 42.8011 Z -0.1250 F 400.0000
G01 X 46.8613 Y 43.0456 Z -0.1250
G01 X 46.4379 Y 42.8011 Z -0.1250
G02 X 46.5999 Y 42.8257 Z -0.1250 I 0.1124 J -0.1946
G02 X 46.8849 Y 42.7000 Z -0.1250 I -0.1794 J -0.7927
G02 X 47.1377 Y 42.4742 Z -0.1250 I -0.6915 J -1.0289
G02 X 47.4328 Y 42.0558 Z -0.1250 I -2.1556 J -1.8334
G02 X 47.6308 Y 41.6192 Z -0.1250 I -2.1233 J -1.2259
G02 X 47.6850 Y 41.3141 Z -0.1250 I -0.9702 J -0.3299
G02 X 47.6394 Y 41.0218 Z -0.1250 I -0.7892 J -0.0266
G02 X 47.5364 Y 40.8984 Z -0.1250 I -0.2195 J 0.0785
G01 X 45.1553 Y 39.5236 Z -0.1250
G01 X 47.5364 Y 40.8984 Z -0.1250
G03 X 47.6394 Y 41.0218 Z -0.1250 I -0.1166 J 0.2019
G03 X 47.6850 Y 41.3141 Z -0.1250 I -0.7435 J 0.2657
G03 X 47.6308 Y 41.6192 Z -0.1250 I -1.0245 J -0.0249
G03 X 47.4328 Y 42.0558 Z -0.1250 I -2.3212 J -0.7893
G03 X 47.1377 Y 42.4742 Z -0.1250 I -2.4507 J -1.4149
G03 X 46.8849 Y 42.7000 Z -0.1250 I -0.9443 J -0.8031
G03 X 46.5999 Y 42.8257 Z -0.1250 I -0.4645 J -0.6669
G03 X 46.4379 Y 42.8011 Z -0.1250 I -0.0496 J -0.2192
G01 X 44.0567 Y 41.4264 Z -0.1250
S0
 G0 F1000 Z6.000000
S0	(---Laser 0% OFF)

(Change tool to Default tool)

S0
 G0 F1000 Z6.000000
S0	(---Laser 0% OFF)
G00 X 45.1553 Y 39.5236

G01 Z -0.1250 F 100.0000(Penetrate) 
 S250	(---LaserOn 100% ON)
G01 X 47.5364 Y 40.8984 Z -0.1250 F 400.0000
G01 X 47.5364 Y 40.8984 Z -0.1250
G02 X 47.6984 Y 40.9230 Z -0.1250 I 0.1124 J -0.1946
G02 X 47.9835 Y 40.7972 Z -0.1250 I -0.1794 J -0.7927
G02 X 48.2363 Y 40.5715 Z -0.1250 I -0.6915 J -1.0289
G02 X 48.5314 Y 40.1530 Z -0.1250 I -2.1556 J -1.8334
G02 X 48.7264 Y 39.7221 Z -0.1250 I -2.0786 J -1.2001
G02 X 48.7804 Y 39.4169 Z -0.1250 I -0.9759 J -0.3301
G02 X 48.7348 Y 39.1246 Z -0.1250 I -0.7892 J -0.0266
G02 X 48.6318 Y 39.0012 Z -0.1250 I -0.2195 J 0.0785
G01 X 46.2506 Y 37.6264 Z -0.1250
G01 X 48.6318 Y 39.0012 Z -0.1250
G03 X 48.7348 Y 39.1246 Z -0.1250 I -0.1166 J 0.2019
G03 X 48.7804 Y 39.4169 Z -0.1250 I -0.7435 J 0.2657
G03 X 48.7264 Y 39.7221 Z -0.1250 I -1.0299 J -0.0250
G03 X 48.5314 Y 40.1530 Z -0.1250 I -2.2736 J -0.7691
G03 X 48.2363 Y 40.5715 Z -0.1250 I -2.4507 J -1.4149
G03 X 47.9835 Y 40.7972 Z -0.1250 I -0.9443 J -0.8031
G03 X 47.6984 Y 40.9230 Z -0.1250 I -0.4645 J -0.6669
G03 X 47.5364 Y 40.8984 Z -0.1250 I -0.0496 J -0.2192
G01 X 45.1553 Y 39.5236 Z -0.1250
S0
 G0 F1000 Z6.000000
S0	(---Laser 0% OFF)

(End cutting path id: path3800)


(Start cutting path id: path3798)
(Change tool to Default tool)

S0
 G0 F1000 Z6.000000
S0	(---Laser 0% OFF)
G00 X 46.0110 Y 43.5406

G01 Z -0.1250 F 100.0000(Penetrate) 
 S250	(---LaserOn 100% ON)
G03 X 46.1175 Y 43.6768 Z -0.1250 I -0.1156 J 0.2002 F 400.0000
G03 X 46.1428 Y 43.9980 Z -0.1250 I -0.7716 J 0.2224
G03 X 46.0668 Y 44.3448 Z -0.1250 I -1.6272 J -0.1750
G03 X 45.9074 Y 44.6980 Z -0.1250 I -1.8478 J -0.6216
G03 X 45.6054 Y 45.1267 Z -0.1250 I -2.5285 J -1.4598
G03 X 45.3563 Y 45.3477 Z -0.1250 I -0.8979 J -0.7616
G03 X 45.0699 Y 45.4681 Z -0.1250 I -0.4638 J -0.7024
G03 X 44.9124 Y 45.4434 Z -0.1250 I -0.0467 J -0.2166
G01 X 44.1040 Y 44.9766 Z -0.1250
G03 X 44.0099 Y 44.8516 Z -0.1250 I 0.1000 J -0.1733
G03 X 43.9872 Y 44.5059 Z -0.1250 I 0.9509 J -0.2360
G03 X 44.0701 Y 44.1405 Z -0.1250 I 1.6825 J 0.1895
G03 X 44.2521 Y 43.7423 Z -0.1250 I 2.1838 J 0.7576
G03 X 44.4772 Y 43.4263 Z -0.1250 I 1.7651 J 1.0191
G03 X 44.7350 Y 43.1852 Z -0.1250 I 1.2748 J 1.1052
G03 X 45.0307 Y 43.0488 Z -0.1250 I 0.4870 J 0.6668
G03 X 45.2026 Y 43.0739 Z -0.1250 I 0.0544 J 0.2285
G01 X 46.0110 Y 43.5406 Z -0.1250
S0
 G0 F1000 Z6.000000
S0	(---Laser 0% OFF)

(Change tool to Default tool)

S0
 G0 F1000 Z6.000000
S0	(---Laser 0% OFF)
G00 X 44.9124 Y 45.4434

G01 Z -0.1250 F 100.0000(Penetrate) 
 S250	(---LaserOn 100% ON)
G02 X 45.0699 Y 45.4681 Z -0.1250 I 0.1108 J -0.1919 F 400.0000
G02 X 45.3563 Y 45.3477 Z -0.1250 I -0.1774 J -0.8228
G02 X 45.6054 Y 45.1267 Z -0.1250 I -0.6487 J -0.9825
G02 X 45.9074 Y 44.6980 Z -0.1250 I -2.2266 J -1.8886
G02 X 46.0668 Y 44.3448 Z -0.1250 I -1.6884 J -0.9748
G02 X 46.1428 Y 43.9980 Z -0.1250 I -1.5511 J -0.5218
G02 X 46.1175 Y 43.6768 Z -0.1250 I -0.7969 J -0.0988
G02 X 46.0110 Y 43.5406 Z -0.1250 I -0.2221 J 0.0640
G01 X 45.2026 Y 43.0739 Z -0.1250
G02 X 45.0307 Y 43.0488 Z -0.1250 I -0.1175 J 0.2034
G02 X 44.7350 Y 43.1852 Z -0.1250 I 0.1913 J 0.8032
G02 X 44.4772 Y 43.4263 Z -0.1250 I 1.0169 J 1.3462
G02 X 44.2521 Y 43.7423 Z -0.1250 I 1.5400 J 1.3351
G02 X 44.0701 Y 44.1405 Z -0.1250 I 2.0018 J 1.1558
G02 X 43.9872 Y 44.5059 Z -0.1250 I 1.5996 J 0.5549
G02 X 44.0099 Y 44.8516 Z -0.1250 I 0.9736 J 0.1096
G02 X 44.1040 Y 44.9766 Z -0.1250 I 0.1942 J -0.0482
G01 X 42.9547 Y 44.3131 Z -0.1250
G03 X 42.8507 Y 44.1898 Z -0.1250 I 0.1187 J -0.2056
G03 X 42.8029 Y 43.9028 Z -0.1250 I 0.7252 J -0.2683
G03 X 42.8629 Y 43.5932 Z -0.1250 I 1.0039 J 0.0338
G03 X 43.1027 Y 43.0787 Z -0.1250 I 3.0578 J 1.1125
G03 X 43.3278 Y 42.7627 Z -0.1250 I 1.7651 J 1.0191
G03 X 43.5857 Y 42.5217 Z -0.1250 I 1.2748 J 1.1052
G03 X 43.8813 Y 42.3852 Z -0.1250 I 0.4870 J 0.6668
G03 X 44.0532 Y 42.4103 Z -0.1250 I 0.0544 J 0.2285
G01 X 44.3227 Y 42.5659 Z -0.1250
G01 X 44.0532 Y 42.4103 Z -0.1250
G02 X 43.8813 Y 42.3852 Z -0.1250 I -0.1175 J 0.2034
G02 X 43.5857 Y 42.5217 Z -0.1250 I 0.1913 J 0.8032
G02 X 43.3278 Y 42.7627 Z -0.1250 I 1.0169 J 1.3462
G02 X 43.1027 Y 43.0787 Z -0.1250 I 1.5400 J 1.3351
G02 X 42.8629 Y 43.5932 Z -0.1250 I 2.8179 J 1.6269
G02 X 42.8029 Y 43.9028 Z -0.1250 I 0.9439 J 0.3434
G02 X 42.8507 Y 44.1898 Z -0.1250 I 0.7730 J 0.0187
G02 X 42.9547 Y 44.3131 Z -0.1250 I 0.2227 J -0.0824
G01 X 44.9124 Y 45.4434 Z -0.1250
S0
 G0 F1000 Z6.000000
S0	(---Laser 0% OFF)

(End cutting path id: path3798)


(Start cutting path id: path3796)
(Change tool to Default tool)

S0
 G0 F1000 Z6.000000
S0	(---Laser 0% OFF)
G00 X 42.5277 Y 45.0525

G01 Z -0.1250 F 100.0000(Penetrate) 
 S250	(---LaserOn 100% ON)
G02 X 42.3697 Y 45.0260 Z -0.1250 I -0.1145 J 0.1984 F 400.0000
G02 X 42.0902 Y 45.1372 Z -0.1250 I 0.1533 J 0.7918
G02 X 41.8460 Y 45.3464 Z -0.1250 I 0.6106 J 0.9604
G02 X 41.5772 Y 45.7209 Z -0.1250 I 1.7571 J 1.5442
G02 X 41.3721 Y 46.1576 Z -0.1250 I 2.4762 J 1.4297
G02 X 41.2886 Y 46.5002 Z -0.1250 I 1.4327 J 0.5306
G02 X 41.3206 Y 46.8192 Z -0.1250 I 0.8038 J 0.0806
G02 X 41.4292 Y 46.9553 Z -0.1250 I 0.2278 J -0.0703
G01 X 43.3869 Y 48.0856 Z -0.1250
G02 X 43.5584 Y 48.1107 Z -0.1250 I 0.1173 J -0.2032
G02 X 43.8458 Y 47.9766 Z -0.1250 I -0.1815 J -0.7638
G02 X 44.1051 Y 47.7346 Z -0.1250 I -0.8736 J -1.1962
G02 X 44.3819 Y 47.3402 Z -0.1250 I -2.0914 J -1.7617
G02 X 44.5798 Y 46.9037 Z -0.1250 I -2.1233 J -1.2259
G02 X 44.6341 Y 46.5986 Z -0.1250 I -0.9702 J -0.3299
G02 X 44.5884 Y 46.3063 Z -0.1250 I -0.7892 J -0.0266
G02 X 44.4855 Y 46.1828 Z -0.1250 I -0.2195 J 0.0785
G01 X 44.2160 Y 46.0273 Z -0.1250
G01 X 44.4855 Y 46.1828 Z -0.1250
G03 X 44.5884 Y 46.3063 Z -0.1250 I -0.1166 J 0.2019
G03 X 44.6341 Y 46.5986 Z -0.1250 I -0.7435 J 0.2657
G03 X 44.5798 Y 46.9037 Z -0.1250 I -1.0245 J -0.0249
G03 X 44.3819 Y 47.3402 Z -0.1250 I -2.3212 J -0.7893
G03 X 44.1051 Y 47.7346 Z -0.1250 I -2.3682 J -1.3673
G03 X 43.8458 Y 47.9766 Z -0.1250 I -1.1329 J -0.9543
G03 X 43.5584 Y 48.1107 Z -0.1250 I -0.4688 J -0.6298
G03 X 43.3869 Y 48.0856 Z -0.1250 I -0.0542 J -0.2282
G01 X 41.4292 Y 46.9553 Z -0.1250
G03 X 41.3206 Y 46.8192 Z -0.1250 I 0.1192 J -0.2065
G03 X 41.2886 Y 46.5002 Z -0.1250 I 0.7719 J -0.2384
G03 X 41.3721 Y 46.1576 Z -0.1250 I 1.5162 J 0.1880
G03 X 41.5772 Y 45.7209 Z -0.1250 I 2.6813 J 0.9930
G03 X 41.8460 Y 45.3464 Z -0.1250 I 2.0258 J 1.1696
G03 X 42.0902 Y 45.1372 Z -0.1250 I 0.8549 J 0.7513
G03 X 42.3697 Y 45.0260 Z -0.1250 I 0.4327 J 0.6806
G03 X 42.5277 Y 45.0525 Z -0.1250 I 0.0435 J 0.2249
G01 X 42.7972 Y 45.2081 Z -0.1250
G01 X 42.5277 Y 45.0525 Z -0.1250
S0
 G0 F1000 Z6.000000
S0	(---Laser 0% OFF)

(End cutting path id: path3796)


(Start cutting path id: path3794)
(Change tool to Default tool)

S0
 G0 F1000 Z6.000000
S0	(---Laser 0% OFF)
G00 X 42.9600 Y 48.8251

G01 Z -0.1250 F 100.0000(Penetrate) 
 S250	(---LaserOn 100% ON)
G03 X 43.0665 Y 48.9612 Z -0.1250 I -0.1156 J 0.2002 F 400.0000
G03 X 43.0918 Y 49.2825 Z -0.1250 I -0.7716 J 0.2224
G03 X 43.0158 Y 49.6293 Z -0.1250 I -1.6272 J -0.1750
G03 X 42.8564 Y 49.9824 Z -0.1250 I -1.8478 J -0.6216
G03 X 42.5544 Y 50.4112 Z -0.1250 I -2.5285 J -1.4598
G03 X 42.3053 Y 50.6321 Z -0.1250 I -0.8979 J -0.7616
G03 X 42.0189 Y 50.7525 Z -0.1250 I -0.4638 J -0.7024
G03 X 41.8614 Y 50.7278 Z -0.1250 I -0.0467 J -0.2166
G01 X 41.0530 Y 50.2611 Z -0.1250
G03 X 40.9589 Y 50.1360 Z -0.1250 I 0.1000 J -0.1733
G03 X 40.9362 Y 49.7904 Z -0.1250 I 0.9509 J -0.2360
G03 X 41.0191 Y 49.4249 Z -0.1250 I 1.6825 J 0.1895
G03 X 41.2011 Y 49.0267 Z -0.1250 I 2.1838 J 0.7576
G03 X 41.4262 Y 48.7107 Z -0.1250 I 1.7651 J 1.0191
G03 X 41.6840 Y 48.4697 Z -0.1250 I 1.2748 J 1.1052
G03 X 41.9797 Y 48.3333 Z -0.1250 I 0.4870 J 0.6668
G03 X 42.1516 Y 48.3583 Z -0.1250 I 0.0544 J 0.2285
G01 X 42.9600 Y 48.8251 Z -0.1250
S0
 G0 F1000 Z6.000000
S0	(---Laser 0% OFF)

(Change tool to Default tool)

S0
 G0 F1000 Z6.000000
S0	(---Laser 0% OFF)
G00 X 41.8614 Y 50.7278

G01 Z -0.1250 F 100.0000(Penetrate) 
 S250	(---LaserOn 100% ON)
G02 X 42.0189 Y 50.7525 Z -0.1250 I 0.1108 J -0.1919 F 400.0000
G02 X 42.3053 Y 50.6321 Z -0.1250 I -0.1774 J -0.8228
G02 X 42.5544 Y 50.4112 Z -0.1250 I -0.6487 J -0.9825
G02 X 42.8564 Y 49.9824 Z -0.1250 I -2.2266 J -1.8886
G02 X 43.0158 Y 49.6293 Z -0.1250 I -1.6884 J -0.9748
G02 X 43.0918 Y 49.2825 Z -0.1250 I -1.5511 J -0.5218
G02 X 43.0665 Y 48.9612 Z -0.1250 I -0.7969 J -0.0988
G02 X 42.9600 Y 48.8251 Z -0.1250 I -0.2221 J 0.0640
G01 X 42.1516 Y 48.3583 Z -0.1250
G02 X 41.9797 Y 48.3333 Z -0.1250 I -0.1175 J 0.2034
G02 X 41.6840 Y 48.4697 Z -0.1250 I 0.1913 J 0.8032
G02 X 41.4262 Y 48.7107 Z -0.1250 I 1.0169 J 1.3462
G02 X 41.2011 Y 49.0267 Z -0.1250 I 1.5400 J 1.3351
G02 X 41.0191 Y 49.4249 Z -0.1250 I 2.0018 J 1.1558
G02 X 40.9362 Y 49.7904 Z -0.1250 I 1.5996 J 0.5549
G02 X 40.9589 Y 50.1360 Z -0.1250 I 0.9736 J 0.1096
G02 X 41.0530 Y 50.2611 Z -0.1250 I 0.1942 J -0.0482
G01 X 39.9037 Y 49.5975 Z -0.1250
G03 X 39.7997 Y 49.4743 Z -0.1250 I 0.1187 J -0.2056
G03 X 39.7519 Y 49.1873 Z -0.1250 I 0.7252 J -0.2683
G03 X 39.8119 Y 48.8776 Z -0.1250 I 1.0039 J 0.0338
G03 X 40.0517 Y 48.3632 Z -0.1250 I 3.0578 J 1.1125
G03 X 40.2768 Y 48.0472 Z -0.1250 I 1.7651 J 1.0191
G03 X 40.5347 Y 47.8061 Z -0.1250 I 1.2748 J 1.1052
G03 X 40.8304 Y 47.6697 Z -0.1250 I 0.4870 J 0.6668
G03 X 41.0022 Y 47.6948 Z -0.1250 I 0.0544 J 0.2285
G01 X 41.2717 Y 47.8503 Z -0.1250
G01 X 41.0022 Y 47.6948 Z -0.1250
G02 X 40.8304 Y 47.6697 Z -0.1250 I -0.1175 J 0.2034
G02 X 40.5347 Y 47.8061 Z -0.1250 I 0.1913 J 0.8032
G02 X 40.2768 Y 48.0472 Z -0.1250 I 1.0169 J 1.3462
G02 X 40.0517 Y 48.3632 Z -0.1250 I 1.5400 J 1.3351
G02 X 39.8119 Y 48.8776 Z -0.1250 I 2.8179 J 1.6269
G02 X 39.7519 Y 49.1873 Z -0.1250 I 0.9439 J 0.3434
G02 X 39.7997 Y 49.4743 Z -0.1250 I 0.7730 J 0.0187
G02 X 39.9037 Y 49.5975 Z -0.1250 I 0.2227 J -0.0824
G01 X 41.8614 Y 50.7278 Z -0.1250
S0
 G0 F1000 Z6.000000
S0	(---Laser 0% OFF)

(End cutting path id: path3794)


(Start cutting path id: path3792)
(Change tool to Default tool)

S0
 G0 F1000 Z6.000000
S0	(---Laser 0% OFF)
G00 X 37.9548 Y 51.9953

G01 Z -0.1250 F 100.0000(Penetrate) 
 S250	(---LaserOn 100% ON)
G01 X 41.7493 Y 54.1860 Z -0.1250 F 400.0000
G01 X 42.2668 Y 53.2896 Z -0.1250
G02 X 42.4645 Y 52.8638 Z -0.1250 I -2.2897 J -1.3220
G02 X 42.5467 Y 52.5127 Z -0.1250 I -1.4680 J -0.5289
G02 X 42.5184 Y 52.1877 Z -0.1250 I -0.8416 J -0.0905
G02 X 42.4148 Y 52.0553 Z -0.1250 I -0.2160 J 0.0623
G01 X 39.4672 Y 50.3535 Z -0.1250
G02 X 39.2954 Y 50.3284 Z -0.1250 I -0.1175 J 0.2034
G02 X 38.9997 Y 50.4648 Z -0.1250 I 0.1913 J 0.8032
G02 X 38.7515 Y 50.6983 Z -0.1250 I 0.8267 J 1.1274
G02 X 38.4723 Y 51.0989 Z -0.1250 I 2.2084 J 1.8369
G01 X 37.9548 Y 51.9953 Z -0.1250
S0
 G0 F1000 Z6.000000
S0	(---Laser 0% OFF)

(Change tool to Default tool)

S0
 G0 F1000 Z6.000000
S0	(---Laser 0% OFF)
G00 X 41.7493 Y 54.1860

G01 Z -0.1250 F 100.0000(Penetrate) 
 S250	(---LaserOn 100% ON)
G01 X 37.9548 Y 51.9953 Z -0.1250 F 400.0000
G01 X 38.4723 Y 51.0989 Z -0.1250
G03 X 38.7515 Y 50.6983 Z -0.1250 I 2.4876 J 1.4362
G03 X 38.9997 Y 50.4648 Z -0.1250 I 1.0748 J 0.8940
G03 X 39.2954 Y 50.3284 Z -0.1250 I 0.4870 J 0.6668
G03 X 39.4672 Y 50.3535 Z -0.1250 I 0.0544 J 0.2285
G01 X 42.4148 Y 52.0553 Z -0.1250
G03 X 42.5184 Y 52.1877 Z -0.1250 I -0.1124 J 0.1947
G03 X 42.5467 Y 52.5127 Z -0.1250 I -0.8134 J 0.2345
G03 X 42.4645 Y 52.8638 Z -0.1250 I -1.5502 J -0.1777
G03 X 42.2668 Y 53.2896 Z -0.1250 I -2.4874 J -0.8962
G01 X 41.7493 Y 54.1860 Z -0.1250
S0
 G0 F1000 Z6.000000
S0	(---Laser 0% OFF)

(End cutting path id: path3792)


(Start cutting path id: path3790)
(Change tool to Default tool)

S0
 G0 F1000 Z6.000000
S0	(---Laser 0% OFF)
G00 X 35.4440 Y 57.0044

G01 Z -0.1250 F 100.0000(Penetrate) 
 S250	(---LaserOn 100% ON)
G03 X 35.3518 Y 56.8714 Z -0.1250 I 0.0948 J -0.1642 F 400.0000
G03 X 35.3749 Y 56.5906 Z -0.1250 I 0.5669 J -0.0946
G03 X 35.5023 Y 56.2808 Z -0.1250 I 2.8119 J 0.9745
G03 X 35.7295 Y 55.8495 Z -0.1250 I 5.6859 J 2.7203
G03 X 35.9895 Y 55.4371 Z -0.1250 I 5.4161 J 3.1270
G03 X 36.1909 Y 55.1773 Z -0.1250 I 2.3446 J 1.6094
G03 X 36.4260 Y 55.0121 Z -0.1250 I 0.4483 J 0.3881
G03 X 36.5870 Y 55.0247 Z -0.1250 I 0.0673 J 0.1748
G01 X 39.8041 Y 56.8821 Z -0.1250
G03 X 39.8954 Y 57.0152 Z -0.1250 I -0.0936 J 0.1622
G03 X 39.8699 Y 57.3014 Z -0.1250 I -0.5858 J 0.0920
G03 X 39.7493 Y 57.6083 Z -0.1250 I -2.4790 J -0.7973
G03 X 39.5240 Y 58.0402 Z -0.1250 I -5.1483 J -2.4103
G03 X 39.2627 Y 58.4514 Z -0.1250 I -4.9618 J -2.8647
G03 X 39.0540 Y 58.7147 Z -0.1250 I -2.2351 J -1.5577
G03 X 38.8223 Y 58.8752 Z -0.1250 I -0.4331 J -0.3778
G03 X 38.6611 Y 58.8618 Z -0.1250 I -0.0665 J -0.1776
G01 X 35.4440 Y 57.0044 Z -0.1250
S0
 G0 F1000 Z6.000000
S0	(---Laser 0% OFF)

(Change tool to Default tool)

S0
 G0 F1000 Z6.000000
S0	(---Laser 0% OFF)
G00 X 36.5870 Y 55.0247

G01 Z -0.1250 F 100.0000(Penetrate) 
 S250	(---LaserOn 100% ON)
G02 X 36.4260 Y 55.0121 Z -0.1250 I -0.0936 J 0.1622 F 400.0000
G02 X 36.1909 Y 55.1773 Z -0.1250 I 0.2132 J 0.5533
G02 X 35.9895 Y 55.4371 Z -0.1250 I 2.1432 J 1.8692
G02 X 35.7295 Y 55.8495 Z -0.1250 I 5.1561 J 3.5393
G02 X 35.5023 Y 56.2808 Z -0.1250 I 5.4587 J 3.1516
G02 X 35.3749 Y 56.5906 Z -0.1250 I 2.6845 J 1.2843
G02 X 35.3518 Y 56.8714 Z -0.1250 I 0.5437 J 0.1862
G02 X 35.4440 Y 57.0044 Z -0.1250 I 0.1870 J -0.0312
G01 X 38.6611 Y 58.8618 Z -0.1250
G02 X 38.8223 Y 58.8752 Z -0.1250 I 0.0948 J -0.1642
G02 X 39.0540 Y 58.7147 Z -0.1250 I -0.2015 J -0.5383
G02 X 39.2627 Y 58.4514 Z -0.1250 I -2.0264 J -1.8210
G02 X 39.5240 Y 58.0402 Z -0.1250 I -4.7004 J -3.2759
G02 X 39.7493 Y 57.6083 Z -0.1250 I -4.9230 J -2.8423
G02 X 39.8699 Y 57.3014 Z -0.1250 I -2.3584 J -1.1042
G02 X 39.8954 Y 57.0152 Z -0.1250 I -0.5602 J -0.1942
G02 X 39.8041 Y 56.8821 Z -0.1250 I -0.1850 J 0.0291
G01 X 36.5870 Y 55.0247 Z -0.1250
S0
 G0 F1000 Z6.000000
S0	(---Laser 0% OFF)

(End cutting path id: path3790)


(Start cutting path id: path3788)
(Change tool to Default tool)

S0
 G0 F1000 Z6.000000
S0	(---Laser 0% OFF)
G00 X 33.6294 Y 59.4871

G01 Z -0.1250 F 100.0000(Penetrate) 
 S250	(---LaserOn 100% ON)
G01 X 35.2187 Y 60.4046 Z -0.1250 F 400.0000
G02 X 35.4280 Y 60.4152 Z -0.1250 I 0.1173 J -0.2450
G02 X 35.7740 Y 60.2047 Z -0.1250 I -0.3436 J -0.9543
G03 X 35.8769 Y 60.0593 Z -0.1250 I 3.5620 J 2.4103
G03 X 35.9753 Y 59.9323 Z -0.1250 I 2.8136 J 2.0788
G01 X 36.1954 Y 59.6781 Z -0.1250
G03 X 36.3931 Y 59.4406 Z -0.1250 I 21.5179 J 17.7143
G03 X 36.4987 Y 59.3179 Z -0.1250 I 5.8518 J 4.9272
G03 X 36.6126 Y 59.1946 Z -0.1250 I 1.9715 J 1.7069
G03 X 36.7289 Y 59.0842 Z -0.1250 I 1.6958 J 1.6708
G03 X 37.0600 Y 58.9079 Z -0.1250 I 0.5944 J 0.7173
G03 X 37.2502 Y 58.9306 Z -0.1250 I 0.0687 J 0.2331
G01 X 38.1466 Y 59.4481 Z -0.1250
G03 X 38.2531 Y 59.5843 Z -0.1250 I -0.1156 J 0.2002
G03 X 38.2784 Y 59.9055 Z -0.1250 I -0.7716 J 0.2224
G03 X 38.2014 Y 60.2456 Z -0.1250 I -1.4146 J -0.1418
G03 X 37.9985 Y 60.6824 Z -0.1250 I -2.5521 J -0.9195
G03 X 37.7218 Y 61.0769 Z -0.1250 I -2.3682 J -1.3673
G03 X 37.4625 Y 61.3188 Z -0.1250 I -1.1329 J -0.9543
G03 X 37.1751 Y 61.4529 Z -0.1250 I -0.4688 J -0.6298
G03 X 37.0036 Y 61.4278 Z -0.1250 I -0.0542 J -0.2282
G01 X 36.7341 Y 61.2723 Z -0.1250
G01 X 37.0036 Y 61.4278 Z -0.1250
G02 X 37.1751 Y 61.4529 Z -0.1250 I 0.1173 J -0.2032
G02 X 37.4625 Y 61.3188 Z -0.1250 I -0.1815 J -0.7638
G02 X 37.7218 Y 61.0769 Z -0.1250 I -0.8736 J -1.1962
G02 X 37.9985 Y 60.6824 Z -0.1250 I -2.0914 J -1.7617
G02 X 38.2014 Y 60.2456 Z -0.1250 I -2.3493 J -1.3563
G02 X 38.2784 Y 59.9055 Z -0.1250 I -1.3376 J -0.4819
G02 X 38.2531 Y 59.5843 Z -0.1250 I -0.7969 J -0.0988
G02 X 38.1466 Y 59.4481 Z -0.1250 I -0.2221 J 0.0640
G01 X 37.2502 Y 58.9306 Z -0.1250
G02 X 37.0600 Y 58.9079 Z -0.1250 I -0.1215 J 0.2105
G02 X 36.7289 Y 59.0842 Z -0.1250 I 0.2633 J 0.8936
G02 X 36.6126 Y 59.1946 Z -0.1250 I 1.5794 J 1.7811
G02 X 36.4987 Y 59.3179 Z -0.1250 I 1.8576 J 1.8302
G02 X 36.3931 Y 59.4406 Z -0.1250 I 5.7462 J 5.0499
G02 X 36.1954 Y 59.6781 Z -0.1250 I 21.3202 J 17.9517
G01 X 35.9753 Y 59.9323 Z -0.1250
G02 X 35.8769 Y 60.0593 Z -0.1250 I 2.7151 J 2.2058
G02 X 35.7740 Y 60.2047 Z -0.1250 I 3.4591 J 2.5558
G03 X 35.4280 Y 60.4152 Z -0.1250 I -0.6896 J -0.7437
G03 X 35.2187 Y 60.4046 Z -0.1250 I -0.0920 J -0.2555
G01 X 33.6294 Y 59.4871 Z -0.1250
G01 X 34.7152 Y 57.6063 Z -0.1250
G01 X 33.6294 Y 59.4871 Z -0.1250
S0
 G0 F1000 Z6.000000
S0	(---Laser 0% OFF)

(End cutting path id: path3788)


(Start cutting path id: path919)
(Change tool to Default tool)

S0
 G0 F1000 Z6.000000
S0	(---Laser 0% OFF)
G00 X 18.3685 Y 41.6095

G01 Z -0.1250 F 100.0000(Penetrate) 
 S250	(---LaserOn 100% ON)
G03 X 18.3343 Y 41.4601 Z -0.1250 I 0.1396 J -0.1106 F 400.0000
G03 X 18.4551 Y 41.2224 Z -0.1250 I 0.5255 J 0.1175
G03 X 18.6789 Y 40.9964 Z -0.1250 I 2.1096 J 1.8649
G03 X 19.0353 Y 40.6992 Z -0.1250 I 4.0146 J 4.4513
G03 X 19.4136 Y 40.4305 Z -0.1250 I 3.6374 J 4.7215
G03 X 19.6857 Y 40.2744 Z -0.1250 I 1.4896 J 2.2808
G03 X 19.9539 Y 40.2131 Z -0.1250 I 0.2581 J 0.5120
G03 X 20.0923 Y 40.2815 Z -0.1250 I -0.0032 J 0.1807
G01 X 22.2882 Y 43.0531 Z -0.1250
G03 X 22.3216 Y 43.2024 Z -0.1250 I -0.1379 J 0.1092
G03 X 22.1969 Y 43.4439 Z -0.1250 I -0.5410 J -0.1264
G03 X 21.9801 Y 43.6697 Z -0.1250 I -1.8810 J -1.5887
G03 X 21.6253 Y 43.9682 Z -0.1250 I -3.6535 J -3.9833
G03 X 21.2462 Y 44.2354 Z -0.1250 I -3.3325 J -4.3257
G03 X 20.9663 Y 44.3919 Z -0.1250 I -1.4121 J -2.1960
G03 X 20.7029 Y 44.4503 Z -0.1250 I -0.2484 J -0.4973
G03 X 20.5644 Y 44.3811 Z -0.1250 I 0.0049 J -0.1828
G01 X 18.3685 Y 41.6095 Z -0.1250
S0
 G0 F1000 Z6.000000
S0	(---Laser 0% OFF)

(Change tool to Default tool)

S0
 G0 F1000 Z6.000000
S0	(---Laser 0% OFF)
G00 X 20.0923 Y 40.2815

G01 Z -0.1250 F 100.0000(Penetrate) 
 S250	(---LaserOn 100% ON)
G02 X 19.9539 Y 40.2131 Z -0.1250 I -0.1416 J 0.1122 F 400.0000
G02 X 19.6857 Y 40.2744 Z -0.1250 I -0.0101 J 0.5733
G02 X 19.4136 Y 40.4305 Z -0.1250 I 1.2175 J 2.4370
G02 X 19.0353 Y 40.6992 Z -0.1250 I 3.2591 J 4.9901
G02 X 18.6789 Y 40.9964 Z -0.1250 I 3.6582 J 4.7485
G02 X 18.4551 Y 41.2224 Z -0.1250 I 1.8858 J 2.0909
G02 X 18.3343 Y 41.4601 Z -0.1250 I 0.4047 J 0.3552
G02 X 18.3685 Y 41.6095 Z -0.1250 I 0.1738 J 0.0389
G01 X 20.5644 Y 44.3811 Z -0.1250
G02 X 20.7029 Y 44.4503 Z -0.1250 I 0.1434 J -0.1136
G02 X 20.9663 Y 44.3919 Z -0.1250 I 0.0150 J -0.5557
G02 X 21.2462 Y 44.2354 Z -0.1250 I -1.1322 J -2.3526
G02 X 21.6253 Y 43.9682 Z -0.1250 I -2.9534 J -4.5928
G02 X 21.9801 Y 43.6697 Z -0.1250 I -3.2987 J -4.2818
G02 X 22.1969 Y 43.4439 Z -0.1250 I -1.6643 J -1.8145
G02 X 22.3216 Y 43.2024 Z -0.1250 I -0.4163 J -0.3680
G02 X 22.2882 Y 43.0531 Z -0.1250 I -0.1713 J -0.0400
G01 X 20.0923 Y 40.2815 Z -0.1250
S0
 G0 F1000 Z6.000000
S0	(---Laser 0% OFF)

(End cutting path id: path919)


(Start cutting path id: path921)
(Change tool to Default tool)

S0
 G0 F1000 Z6.000000
S0	(---Laser 0% OFF)
G00 X 22.3912 Y 38.1138

G01 Z -0.1250 F 100.0000(Penetrate) 
 S250	(---LaserOn 100% ON)
G01 X 24.9812 Y 41.3828 Z -0.1250 F 400.0000
G01 X 23.5308 Y 37.2358 Z -0.1250
G01 X 27.2556 Y 39.6306 Z -0.1250
G01 X 24.6656 Y 36.3616 Z -0.1250
G01 X 27.2556 Y 39.6306 Z -0.1250
G01 X 23.5308 Y 37.2358 Z -0.1250
G01 X 24.9812 Y 41.3828 Z -0.1250
G01 X 22.3912 Y 38.1138 Z -0.1250
S0
 G0 F1000 Z6.000000
S0	(---Laser 0% OFF)

(End cutting path id: path921)


(Start cutting path id: path917)
(Change tool to Default tool)

S0
 G0 F1000 Z6.000000
S0	(---Laser 0% OFF)
G00 X 15.8679 Y 43.1392

G01 Z -0.1250 F 100.0000(Penetrate) 
 S250	(---LaserOn 100% ON)
G01 X 16.9527 Y 44.5084 Z -0.1250 F 400.0000
G02 X 17.1348 Y 44.5923 Z -0.1250 I 0.1924 J -0.1781
G02 X 17.5179 Y 44.5308 Z -0.1250 I 0.0388 J -0.9816
G03 X 17.6613 Y 44.4400 Z -0.1250 I 2.2671 J 3.4211
G03 X 17.7942 Y 44.3637 Z -0.1250 I 1.7314 J 2.8631
G01 X 18.0808 Y 44.2193 Z -0.1250
G03 X 18.3414 Y 44.0815 Z -0.1250 I 12.6062 J 23.5400
G03 X 18.4791 Y 44.0116 Z -0.1250 I 3.3913 J 6.5042
G03 X 18.6244 Y 43.9441 Z -0.1250 I 1.1269 J 2.2353
G03 X 18.7673 Y 43.8887 Z -0.1250 I 0.8989 J 2.1088
G03 X 19.1250 Y 43.8519 Z -0.1250 I 0.2695 J 0.8625
G03 X 19.2857 Y 43.9395 Z -0.1250 I -0.0228 J 0.2330
G01 X 19.8975 Y 44.7118 Z -0.1250
G03 X 19.9434 Y 44.8693 Z -0.1250 I -0.1705 J 0.1351
G03 X 19.8512 Y 45.1594 Z -0.1250 I -0.7456 J -0.0771
G03 X 19.6615 Y 45.4296 Z -0.1250 I -1.1798 J -0.6269
G03 X 19.3246 Y 45.7406 Z -0.1250 I -1.9089 J -1.7296
G03 X 18.9380 Y 45.9875 Z -0.1250 I -1.5927 J -2.0673
G03 X 18.6206 Y 46.1075 Z -0.1250 I -0.6600 J -1.2664
G03 X 18.3169 Y 46.1228 Z -0.1250 I -0.1895 J -0.7382
G03 X 18.1737 Y 46.0398 Z -0.1250 I 0.0338 J -0.2233
G01 X 17.9898 Y 45.8076 Z -0.1250
G01 X 18.1737 Y 46.0398 Z -0.1250
G02 X 18.3169 Y 46.1228 Z -0.1250 I 0.1770 J -0.1403
G02 X 18.6206 Y 46.1075 Z -0.1250 I 0.1142 J -0.7536
G02 X 18.9380 Y 45.9875 Z -0.1250 I -0.3425 J -1.3864
G02 X 19.3246 Y 45.7406 Z -0.1250 I -1.2061 J -2.3143
G02 X 19.6615 Y 45.4296 Z -0.1250 I -1.5720 J -2.0406
G02 X 19.8512 Y 45.1594 Z -0.1250 I -0.9901 J -0.8971
G02 X 19.9434 Y 44.8693 Z -0.1250 I -0.6534 J -0.3673
G02 X 19.8975 Y 44.7118 Z -0.1250 I -0.2164 J -0.0224
G01 X 19.2857 Y 43.9395 Z -0.1250
G02 X 19.1250 Y 43.8519 Z -0.1250 I -0.1835 J 0.1454
G02 X 18.7673 Y 43.8887 Z -0.1250 I -0.0882 J 0.8993
G02 X 18.6244 Y 43.9441 Z -0.1250 I 0.7560 J 2.1641
G02 X 18.4791 Y 44.0116 Z -0.1250 I 0.9816 J 2.3028
G02 X 18.3414 Y 44.0815 Z -0.1250 I 3.2536 J 6.5742
G02 X 18.0808 Y 44.2193 Z -0.1250 I 12.3456 J 23.6777
G01 X 17.7942 Y 44.3637 Z -0.1250
G02 X 17.6613 Y 44.4400 Z -0.1250 I 1.6007 J 2.9430
G02 X 17.5179 Y 44.5308 Z -0.1250 I 2.1265 J 3.5164
G03 X 17.1348 Y 44.5923 Z -0.1250 I -0.3443 J -0.9200
G03 X 16.9527 Y 44.5084 Z -0.1250 I 0.0104 J -0.2620
G01 X 15.8679 Y 43.1392 Z -0.1250
G01 X 17.5055 Y 41.8777 Z -0.1250
G01 X 15.8679 Y 43.1392 Z -0.1250
S0
 G0 F1000 Z6.000000
S0	(---Laser 0% OFF)

(End cutting path id: path917)


(Start cutting path id: path950)
(Change tool to Default tool)

S0
 G0 F1000 Z6.000000
S0	(---Laser 0% OFF)
G00 X 92.4602 Y 10.9890

G01 Z -0.1250 F 100.0000(Penetrate) 
 S250	(---LaserOn 100% ON)
G01 X 91.3998 Y 12.3657 Z -0.1250 F 400.0000
G02 X 91.3626 Y 12.5616 Z -0.1250 I 0.2183 J 0.1429
G02 X 91.5142 Y 12.9166 Z -0.1250 I 0.9570 J -0.1988
G03 X 91.6364 Y 13.0332 Z -0.1250 I -2.7569 J 3.0115
G03 X 91.7420 Y 13.1431 Z -0.1250 I -2.3473 J 2.3602
G01 X 91.9504 Y 13.3850 Z -0.1250
G03 X 92.1460 Y 13.6034 Z -0.1250 I -19.6907 J 17.8329
G03 X 92.2467 Y 13.7195 Z -0.1250 I -5.4628 J 4.8387
G03 X 92.3468 Y 13.8435 Z -0.1250 I -1.8867 J 1.6257
G03 X 92.4346 Y 13.9681 Z -0.1250 I -1.8195 J 1.3752
G03 X 92.5562 Y 14.3045 Z -0.1250 I -0.7678 J 0.4677
G03 X 92.5103 Y 14.4807 Z -0.1250 I -0.2305 J 0.0340
G01 X 91.9122 Y 15.2572 Z -0.1250
G03 X 91.7713 Y 15.3394 Z -0.1250 I -0.1714 J -0.1320
G03 X 91.4690 Y 15.3202 Z -0.1250 I -0.1050 J -0.7380
G03 X 91.1626 Y 15.2021 Z -0.1250 I 0.3212 J -1.2894
G03 X 90.7814 Y 14.9518 Z -0.1250 I 1.2102 J -2.2585
G03 X 90.4501 Y 14.6380 Z -0.1250 I 1.6124 J -2.0347
G03 X 90.2579 Y 14.3605 Z -0.1250 I 1.0638 J -0.9419
G03 X 90.1700 Y 14.0710 Z -0.1250 I 0.6671 J -0.3607
G03 X 90.2157 Y 13.9128 Z -0.1250 I 0.2237 J -0.0211
G01 X 90.3955 Y 13.6794 Z -0.1250
G01 X 90.2157 Y 13.9128 Z -0.1250
G02 X 90.1700 Y 14.0710 Z -0.1250 I 0.1780 J 0.1371
G02 X 90.2579 Y 14.3605 Z -0.1250 I 0.7550 J -0.0712
G02 X 90.4501 Y 14.6380 Z -0.1250 I 1.2560 J -0.6643
G02 X 90.7814 Y 14.9518 Z -0.1250 I 1.9437 J -1.7210
G02 X 91.1626 Y 15.2021 Z -0.1250 I 1.5914 J -2.0082
G02 X 91.4690 Y 15.3202 Z -0.1250 I 0.6276 J -1.1713
G02 X 91.7713 Y 15.3394 Z -0.1250 I 0.1973 J -0.7189
G02 X 91.9122 Y 15.2572 Z -0.1250 I -0.0305 J -0.2142
G01 X 92.5103 Y 14.4807 Z -0.1250
G02 X 92.5562 Y 14.3045 Z -0.1250 I -0.1846 J -0.1422
G02 X 92.4346 Y 13.9681 Z -0.1250 I -0.8894 J 0.1314
G02 X 92.3468 Y 13.8435 Z -0.1250 I -1.9073 J 1.2505
G02 X 92.2467 Y 13.7195 Z -0.1250 I -1.9868 J 1.5017
G02 X 92.1460 Y 13.6034 Z -0.1250 I -5.5635 J 4.7226
G02 X 91.9504 Y 13.3850 Z -0.1250 I -19.8863 J 17.6145
G01 X 91.7420 Y 13.1431 Z -0.1250
G02 X 91.6364 Y 13.0332 Z -0.1250 I -2.4558 J 2.2532
G02 X 91.5142 Y 12.9166 Z -0.1250 I -2.8828 J 2.8987
G03 X 91.3626 Y 12.5616 Z -0.1250 I 0.8054 J -0.5538
G03 X 91.3998 Y 12.3657 Z -0.1250 I 0.2554 J -0.0531
G01 X 92.4602 Y 10.9890 Z -0.1250
G01 X 94.0719 Y 12.2662 Z -0.1250
G01 X 92.4602 Y 10.9890 Z -0.1250
S0
 G0 F1000 Z6.000000
S0	(---Laser 0% OFF)

(End cutting path id: path950)


(Start cutting path id: path952)
(Change tool to Default tool)

S0
 G0 F1000 Z6.000000
S0	(---Laser 0% OFF)
G00 X 94.5384 Y 13.0347

G01 Z -0.1250 F 100.0000(Penetrate) 
 S250	(---LaserOn 100% ON)
G03 X 94.6744 Y 12.9657 Z -0.1250 I 0.1403 J 0.1081 F 400.0000
G03 X 94.9328 Y 13.0251 Z -0.1250 I 0.0131 J 0.5354
G03 X 95.2048 Y 13.1867 Z -0.1250 I -1.2925 J 2.4848
G03 X 95.5774 Y 13.4592 Z -0.1250 I -3.3307 J 4.9459
G03 X 95.9278 Y 13.7597 Z -0.1250 I -3.6824 J 4.6469
G03 X 96.1440 Y 13.9848 Z -0.1250 I -1.8434 J 1.9867
G03 X 96.2677 Y 14.2290 Z -0.1250 I -0.4322 J 0.3724
G03 X 96.2349 Y 14.3791 Z -0.1250 I -0.1752 J 0.0404
G01 X 94.0884 Y 17.1658 Z -0.1250
G03 X 93.9524 Y 17.2340 Z -0.1250 I -0.1386 J -0.1068
G03 X 93.6893 Y 17.1717 Z -0.1250 I -0.0081 J -0.5525
G03 X 93.4192 Y 17.0168 Z -0.1250 I 1.0808 J -2.1977
G03 X 93.0457 Y 16.7461 Z -0.1250 I 2.9658 J -4.4848
G03 X 92.6966 Y 16.4444 Z -0.1250 I 3.3737 J -4.2574
G03 X 92.4781 Y 16.2119 Z -0.1250 I 1.7801 J -1.8915
G03 X 92.3584 Y 15.9717 Z -0.1250 I 0.4203 J -0.3595
G03 X 92.3919 Y 15.8214 Z -0.1250 I 0.1777 J -0.0392
G01 X 94.5384 Y 13.0347 Z -0.1250
S0
 G0 F1000 Z6.000000
S0	(---Laser 0% OFF)

(Change tool to Default tool)

S0
 G0 F1000 Z6.000000
S0	(---Laser 0% OFF)
G00 X 96.2349 Y 14.3791

G01 Z -0.1250 F 100.0000(Penetrate) 
 S250	(---LaserOn 100% ON)
G02 X 96.2677 Y 14.2290 Z -0.1250 I -0.1424 J -0.1097 F 400.0000
G02 X 96.1440 Y 13.9848 Z -0.1250 I -0.5559 J 0.1282
G02 X 95.9278 Y 13.7597 Z -0.1250 I -2.0595 J 1.7616
G02 X 95.5774 Y 13.4592 Z -0.1250 I -4.0327 J 4.3464
G02 X 95.2048 Y 13.1867 Z -0.1250 I -3.7033 J 4.6734
G02 X 94.9328 Y 13.0251 Z -0.1250 I -1.5645 J 2.3231
G02 X 94.6744 Y 12.9657 Z -0.1250 I -0.2454 J 0.4760
G02 X 94.5384 Y 13.0347 Z -0.1250 I 0.0043 J 0.1771
G01 X 92.3919 Y 15.8214 Z -0.1250
G02 X 92.3584 Y 15.9717 Z -0.1250 I 0.1442 J 0.1110
G02 X 92.4781 Y 16.2119 Z -0.1250 I 0.5401 J -0.1193
G02 X 92.6966 Y 16.4444 Z -0.1250 I 1.9986 J -1.6590
G02 X 93.0457 Y 16.7461 Z -0.1250 I 3.7228 J -3.9557
G02 X 93.4192 Y 17.0168 Z -0.1250 I 3.3393 J -4.2140
G02 X 93.6893 Y 17.1717 Z -0.1250 I 1.3509 J -2.0428
G02 X 93.9524 Y 17.2340 Z -0.1250 I 0.2550 J -0.4902
G02 X 94.0884 Y 17.1658 Z -0.1250 I -0.0026 J -0.1749
G01 X 96.2349 Y 14.3791 Z -0.1250
S0
 G0 F1000 Z6.000000
S0	(---Laser 0% OFF)

(End cutting path id: path952)


(Start cutting path id: path954)
(Change tool to Default tool)

S0
 G0 F1000 Z6.000000
S0	(---Laser 0% OFF)
G00 X 98.8803 Y 16.0765

G01 Z -0.1250 F 100.0000(Penetrate) 
 S250	(---LaserOn 100% ON)
G01 X 96.3486 Y 19.3634 Z -0.1250 F 400.0000
G01 X 100.0019 Y 16.9653 Z -0.1250
G01 X 98.5871 Y 21.1372 Z -0.1250
G01 X 101.1188 Y 17.8504 Z -0.1250
G01 X 98.5871 Y 21.1372 Z -0.1250
G01 X 100.0019 Y 16.9653 Z -0.1250
G01 X 96.3486 Y 19.3634 Z -0.1250
G01 X 98.8803 Y 16.0765 Z -0.1250
S0
 G0 F1000 Z6.000000
S0	(---Laser 0% OFF)

(End cutting path id: path954)


(Start cutting path id: path956)
(Change tool to Default tool)

S0
 G0 F1000 Z6.000000
S0	(---Laser 0% OFF)
G00 X 101.6168 Y 18.8357

G01 Z -0.1250 F 100.0000(Penetrate) 
 S250	(---LaserOn 100% ON)
G03 X 101.7580 Y 18.7515 Z -0.1250 I 0.1769 J 0.1362 F 400.0000
G03 X 102.0590 Y 18.7641 Z -0.1250 I 0.1197 J 0.7401
G03 X 102.3670 Y 18.8887 Z -0.1250 I -0.3781 J 1.3780
G03 X 102.7476 Y 19.1411 Z -0.1250 I -1.2970 J 2.3695
G03 X 103.0443 Y 19.4288 Z -0.1250 I -1.2850 J 1.6216
G03 X 103.2157 Y 19.6961 Z -0.1250 I -0.9333 J 0.7870
G03 X 103.2909 Y 19.9828 Z -0.1250 I -0.7361 J 0.3464
G03 X 103.2474 Y 20.1278 Z -0.1250 I -0.2115 J 0.0156
G01 X 102.7080 Y 20.8280 Z -0.1250
G03 X 102.5790 Y 20.8992 Z -0.1250 I -0.1464 J -0.1128
G03 X 102.2497 Y 20.8714 Z -0.1250 I -0.0875 J -0.9257
G03 X 101.9184 Y 20.7483 Z -0.1250 I 0.4530 J -1.7274
G03 X 101.6432 Y 20.5749 Z -0.1250 I 0.6644 J -1.3591
G03 X 101.3119 Y 20.2612 Z -0.1250 I 1.6124 J -2.0347
G03 X 101.1197 Y 19.9836 Z -0.1250 I 1.0638 J -0.9419
G03 X 101.0318 Y 19.6941 Z -0.1250 I 0.6671 J -0.3607
G03 X 101.0775 Y 19.5359 Z -0.1250 I 0.2237 J -0.0211
G01 X 101.6168 Y 18.8357 Z -0.1250
S0
 G0 F1000 Z6.000000
S0	(---Laser 0% OFF)

(Change tool to Default tool)

S0
 G0 F1000 Z6.000000
S0	(---Laser 0% OFF)
G00 X 103.2474 Y 20.1278

G01 Z -0.1250 F 100.0000(Penetrate) 
 S250	(---LaserOn 100% ON)
G02 X 103.2909 Y 19.9828 Z -0.1250 I -0.1680 J -0.1294 F 400.0000
G02 X 103.2157 Y 19.6961 Z -0.1250 I -0.8114 J 0.0596
G02 X 103.0443 Y 19.4288 Z -0.1250 I -1.1046 J 0.5198
G02 X 102.7476 Y 19.1411 Z -0.1250 I -1.5816 J 1.3338
G02 X 102.3670 Y 18.8887 Z -0.1250 I -1.6777 J 2.1171
G02 X 102.0590 Y 18.7641 Z -0.1250 I -0.6861 J 1.2534
G02 X 101.7580 Y 18.7515 Z -0.1250 I -0.1812 J 0.7274
G02 X 101.6168 Y 18.8357 Z -0.1250 I 0.0357 J 0.2204
G01 X 101.0775 Y 19.5359 Z -0.1250
G02 X 101.0318 Y 19.6941 Z -0.1250 I 0.1780 J 0.1371
G02 X 101.1197 Y 19.9836 Z -0.1250 I 0.7550 J -0.0712
G02 X 101.3119 Y 20.2612 Z -0.1250 I 1.2560 J -0.6643
G02 X 101.6432 Y 20.5749 Z -0.1250 I 1.9437 J -1.7210
G02 X 101.9184 Y 20.7483 Z -0.1250 I 0.9395 J -1.1856
G02 X 102.2497 Y 20.8714 Z -0.1250 I 0.7843 J -1.6044
G02 X 102.5790 Y 20.8992 Z -0.1250 I 0.2418 J -0.8979
G02 X 102.7080 Y 20.8280 Z -0.1250 I -0.0174 J -0.1840
G01 X 101.9412 Y 21.8236 Z -0.1250
G03 X 101.8125 Y 21.9042 Z -0.1250 I -0.1731 J -0.1333
G03 X 101.5346 Y 21.9080 Z -0.1250 I -0.1489 J -0.7169
G03 X 101.2579 Y 21.8161 Z -0.1250 I 0.1595 J -0.9428
G03 X 100.8763 Y 21.5705 Z -0.1250 I 1.0563 J -2.0601
G03 X 100.5450 Y 21.2567 Z -0.1250 I 1.6124 J -2.0347
G03 X 100.3528 Y 20.9792 Z -0.1250 I 1.0638 J -0.9419
G03 X 100.2649 Y 20.6897 Z -0.1250 I 0.6671 J -0.3607
G03 X 100.3106 Y 20.5315 Z -0.1250 I 0.2237 J -0.0211
G01 X 100.4904 Y 20.2981 Z -0.1250
G01 X 100.3106 Y 20.5315 Z -0.1250
G02 X 100.2649 Y 20.6897 Z -0.1250 I 0.1780 J 0.1371
G02 X 100.3528 Y 20.9792 Z -0.1250 I 0.7550 J -0.0712
G02 X 100.5450 Y 21.2567 Z -0.1250 I 1.2560 J -0.6643
G02 X 100.8763 Y 21.5705 Z -0.1250 I 1.9437 J -1.7210
G02 X 101.2579 Y 21.8161 Z -0.1250 I 1.4379 J -1.8145
G02 X 101.5346 Y 21.9080 Z -0.1250 I 0.4363 J -0.8509
G02 X 101.8125 Y 21.9042 Z -0.1250 I 0.1290 J -0.7208
G02 X 101.9412 Y 21.8236 Z -0.1250 I -0.0444 J -0.2139
G01 X 103.5299 Y 19.7610 Z -0.1250
G01 X 103.2474 Y 20.1278 Z -0.1250
S0
 G0 F1000 Z6.000000
S0	(---Laser 0% OFF)

(End cutting path id: path956)


(Start cutting path id: path958)
(Change tool to Default tool)

S0
 G0 F1000 Z6.000000
S0	(---Laser 0% OFF)
G00 X 104.1636 Y 20.2631

G01 Z -0.1250 F 100.0000(Penetrate) 
 S250	(---LaserOn 100% ON)
G01 X 102.5749 Y 22.3258 Z -0.1250 F 400.0000
G01 X 102.2923 Y 22.6926 Z -0.1250
G01 X 102.5749 Y 22.3258 Z -0.1250
G02 X 102.5309 Y 22.4751 Z -0.1250 I 0.1705 J 0.1313
G02 X 102.6113 Y 22.7612 Z -0.1250 I 0.7826 J -0.0655
G02 X 102.7893 Y 23.0305 Z -0.1250 I 1.0727 J -0.5154
G02 X 103.1406 Y 23.3648 Z -0.1250 I 2.0201 J -1.7716
G02 X 103.5222 Y 23.6104 Z -0.1250 I 1.4379 J -1.8145
G02 X 103.7989 Y 23.7023 Z -0.1250 I 0.4363 J -0.8509
G02 X 104.0768 Y 23.6985 Z -0.1250 I 0.1290 J -0.7208
G02 X 104.2054 Y 23.6179 Z -0.1250 I -0.0444 J -0.2139
G01 X 104.2054 Y 23.6179 Z -0.1250
G03 X 104.0768 Y 23.6985 Z -0.1250 I -0.1731 J -0.1333
G03 X 103.7989 Y 23.7023 Z -0.1250 I -0.1489 J -0.7169
G03 X 103.5222 Y 23.6104 Z -0.1250 I 0.1595 J -0.9428
G03 X 103.1406 Y 23.3648 Z -0.1250 I 1.0563 J -2.0601
G03 X 102.7893 Y 23.0305 Z -0.1250 I 1.6688 J -2.1059
G03 X 102.6113 Y 22.7612 Z -0.1250 I 0.8948 J -0.7847
G03 X 102.5309 Y 22.4751 Z -0.1250 I 0.7022 J -0.3517
G03 X 102.5749 Y 22.3258 Z -0.1250 I 0.2145 J -0.0180
G01 X 104.1636 Y 20.2631 Z -0.1250
S0
 G0 F1000 Z6.000000
S0	(---Laser 0% OFF)

(End cutting path id: path958)


(Start cutting path id: path960)
(Change tool to Default tool)

S0
 G0 F1000 Z6.000000
S0	(---Laser 0% OFF)
G00 X 107.7760 Y 23.7163

G01 Z -0.1250 F 100.0000(Penetrate) 
 S250	(---LaserOn 100% ON)
G02 X 107.8212 Y 23.5710 Z -0.1250 I -0.1737 J -0.1338 F 400.0000
G02 X 107.7536 Y 23.2921 Z -0.1250 I -0.7786 J 0.0410
G02 X 107.5901 Y 23.0331 Z -0.1250 I -0.9971 J 0.4486
G02 X 107.2762 Y 22.7296 Z -0.1250 I -1.6937 J 1.4377
G02 X 106.8955 Y 22.4772 Z -0.1250 I -1.6777 J 2.1171
G02 X 106.5875 Y 22.3527 Z -0.1250 I -0.6861 J 1.2534
G02 X 106.2866 Y 22.3401 Z -0.1250 I -0.1812 J 0.7274
G02 X 106.1454 Y 22.4242 Z -0.1250 I 0.0357 J 0.2204
G01 X 104.8391 Y 24.1201 Z -0.1250
G02 X 104.7935 Y 24.2783 Z -0.1250 I 0.1780 J 0.1371
G02 X 104.8814 Y 24.5677 Z -0.1250 I 0.7550 J -0.0712
G02 X 105.0735 Y 24.8453 Z -0.1250 I 1.2560 J -0.6643
G02 X 105.4049 Y 25.1591 Z -0.1250 I 1.9437 J -1.7210
G02 X 105.7864 Y 25.4047 Z -0.1250 I 1.4379 J -1.8145
G02 X 106.0632 Y 25.4966 Z -0.1250 I 0.4363 J -0.8509
G02 X 106.3411 Y 25.4928 Z -0.1250 I 0.1290 J -0.7208
G02 X 106.4697 Y 25.4122 Z -0.1250 I -0.0444 J -0.2139
G01 X 106.6495 Y 25.1788 Z -0.1250
G01 X 106.4697 Y 25.4122 Z -0.1250
G03 X 106.3411 Y 25.4928 Z -0.1250 I -0.1731 J -0.1333
G03 X 106.0632 Y 25.4966 Z -0.1250 I -0.1489 J -0.7169
G03 X 105.7864 Y 25.4047 Z -0.1250 I 0.1595 J -0.9428
G03 X 105.4049 Y 25.1591 Z -0.1250 I 1.0563 J -2.0601
G03 X 105.0735 Y 24.8453 Z -0.1250 I 1.6124 J -2.0347
G03 X 104.8814 Y 24.5677 Z -0.1250 I 1.0638 J -0.9419
G03 X 104.7935 Y 24.2783 Z -0.1250 I 0.6671 J -0.3607
G03 X 104.8391 Y 24.1201 Z -0.1250 I 0.2237 J -0.0211
G01 X 106.1454 Y 22.4242 Z -0.1250
G03 X 106.2866 Y 22.3401 Z -0.1250 I 0.1769 J 0.1362
G03 X 106.5875 Y 22.3527 Z -0.1250 I 0.1197 J 0.7401
G03 X 106.8955 Y 22.4772 Z -0.1250 I -0.3781 J 1.3780
G03 X 107.2762 Y 22.7296 Z -0.1250 I -1.2970 J 2.3695
G03 X 107.5901 Y 23.0331 Z -0.1250 I -1.3798 J 1.7412
G03 X 107.7536 Y 23.2921 Z -0.1250 I -0.8335 J 0.7076
G03 X 107.8212 Y 23.5710 Z -0.1250 I -0.7110 J 0.3199
G03 X 107.7760 Y 23.7163 Z -0.1250 I -0.2190 J 0.0115
G01 X 107.5962 Y 23.9497 Z -0.1250
G01 X 107.7760 Y 23.7163 Z -0.1250
S0
 G0 F1000 Z6.000000
S0	(---Laser 0% OFF)

(End cutting path id: path960)


(Start cutting path id: path962)
(Change tool to Default tool)

S0
 G0 F1000 Z6.000000
S0	(---Laser 0% OFF)
G00 X 108.6922 Y 23.8517

G01 Z -0.1250 F 100.0000(Penetrate) 
 S250	(---LaserOn 100% ON)
G01 X 107.1034 Y 25.9143 Z -0.1250 F 400.0000
G01 X 106.1604 Y 27.1386 Z -0.1250
G01 X 107.1034 Y 25.9143 Z -0.1250
G02 X 107.0595 Y 26.0636 Z -0.1250 I 0.1705 J 0.1313
G02 X 107.1399 Y 26.3498 Z -0.1250 I 0.7826 J -0.0655
G02 X 107.3178 Y 26.6191 Z -0.1250 I 1.0727 J -0.5154
G02 X 107.6692 Y 26.9533 Z -0.1250 I 2.0201 J -1.7716
G02 X 108.0507 Y 27.1989 Z -0.1250 I 1.4379 J -1.8145
G02 X 108.3274 Y 27.2909 Z -0.1250 I 0.4363 J -0.8509
G02 X 108.6053 Y 27.2870 Z -0.1250 I 0.1290 J -0.7208
G02 X 108.7340 Y 27.2064 Z -0.1250 I -0.0444 J -0.2139
G01 X 110.3227 Y 25.1438 Z -0.1250
G01 X 108.7340 Y 27.2064 Z -0.1250
G03 X 108.6053 Y 27.2870 Z -0.1250 I -0.1731 J -0.1333
G03 X 108.3274 Y 27.2909 Z -0.1250 I -0.1489 J -0.7169
G03 X 108.0507 Y 27.1989 Z -0.1250 I 0.1595 J -0.9428
G03 X 107.6692 Y 26.9533 Z -0.1250 I 1.0563 J -2.0601
G03 X 107.3178 Y 26.6191 Z -0.1250 I 1.6688 J -2.1059
G03 X 107.1399 Y 26.3498 Z -0.1250 I 0.8948 J -0.7847
G03 X 107.0595 Y 26.0636 Z -0.1250 I 0.7022 J -0.3517
G03 X 107.1034 Y 25.9143 Z -0.1250 I 0.2145 J -0.0180
G01 X 108.6922 Y 23.8517 Z -0.1250
S0
 G0 F1000 Z6.000000
S0	(---Laser 0% OFF)

(End cutting path id: path962)


(Start cutting path id: path964)
(Change tool to Default tool)

S0
 G0 F1000 Z6.000000
S0	(---Laser 0% OFF)
G00 X 112.3810 Y 27.7414

G01 Z -0.1250 F 100.0000(Penetrate) 
 S250	(---LaserOn 100% ON)
G01 X 112.5608 Y 27.5080 Z -0.1250 F 400.0000
G03 X 112.7020 Y 27.4239 Z -0.1250 I 0.1769 J 0.1362
G03 X 113.0030 Y 27.4365 Z -0.1250 I 0.1197 J 0.7401
G03 X 113.3109 Y 27.5610 Z -0.1250 I -0.3781 J 1.3780
G03 X 113.6916 Y 27.8134 Z -0.1250 I -1.2970 J 2.3695
G03 X 114.0242 Y 28.1264 Z -0.1250 I -1.6724 J 2.1105
G03 X 114.2141 Y 28.3962 Z -0.1250 I -1.0467 J 0.9384
G03 X 114.3031 Y 28.6939 Z -0.1250 I -0.7051 J 0.3729
G03 X 114.2574 Y 28.8524 Z -0.1250 I -0.2240 J 0.0212
G01 X 113.5183 Y 29.8316 Z -0.1250
G03 X 113.1433 Y 29.9962 Z -0.1250 I -0.3418 J -0.2693
G03 X 112.5220 Y 29.7556 Z -0.1250 I 0.0877 J -1.1490
G02 X 111.8629 Y 29.2664 Z -0.1250 I -10.3989 J 13.3216
G02 X 111.7302 Y 29.1972 Z -0.1250 I -0.3238 J 0.4591
G02 X 111.3797 Y 29.1591 Z -0.1250 I -0.2667 J 0.8234
G02 X 111.2215 Y 29.2467 Z -0.1250 I 0.0220 J 0.2263
G01 X 110.5941 Y 30.0613 Z -0.1250
G02 X 110.5484 Y 30.2195 Z -0.1250 I 0.1780 J 0.1371
G02 X 110.6363 Y 30.5090 Z -0.1250 I 0.7550 J -0.0712
G02 X 110.8285 Y 30.7865 Z -0.1250 I 1.2560 J -0.6643
G02 X 111.1599 Y 31.1003 Z -0.1250 I 1.9437 J -1.7210
G02 X 111.5411 Y 31.3506 Z -0.1250 I 1.5914 J -2.0083
G02 X 111.8475 Y 31.4687 Z -0.1250 I 0.6276 J -1.1713
G02 X 112.1497 Y 31.4879 Z -0.1250 I 0.1973 J -0.7189
G02 X 112.2907 Y 31.4057 Z -0.1250 I -0.0305 J -0.2142
G01 X 112.4705 Y 31.1723 Z -0.1250
G01 X 112.2907 Y 31.4057 Z -0.1250
G03 X 112.1497 Y 31.4879 Z -0.1250 I -0.1714 J -0.1320
G03 X 111.8475 Y 31.4687 Z -0.1250 I -0.1050 J -0.7380
G03 X 111.5411 Y 31.3506 Z -0.1250 I 0.3212 J -1.2894
G03 X 111.1599 Y 31.1003 Z -0.1250 I 1.2102 J -2.2586
G03 X 110.8285 Y 30.7865 Z -0.1250 I 1.6124 J -2.0347
G03 X 110.6363 Y 30.5090 Z -0.1250 I 1.0638 J -0.9419
G03 X 110.5484 Y 30.2195 Z -0.1250 I 0.6671 J -0.3607
G03 X 110.5941 Y 30.0613 Z -0.1250 I 0.2237 J -0.0211
G01 X 111.2215 Y 29.2467 Z -0.1250
G03 X 111.3797 Y 29.1591 Z -0.1250 I 0.1801 J 0.1388
G03 X 111.7302 Y 29.1972 Z -0.1250 I 0.0839 J 0.8614
G03 X 111.8629 Y 29.2664 Z -0.1250 I -0.1910 J 0.5282
G03 X 112.5220 Y 29.7556 Z -0.1250 I -9.7382 J 13.8085
G02 X 113.1433 Y 29.9962 Z -0.1250 I 0.7091 J -0.9083
G02 X 113.5183 Y 29.8316 Z -0.1250 I 0.0331 J -0.4338
G01 X 114.2574 Y 28.8524 Z -0.1250
G02 X 114.3031 Y 28.6939 Z -0.1250 I -0.1782 J -0.1373
G02 X 114.2141 Y 28.3962 Z -0.1250 I -0.7941 J 0.0753
G02 X 114.0242 Y 28.1264 Z -0.1250 I -1.2366 J 0.6685
G02 X 113.6916 Y 27.8134 Z -0.1250 I -2.0050 J 1.7975
