(======HEADER=====================)
(G00 – Rapid Positioning------------Laser OFF)
(G01 – Linear interpolation------------ )
(G02 – Circular interpolation CCW------------ )
(G02 – Circular interpolation CW------------ )
(Gcode G91 & Gcode G90: CNC Absolute and Incremental Programming)
(S00 - S1000 Spindle speed)
(M03 – Spindle on in a clockwise)
(======POST PROCESSING===========)
(REPLACE (CUT); (CUT) \r\n S1000	(---Laser 100% ON))
(REPLACE F0.166667 ; F1000)
(REPLACE F8.333333 ; F1000)
(REPLACE F1000 ; F1000)
(REPLACE Z-5.000000 ;  )
(REPLACE Z-5.000000 ; \r\n S1000	(---Laser 100% ON))
(======START=====================)
(======CODE MANDATORY============)
M3 S0  (M03 – Spindle on in a clockwise)
(================================)
S0 		(--Laser 000% OFF)
G0 F1000 X0.000000 Y0.000000
S1000	(---Laser 100% ON)
S0 		(--Laser 000% OFF)
(=BEGIN Engrave=========================)

(GCode using R  )

(Engrave)
S1000	(---Laser 100% ON)
S0 		(--Laser 000% OFF)
G0 F1000 Z6.000000
S0	(---Laser 0% OFF)
G0 F1000 Z6.000000
S0	(---Laser 0% OFF)
G0 F1000 X55.887207 Y17.778364
G0 F1000 Z4.000000
S1000	(---Laser 100% ON)
G1 F1000 X55.887207 Y17.778364 Z-5.000000
G1 F1000 X25.461165 Y17.775983 Z-5.000000
G3 F1000 I-12.000000 J-0.000939 K0.000000 X1.461166 Y17.778444 Z-5.000000
G1 F1000 X1.461166 Y12.366822 Z-5.000000
G3 F1000 I1.990648 J0.000000 K0.000000 X3.451814 Y10.376174 Z-5.000000
G1 F1000 X57.227613 Y10.376174 Z-5.000000
G2 F1000 I0.000000 J-6.141428 K0.000000 X61.943340 Y8.169090 Z-5.000000
G3 F1000 I11.517826 J9.609354 K0.000000 X58.647340 Y20.134406 Z-5.000000
G2 F1000 I-2.760352 J0.439001 K0.000000 X55.887207 Y17.778364 Z-5.000000
G0 F1000 Z6.000000
S0	(---Laser 0% OFF)
G0 F1000 Z6.000000
S0	(---Laser 0% OFF)
G0 F1000 X11.573941 Y13.618807
G0 F1000 Z4.000000
S1000	(---Laser 100% ON)
G1 F1000 X11.573941 Y13.618807 Z-5.000000
G1 F1000 X13.461166 Y13.618807 Z-5.000000
G1 F1000 X15.348390 Y13.618807 Z-5.000000
G1 F1000 X15.348390 Y19.922027 Z-5.000000
G1 F1000 X17.400888 Y19.922027 Z-5.000000
G1 F1000 X13.461166 Y23.880541 Z-5.000000
G1 F1000 X9.521443 Y20.018602 Z-5.000000
G1 F1000 X11.573941 Y20.018602 Z-5.000000
G1 F1000 X11.573941 Y13.618807 Z-5.000000
G0 F1000 Z6.000000
S0	(---Laser 0% OFF)
G0 F1000 Z6.000000
S0	(---Laser 0% OFF)
G0 F1000 X78.461166 Y17.778444
G0 F1000 Z4.000000
S1000	(---Laser 100% ON)
G1 F1000 X78.461166 Y17.778444 Z-5.000000
G3 F1000 I-5.000000 J0.000000 K0.000000 X78.461166 Y17.778444 Z-5.000000
G0 F1000 Z6.000000
S0	(---Laser 0% OFF)
G0 F1000 Z6.000000
S0	(---Laser 0% OFF)
G0 F1000 X83.461166 Y17.778444
G0 F1000 Z4.000000
S1000	(---Laser 100% ON)
G1 F1000 X83.461166 Y17.778444 Z-5.000000
G3 F1000 I-10.000000 J0.000000 K0.000000 X83.461166 Y17.778444 Z-5.000000
G0 Z6.000000


G91 (BEGIN incremental)
G90 (END incremental)
(G10 L2 P0 Y30 X30)
S0
S0
(=BEGIN CoORDINATE SHIFT=========================)
G00 X00 Y00
G92 X-0 Y-30 (Shifts current G54)
(=END CoORDINATE SHIFT=========================)



(Engrave)
S1000	(---Laser 100% ON)
S0 		(--Laser 000% OFF)
G0 F1000 Z6.000000
S0	(---Laser 0% OFF)
G0 F1000 Z6.000000
S0	(---Laser 0% OFF)
G0 F1000 X55.887207 Y17.778364
G0 F1000 Z4.000000
S1000	(---Laser 100% ON)
G1 F1000 X55.887207 Y17.778364 Z-5.000000
G1 F1000 X25.461165 Y17.775983 Z-5.000000
G3 F1000 I-12.000000 J-0.000939 K0.000000 X1.461166 Y17.778444 Z-5.000000
G1 F1000 X1.461166 Y12.366822 Z-5.000000
G3 F1000 I1.990648 J0.000000 K0.000000 X3.451814 Y10.376174 Z-5.000000
G1 F1000 X57.227613 Y10.376174 Z-5.000000
G2 F1000 I0.000000 J-6.141428 K0.000000 X61.943340 Y8.169090 Z-5.000000
G3 F1000 I11.517826 J9.609354 K0.000000 X58.647340 Y20.134406 Z-5.000000
G2 F1000 I-2.760352 J0.439001 K0.000000 X55.887207 Y17.778364 Z-5.000000
G0 F1000 Z6.000000
S0	(---Laser 0% OFF)
G0 F1000 Z6.000000
S0	(---Laser 0% OFF)
G0 F1000 X11.573941 Y13.618807
G0 F1000 Z4.000000
S1000	(---Laser 100% ON)
G1 F1000 X11.573941 Y13.618807 Z-5.000000
G1 F1000 X13.461166 Y13.618807 Z-5.000000
G1 F1000 X15.348390 Y13.618807 Z-5.000000
G1 F1000 X15.348390 Y19.922027 Z-5.000000
G1 F1000 X17.400888 Y19.922027 Z-5.000000
G1 F1000 X13.461166 Y23.880541 Z-5.000000
G1 F1000 X9.521443 Y20.018602 Z-5.000000
G1 F1000 X11.573941 Y20.018602 Z-5.000000
G1 F1000 X11.573941 Y13.618807 Z-5.000000
G0 F1000 Z6.000000
S0	(---Laser 0% OFF)
G0 F1000 Z6.000000
S0	(---Laser 0% OFF)
G0 F1000 X78.461166 Y17.778444
G0 F1000 Z4.000000
S1000	(---Laser 100% ON)
G1 F1000 X78.461166 Y17.778444 Z-5.000000
G3 F1000 I-5.000000 J0.000000 K0.000000 X78.461166 Y17.778444 Z-5.000000
G0 F1000 Z6.000000
S0	(---Laser 0% OFF)
G0 F1000 Z6.000000
S0	(---Laser 0% OFF)
G0 F1000 X83.461166 Y17.778444
G0 F1000 Z4.000000
S1000	(---Laser 100% ON)
G1 F1000 X83.461166 Y17.778444 Z-5.000000
G3 F1000 I-10.000000 J0.000000 K0.000000 X83.461166 Y17.778444 Z-5.000000
G0 Z6.000000

(END ARTWORK)

(=END Engrave===========================)
(======END============)
(G00 – Rapid Positioning------------Laser OFF)
S0 
G0 Z10.000000
