%
(Header)
(Generated by gcodetools from Inkscape.)
(Using default header. To add your own header create file "header" in the output dir.)
M3
(Header end.)
G21 (All units in mm)

(Start cutting path id: path5361)
(Change tool to Default tool)

G00 Z 0.0000
G00 X 0.2522 Y 74.4357

S1000	(---Laser 100% ON)
G01 Z -0.1250 F 100.0000(Penetrate)
G01 X 0.2522 Y 14.9876 Z -0.1250 F 400.0000
G02 X 10.5989 Y 10.5977 Z -0.1250 I -0.2586 J -14.9978
G02 X 14.9913 Y 0.2521 Z -0.1250 I -10.6053 J -10.6079
G01 X 74.4358 Y 0.2521 Z -0.1250
G01 X 74.4358 Y 4.2549 Z -0.1250
G03 X 52.1948 Y 53.0876 Z -0.1250 I -74.6123 J -4.5012
G03 X 2.9652 Y 74.4357 Z -0.1250 I -52.3714 J -53.3339
G01 X 0.2522 Y 74.4357 Z -0.1250
S0	(---Laser 100% ON)
G00 Z 0.0000

(End cutting path id: path5361)



(Footer)
M5
G00 X0.0000 Y0.0000
M2
(Using default footer. To add your own footer create file "footer" in the output dir.)
(end)
%