%
(Header)
(Generated by gcodetools from Inkscape.)
(Using default header. To add your own header create file "header" in the output dir.)
M3
(Header end.)
G21 (All units in mm)

(Start cutting path id: path6076)
(Change tool to Default tool)

G00 Z 0.0000 
G00 Z 0.0000 
S000	(---LaserOff 000%)
G00 X 64.1746 Y 3.6578

S1000	(---Laser 100% ON)
G01 Z -0.1250 F 100.0000(Penetrate)
S1000	(---Laser 100% ON)
G01 X 64.1746 Y 3.4098 Z -0.1250 F 400.0000
G01 X 61.8429 Y 3.4098 Z -0.1250
G03 X 61.9517 Y 2.9208 Z -0.1250 I 1.6117 J 0.1018
G03 X 62.1571 Y 2.6105 Z -0.1250 I 0.8292 J 0.3259
G03 X 62.4730 Y 2.4171 Z -0.1250 I 0.5983 J 0.6225
G03 X 62.9454 Y 2.3377 Z -0.1250 I 0.4724 J 1.3646
G03 X 63.2351 Y 2.3560 Z -0.1250 I 0.0000 J 2.3031
G03 X 63.5104 Y 2.4093 Z -0.1250 I -0.2701 J 2.1298
G03 X 63.7797 Y 2.4971 Z -0.1250 I -0.5899 J 2.2690
G03 X 64.0561 Y 2.6243 Z -0.1250 I -0.9912 J 2.5160
G01 X 64.0561 Y 2.1448 Z -0.1250
G02 X 63.7789 Y 2.0426 Z -0.1250 I -1.2043 J 2.8387
G02 X 63.4966 Y 1.9684 Z -0.1250 I -0.9059 J 2.8734
G02 X 63.2083 Y 1.9230 Z -0.1250 I -0.5777 J 2.7309
G02 X 62.9150 Y 1.9077 Z -0.1250 I -0.2933 J 2.8130
G02 X 62.2268 Y 2.0300 Z -0.1250 I 0.0000 J 1.9972
G02 X 61.7437 Y 2.3377 Z -0.1250 I 0.4621 J 1.2589
G02 X 61.4359 Y 2.8182 Z -0.1250 I 0.9429 J 0.9429
G02 X 61.3138 Y 3.5007 Z -0.1250 I 1.8463 J 0.6825
G02 X 61.4313 Y 4.2128 Z -0.1250 I 2.2153 J 0.0000
G02 X 61.7217 Y 4.7024 Z -0.1250 I 1.3047 J -0.4429
G02 X 62.1869 Y 5.0245 Z -0.1250 I 0.9474 J -0.8714
G02 X 62.8268 Y 5.1489 Z -0.1250 I 0.6399 J -1.5840
G02 X 63.3995 Y 5.0363 Z -0.1250 I 0.0000 J -1.5128
G02 X 63.8108 Y 4.7465 Z -0.1250 I -0.4256 J -1.0407
G02 X 64.0691 Y 4.3061 Z -0.1250 I -0.9143 J -0.8323
G02 X 64.1746 Y 3.6578 Z -0.1250 I -1.9397 J -0.6482
G01 X 64.1746 Y 3.6578 Z -0.1250
G00 Z 0.0000 
G00 Z 0.0000 
S000	(---LaserOff 000%)

(Change tool to Default tool)

G00 Z 0.0000 
G00 Z 0.0000 
S000	(---LaserOff 000%)
G00 X 63.6674 Y 3.8067

G01 Z -0.1250 F 100.0000(Penetrate)
S1000	(---Laser 100% ON)
G03 X 63.5979 Y 4.1973 Z -0.1250 I -1.2230 J -0.0162 F 400.0000
G03 X 63.4332 Y 4.4709 Z -0.1250 I -0.7470 J -0.2635
G03 X 63.1770 Y 4.6506 Z -0.1250 I -0.5296 J -0.4825
G03 X 62.8324 Y 4.7189 Z -0.1250 I -0.3446 J -0.8348
G03 X 62.4348 Y 4.6510 Z -0.1250 I 0.0000 J -1.1968
G03 X 62.1516 Y 4.4792 Z -0.1250 I 0.2681 J -0.7610
G03 X 61.9620 Y 4.2084 Z -0.1250 I 0.5646 J -0.5971
G03 X 61.8595 Y 3.8039 Z -0.1250 I 1.2021 J -0.5201
G01 X 63.6674 Y 3.8067 Z -0.1250
G00 Z 0.0000 
G00 Z 0.0000 
S000	(---LaserOff 000%)

(End cutting path id: path6076)


(Start cutting path id: path6074)
(Change tool to Default tool)

G00 Z 0.0000 
G00 Z 0.0000 
S000	(---LaserOff 000%)
G00 X 59.9688 Y 5.0745

G01 Z -0.1250 F 100.0000(Penetrate)
S1000	(---Laser 100% ON)
G01 X 60.4759 Y 5.0745 Z -0.1250 F 400.0000
G01 X 60.4759 Y 1.9877 Z -0.1250
G01 X 59.9688 Y 1.9877 Z -0.1250
G01 X 59.9688 Y 5.0745 Z -0.1250
G00 Z 0.0000 
G00 Z 0.0000 
S000	(---LaserOff 000%)

(Change tool to Default tool)

G00 Z 0.0000 
G00 Z 0.0000 
S000	(---LaserOff 000%)
G00 X 59.9688 Y 6.2761

G01 Z -0.1250 F 100.0000(Penetrate)
S1000	(---Laser 100% ON)
G01 X 60.4759 Y 6.2761 Z -0.1250 F 400.0000
G01 X 60.4759 Y 5.6340 Z -0.1250
G01 X 59.9688 Y 5.6340 Z -0.1250
G01 X 59.9688 Y 6.2761 Z -0.1250
G00 Z 0.0000 
G00 Z 0.0000 
S000	(---LaserOff 000%)

(End cutting path id: path6074)


(Start cutting path id: path6072)
(Change tool to Default tool)

G00 Z 0.0000 
G00 Z 0.0000 
S000	(---LaserOff 000%)
G00 X 58.9518 Y 3.8508

G01 Z -0.1250 F 100.0000(Penetrate)
S1000	(---Laser 100% ON)
G01 X 58.9518 Y 1.9877 Z -0.1250 F 400.0000
G01 X 58.4447 Y 1.9877 Z -0.1250
G01 X 58.4447 Y 3.8342 Z -0.1250
G03 X 58.3909 Y 4.2539 Z -0.1250 I -1.6646 J -0.0000
G03 X 58.2738 Y 4.4902 Z -0.1250 I -0.6260 J -0.1631
G03 X 58.0721 Y 4.6446 Z -0.1250 I -0.4009 J -0.3146
G03 X 57.7612 Y 4.7079 Z -0.1250 I -0.3110 J -0.7321
G03 X 57.3831 Y 4.6344 Z -0.1250 I -0.0000 J -1.0087
G03 X 57.1135 Y 4.4461 Z -0.1250 I 0.2757 J -0.6820
G03 X 56.9453 Y 4.1577 Z -0.1250 I 0.6005 J -0.5436
G03 X 56.8765 Y 3.7323 Z -0.1250 I 1.2814 J -0.4255
G01 X 56.8765 Y 1.9877 Z -0.1250
G01 X 56.3666 Y 1.9877 Z -0.1250
G01 X 56.3666 Y 5.0745 Z -0.1250
G01 X 56.8765 Y 5.0745 Z -0.1250
G01 X 56.8765 Y 4.5949 Z -0.1250
G02 X 57.0835 Y 4.8464 Z -0.1250 I 1.2439 J -0.8128
G02 X 57.3037 Y 5.0111 Z -0.1250 I 0.7386 J -0.7582
G02 X 57.5614 Y 5.1116 Z -0.1250 I 0.4989 J -0.8980
G02 X 57.8742 Y 5.1489 Z -0.1250 I 0.3128 J -1.2950
G02 X 58.3608 Y 5.0528 Z -0.1250 I 0.0000 J -1.2802
G02 X 58.6789 Y 4.8182 Z -0.1250 I -0.3091 J -0.7521
G02 X 58.8676 Y 4.4597 Z -0.1250 I -0.7486 J -0.6228
G02 X 58.9518 Y 3.8508 Z -0.1250 I -2.1590 J -0.6090
G01 X 58.9518 Y 3.8508 Z -0.1250
G00 Z 0.0000 
G00 Z 0.0000 
S000	(---LaserOff 000%)

(End cutting path id: path6072)


(Start cutting path id: path6070)
(Change tool to Default tool)

G00 Z 0.0000 
G00 Z 0.0000 
S000	(---LaserOff 000%)
G00 X 52.7506 Y 3.2058

G01 Z -0.1250 F 100.0000(Penetrate)
S1000	(---Laser 100% ON)
G01 X 52.7506 Y 5.0745 Z -0.1250 F 400.0000
G01 X 53.2577 Y 5.0745 Z -0.1250
G01 X 53.2577 Y 3.2251 Z -0.1250
G03 X 53.3113 Y 2.8053 Z -0.1250 I 1.6722 J -0.0000
G03 X 53.4286 Y 2.5664 Z -0.1250 I 0.6395 J 0.1659
G03 X 53.6303 Y 2.4120 Z -0.1250 I 0.4009 J 0.3146
G03 X 53.9413 Y 2.3487 Z -0.1250 I 0.3110 J 0.7321
G03 X 54.3193 Y 2.4222 Z -0.1250 I 0.0000 J 1.0087
G03 X 54.5889 Y 2.6105 Z -0.1250 I -0.2757 J 0.6820
G03 X 54.7592 Y 2.8994 Z -0.1250 I -0.5967 J 0.5465
G03 X 54.8287 Y 3.3244 Z -0.1250 I -1.2652 J 0.4250
G01 X 54.8287 Y 5.0745 Z -0.1250
G01 X 55.3358 Y 5.0745 Z -0.1250
G01 X 55.3358 Y 1.9877 Z -0.1250
G01 X 54.8287 Y 1.9877 Z -0.1250
G01 X 54.8287 Y 2.4617 Z -0.1250
G02 X 54.6190 Y 2.2075 Z -0.1250 I -1.2708 J 0.8347
G02 X 54.3988 Y 2.0428 Z -0.1250 I -0.7386 J 0.7580
G02 X 54.1467 Y 1.9446 Z -0.1250 I -0.4828 J 0.8672
G02 X 53.8338 Y 1.9077 Z -0.1250 I -0.3129 J 1.3090
G02 X 53.3467 Y 2.0036 Z -0.1250 I -0.0000 J 1.2850
G02 X 53.0262 Y 2.2385 Z -0.1250 I 0.3121 J 0.7620
G02 X 52.8353 Y 2.5998 Z -0.1250 I 0.7581 J 0.6318
G02 X 52.7506 Y 3.2058 Z -0.1250 I 2.1271 J 0.6060
G01 X 52.7506 Y 3.2058 Z -0.1250
G00 Z 0.0000 
G00 Z 0.0000 
S000	(---LaserOff 000%)

(Change tool to Default tool)

G00 Z 0.0000 
G00 Z 0.0000 
S000	(---LaserOff 000%)
G00 X 54.0267 Y 5.1489

G01 Z -0.1250 F 100.0000(Penetrate)
S1000	(---Laser 100% ON)
G01 X 54.0267 Y 5.1489 Z -0.1250 F 400.0000
G00 Z 0.0000 
G00 Z 0.0000 
S000	(---LaserOff 000%)

(End cutting path id: path6070)


(Start cutting path id: path6068)
(Change tool to Default tool)

G00 Z 0.0000 
G00 Z 0.0000 
S000	(---LaserOff 000%)
G00 X 51.1604 Y 6.1025

G01 Z -0.1250 F 100.0000(Penetrate)
S1000	(---Laser 100% ON)
G01 X 51.7171 Y 6.1025 Z -0.1250 F 400.0000
G01 X 51.7171 Y 2.2743 Z -0.1250
G02 X 51.6253 Y 1.5637 Z -0.1250 I -2.7961 J 0.0000
G02 X 51.4332 Y 1.1939 Z -0.1250 I -0.9148 J 0.2404
G02 X 51.1037 Y 0.9612 Z -0.1250 I -0.6026 J 0.5039
G02 X 50.5265 Y 0.8577 Z -0.1250 I -0.5772 J 1.5566
G01 X 50.3143 Y 0.8577 Z -0.1250
G01 X 50.3143 Y 1.3262 Z -0.1250
G01 X 50.4879 Y 1.3262 Z -0.1250
G03 X 50.8246 Y 1.3906 Z -0.1250 I -0.0000 J 0.9128
G03 X 51.0088 Y 1.5329 Z -0.1250 I -0.1553 J 0.3913
G03 X 51.1080 Y 1.7568 Z -0.1250 I -0.4616 J 0.3385
G03 X 51.1604 Y 2.2743 Z -0.1250 I -2.5312 J 0.5175
G01 X 51.1604 Y 6.1025 Z -0.1250
G00 Z 0.0000 
G00 Z 0.0000 
S000	(---LaserOff 000%)

(End cutting path id: path6068)


(Start cutting path id: path6066)
(Change tool to Default tool)

G00 Z 0.0000 
G00 Z 0.0000 
S000	(---LaserOff 000%)
G00 X 47.0097 Y 5.7359

G01 Z -0.1250 F 100.0000(Penetrate)
S1000	(---Laser 100% ON)
G03 X 46.6461 Y 5.6274 Z -0.1250 I -0.0000 J -0.6634 F 400.0000
G03 X 46.3620 Y 5.3115 Z -0.1250 I 0.4557 J -0.6954
G03 X 46.2170 Y 4.8730 Z -0.1250 I 1.3594 J -0.6930
G03 X 46.1471 Y 4.0409 Z -0.1250 I 4.9178 J -0.8321
G03 X 46.2167 Y 3.2115 Z -0.1250 I 4.9721 J 0.0000
G03 X 46.3620 Y 2.7704 Z -0.1250 I 1.5259 J 0.2582
G03 X 46.6456 Y 2.4568 Z -0.1250 I 0.7347 J 0.3794
G03 X 47.0097 Y 2.3487 Z -0.1250 I 0.3641 J 0.5593
G03 X 47.3758 Y 2.4574 Z -0.1250 I -0.0000 J 0.6710
G03 X 47.6574 Y 2.7704 Z -0.1250 I -0.4449 J 0.6834
G03 X 47.8046 Y 3.2119 Z -0.1250 I -1.3661 J 0.7008
G03 X 47.8751 Y 4.0409 Z -0.1250 I -4.8380 J 0.8291
G03 X 47.8044 Y 4.8726 Z -0.1250 I -4.9240 J 0.0000
G03 X 47.6574 Y 5.3115 Z -0.1250 I -1.4922 J -0.2557
G03 X 47.3754 Y 5.6268 Z -0.1250 I -0.7314 J -0.3705
G03 X 47.0097 Y 5.7359 Z -0.1250 I -0.3656 J -0.5580
G01 X 47.0097 Y 5.7359 Z -0.1250
G00 Z 0.0000 
G00 Z 0.0000 
S000	(---LaserOff 000%)

(Change tool to Default tool)

G00 Z 0.0000 
G00 Z 0.0000 
S000	(---LaserOff 000%)
G00 X 47.0097 Y 6.1769

G01 Z -0.1250 F 100.0000(Penetrate)
S1000	(---Laser 100% ON)
G02 X 47.6213 Y 6.0275 Z -0.1250 I -0.0000 J -1.3265 F 400.0000
G02 X 48.0653 Y 5.6284 Z -0.1250 I -0.5499 J -1.0583
G02 X 48.3171 Y 5.0478 Z -0.1250 I -1.4492 J -0.9734
G02 X 48.4319 Y 4.0409 Z -0.1250 I -4.3605 J -1.0068
G02 X 48.3174 Y 3.0366 Z -0.1250 I -4.4640 J -0.0000
G02 X 48.0653 Y 2.4534 Z -0.1250 I -1.7184 J 0.3968
G02 X 47.6218 Y 2.0566 Z -0.1250 I -0.9897 J 0.6598
G02 X 47.0097 Y 1.9077 Z -0.1250 I -0.6121 J 1.1840
G02 X 46.3972 Y 2.0564 Z -0.1250 I -0.0000 J 1.3366
G02 X 45.9514 Y 2.4534 Z -0.1250 I 0.5494 J 1.0656
G02 X 45.7012 Y 3.0362 Z -0.1250 I 1.4743 J 0.9779
G02 X 45.5876 Y 4.0409 Z -0.1250 I 4.3845 J 1.0048
G02 X 45.7015 Y 5.0482 Z -0.1250 I 4.5094 J 0.0000
G02 X 45.9514 Y 5.6284 Z -0.1250 I 1.7069 J -0.3912
G02 X 46.3977 Y 6.0277 Z -0.1250 I 0.9993 J -0.6679
G02 X 47.0097 Y 6.1769 Z -0.1250 I 0.6121 J -1.1810
G01 X 47.0097 Y 6.1769 Z -0.1250
G00 Z 0.0000 
G00 Z 0.0000 
S000	(---LaserOff 000%)

(End cutting path id: path6066)


(Start cutting path id: path6064)
(Change tool to Default tool)

G00 Z 0.0000 
G00 Z 0.0000 
S000	(---LaserOff 000%)
G00 X 42.7047 Y 2.4562

G01 Z -0.1250 F 100.0000(Penetrate)
S1000	(---Laser 100% ON)
G01 X 44.6478 Y 2.4562 Z -0.1250 F 400.0000
G01 X 44.6478 Y 1.9877 Z -0.1250
G01 X 42.0350 Y 1.9877 Z -0.1250
G01 X 42.0350 Y 2.4562 Z -0.1250
G02 X 42.3532 Y 2.7830 Z -0.1250 I 43.1750 J -41.7240
G02 X 42.8977 Y 3.3354 Z -0.1250 I 123.9493 J -121.6180
G03 X 43.4425 Y 3.8927 Z -0.1250 I -43.6872 J 43.2524
G03 X 43.5867 Y 4.0492 Z -0.1250 I -3.2963 J 3.1818
G03 X 43.8383 Y 4.3603 Z -0.1250 I -3.1734 J 2.8241
G03 X 43.9587 Y 4.5563 Z -0.1250 I -1.1321 J 0.8306
G03 X 44.0411 Y 4.7719 Z -0.1250 I -0.9430 J 0.4839
G03 X 44.0662 Y 4.9670 Z -0.1250 I -0.7455 J 0.1951
G03 X 44.0040 Y 5.2671 Z -0.1250 I -0.7553 J 0.0000
G03 X 43.8347 Y 5.5017 Z -0.1250 I -0.6174 J -0.2673
G03 X 43.5835 Y 5.6501 Z -0.1250 I -0.4898 J -0.5421
G03 X 43.2367 Y 5.7084 Z -0.1250 I -0.3469 J -1.0037
G03 X 42.9780 Y 5.6873 Z -0.1250 I 0.0000 J -1.5963
G03 X 42.6827 Y 5.6174 Z -0.1250 I 0.3538 J -2.1550
G03 X 42.4001 Y 5.5106 Z -0.1250 I 0.7969 J -2.5355
G03 X 42.0626 Y 5.3418 Z -0.1250 I 1.6851 J -3.7915
G01 X 42.0626 Y 5.9040 Z -0.1250
G02 X 42.4025 Y 6.0273 Z -0.1250 I 1.9799 J -4.9295
G02 X 42.6909 Y 6.1080 Z -0.1250 I 1.1247 J -3.4654
G02 X 42.9849 Y 6.1614 Z -0.1250 I 0.6632 J -2.8119
G02 X 43.2256 Y 6.1769 Z -0.1250 I 0.2407 J -1.8681
G02 X 43.8312 Y 6.0842 Z -0.1250 I -0.0000 J -2.0244
G02 X 44.2454 Y 5.8572 Z -0.1250 I -0.3598 J -1.1477
G02 X 44.5223 Y 5.4893 Z -0.1250 I -0.6597 J -0.7848
G02 X 44.6257 Y 5.0028 Z -0.1250 I -1.0929 J -0.4865
G02 X 44.6011 Y 4.7542 Z -0.1250 I -1.2675 J 0.0000
G02 X 44.5293 Y 4.5205 Z -0.1250 I -1.1910 J 0.2382
G02 X 44.4167 Y 4.3057 Z -0.1250 I -1.2507 J 0.5186
G02 X 44.1847 Y 3.9858 Z -0.1250 I -3.0230 J 1.9478
G02 X 44.1140 Y 3.9075 Z -0.1250 I -1.7216 J 1.4842
G02 X 43.7465 Y 3.5228 Z -0.1250 I -42.0005 J 39.7505
G02 X 43.3767 Y 3.1430 Z -0.1250 I -129.2851 J 125.5374
G02 X 42.7047 Y 2.4562 Z -0.1250 I -423.4609 J 413.6130
G01 X 42.7047 Y 2.4562 Z -0.1250
G00 Z 0.0000 
G00 Z 0.0000 
S000	(---LaserOff 000%)

(End cutting path id: path6064)



(Footer)
M5
G00 X0.0000 Y0.0000
M2
(Using default footer. To add your own footer create file "footer" in the output dir.)
(end)
%