(======HEADER=====================)
(G00 – Rapid Positioning------------Laser OFF)
(G01 – Linear interpolation------------ )
(G02 – Circular interpolation CCW------------ )
(G02 – Circular interpolation CW------------ )
(Gcode G91 & Gcode G90: CNC Absolute and Incremental Programming)
(S00 - S1000 Spindle speed)
(M03 – Spindle on in a clockwise)
(======POST PROCESSING===========)
(REPLACE (CUT); (CUT) \r\n S1000	(---Laser 100% ON))
(REPLACE F0.166667 ; F1000)
(REPLACE F8.333333 ; F1000)
(REPLACE F1000 ; F1000)
(REPLACE Z-5.000000 ;  )
(REPLACE Z-5.000000 ; \r\n S1000	(---Laser 100% ON))
(======START=====================)
(======CODE MANDATORY============)
M3 S0  (M03 – Spindle on in a clockwise)
(================================)
(Engrave001)
S0 		(--Laser 000% OFF)
S0 		(--Laser 000% OFF)
G0 F1000 X140.000000 Y215.000000
S1000	(---Laser 100% ON)
S1000	(---Laser 100% ON)
G1 F750 X140.000000 Y215.000000 Z-5.000000
G1 F750 X140.000000 Y280.000000 Z-5.000000
S0 		(--Laser 000% OFF)
S0 		(--Laser 000% OFF)
G0 F1000 X215.000000 Y140.000000
S1000	(---Laser 100% ON)
S1000	(---Laser 100% ON)
G1 F750 X215.000000 Y140.000000 Z-5.000000
G1 F750 X280.000000 Y140.000000 Z-5.000000
S0 		(--Laser 000% OFF)
S0 		(--Laser 000% OFF)
G0 F1000 X65.000000 Y140.000000
S1000	(---Laser 100% ON)
G1 F750 X65.000000 Y140.000000 Z-5.000000
G1 F750 X0.000000 Y140.000000 Z-5.000000
S0 		(--Laser 000% OFF)
S0 		(--Laser 000% OFF)
G0 F1000 X140.000000 Y65.000000
S1000	(---Laser 100% ON)
G1 F750 X140.000000 Y65.000000 Z-5.000000
G1 F750 X140.000000 Y0.000000 Z-5.000000
S0 		(--Laser 000% OFF)
S0 		(--Laser 000% OFF)
G0 F1000 X193.033009 Y193.033009
S1000	(---Laser 100% ON)
G1 F750 X193.033009 Y193.033009 Z-5.000000
G1 F750 X238.994949 Y238.994949 Z-5.000000
S0 		(--Laser 000% OFF)
S0 		(--Laser 000% OFF)
G0 F1000 X204.951905 Y177.500000
S1000	(---Laser 100% ON)
G1 F750 X204.951905 Y177.500000 Z-5.000000
G1 F750 X261.243557 Y210.000000 Z-5.000000
S0 		(--Laser 000% OFF)
S0 		(--Laser 000% OFF)
G0 F1000 X177.500000 Y204.951905
S1000	(---Laser 100% ON)
G1 F750 X177.500000 Y204.951905 Z-5.000000
G1 F750 X210.000000 Y261.243557 Z-5.000000
S0 		(--Laser 000% OFF)
S0 		(--Laser 000% OFF)
G0 F1000 X159.411428 Y212.444437
S1000	(---Laser 100% ON)
G1 F750 X159.411428 Y212.444437 Z-5.000000
G1 F750 X176.234666 Y275.229616 Z-5.000000
S0 		(--Laser 000% OFF)
S0 		(--Laser 000% OFF)
G0 F1000 X212.444437 Y159.411428
S1000	(---Laser 100% ON)
G1 F750 X212.444437 Y159.411428 Z-5.000000
G1 F750 X275.229616 Y176.234666 Z-5.000000
S0 		(--Laser 000% OFF)
S0 		(--Laser 000% OFF)
G0 F1000 X212.444437 Y120.588572
S1000	(---Laser 100% ON)
G1 F750 X212.444437 Y120.588572 Z-5.000000
G1 F750 X275.229616 Y103.765334 Z-5.000000
S0 		(--Laser 000% OFF)
S0 		(--Laser 000% OFF)
G0 F1000 X204.951905 Y102.500000
S1000	(---Laser 100% ON)
G1 F750 X204.951905 Y102.500000 Z-5.000000
G1 F750 X261.243557 Y70.000000 Z-5.000000
S0 		(--Laser 000% OFF)
S0 		(--Laser 000% OFF)
G0 F1000 X193.033009 Y86.966991
S1000	(---Laser 100% ON)
G1 F750 X193.033009 Y86.966991 Z-5.000000
G1 F750 X238.994949 Y41.005051 Z-5.000000
S0 		(--Laser 000% OFF)
S0 		(--Laser 000% OFF)
G0 F1000 X177.500000 Y75.048095
S1000	(---Laser 100% ON)
G1 F750 X177.500000 Y75.048095 Z-5.000000
G1 F750 X210.000000 Y18.756443 Z-5.000000
S0 		(--Laser 000% OFF)
S0 		(--Laser 000% OFF)
G0 F1000 X159.411428 Y67.555563
S1000	(---Laser 100% ON)
G1 F750 X159.411428 Y67.555563 Z-5.000000
G1 F750 X176.234666 Y4.770384 Z-5.000000
S0 		(--Laser 000% OFF)
S0 		(--Laser 000% OFF)
G0 F1000 X102.500000 Y204.951905
S1000	(---Laser 100% ON)
G1 F750 X102.500000 Y204.951905 Z-5.000000
G1 F750 X70.000000 Y261.243557 Z-5.000000
S0 		(--Laser 000% OFF)
S0 		(--Laser 000% OFF)
G0 F1000 X86.966991 Y193.033009
S1000	(---Laser 100% ON)
G1 F750 X86.966991 Y193.033009 Z-5.000000
G1 F750 X41.005051 Y238.994949 Z-5.000000
S0 		(--Laser 000% OFF)
S0 		(--Laser 000% OFF)
G0 F1000 X75.048095 Y177.500000
S1000	(---Laser 100% ON)
G1 F750 X75.048095 Y177.500000 Z-5.000000
G1 F750 X18.756443 Y210.000000 Z-5.000000
S0 		(--Laser 000% OFF)
S0 		(--Laser 000% OFF)
G0 F1000 X67.555563 Y159.411428
S1000	(---Laser 100% ON)
G1 F750 X67.555563 Y159.411428 Z-5.000000
G1 F750 X4.770384 Y176.234666 Z-5.000000
S0 		(--Laser 000% OFF)
S0 		(--Laser 000% OFF)
G0 F1000 X120.588572 Y212.444437
S1000	(---Laser 100% ON)
G1 F750 X120.588572 Y212.444437 Z-5.000000
G1 F750 X103.765334 Y275.229616 Z-5.000000
S0 		(--Laser 000% OFF)
S0 		(--Laser 000% OFF)
G0 F1000 X67.555563 Y120.588572
S1000	(---Laser 100% ON)
G1 F750 X67.555563 Y120.588572 Z-5.000000
G1 F750 X4.770384 Y103.765334 Z-5.000000
S0 		(--Laser 000% OFF)
S0 		(--Laser 000% OFF)
G0 F1000 X75.048095 Y102.500000
S1000	(---Laser 100% ON)
G1 F750 X75.048095 Y102.500000 Z-5.000000
G1 F750 X18.756443 Y70.000000 Z-5.000000
S0 		(--Laser 000% OFF)
S0 		(--Laser 000% OFF)
G0 F1000 X86.966991 Y86.966991
S1000	(---Laser 100% ON)
G1 F750 X86.966991 Y86.966991 Z-5.000000
G1 F750 X41.005051 Y41.005051 Z-5.000000
S0 		(--Laser 000% OFF)
S0 		(--Laser 000% OFF)
G0 F1000 X102.500000 Y75.048095
S1000	(---Laser 100% ON)
G1 F750 X102.500000 Y75.048095 Z-5.000000
G1 F750 X70.000000 Y18.756443 Z-5.000000
S0 		(--Laser 000% OFF)
S0 		(--Laser 000% OFF)
G0 F1000 X120.588572 Y67.555563
S1000	(---Laser 100% ON)
G1 F750 X120.588572 Y67.555563 Z-5.000000
G1 F750 X103.765334 Y4.770384 Z-5.000000
G0 Z6.000000

(=END Engrave===========================)
(======END============)
(G00 – Rapid Positioning------------Laser OFF)
S0 
G0 Z10.000000
