
(======START============)
M3 S0
S0 
(G00 – Rapid Positioning------------Laser OFF)
S1000 S0 
G0 F1000 X0.000000 Y0.000000

(S1000 ------------------------------Laser 100% ON)
(S0    ------------------------------Laser 000% OFF)
(BEGIN Engrave)

(Exported by FreeCAD)
(Post Processor: grbl_post)
(Output Time:2022-08-17 16:57:30.955651)
(Begin preamble)
(STOP LASER -------------------------------------------------------)
 S0
(Finish operation: G54)
(Begin operation: TC: Default Tool)
(Path: TC: Default Tool)
(TC: Default Tool)
(Begin toolchange)
( M6 T1 )

(Finish operation: TC: Default Tool)
(Begin operation: Engrave)
(Path: Engrave)
(Engrave)
(STOP LASER -------------------------------------------------------)
 S0
(STOP LASER -------------------------------------------------------)
S0
G0 X25.000 Y15.000
(BEGIN  LASER +++++++++++++++++++++++)
S1000
G1 X25.000 Y15.000 Z-1.000 F500
G3 X25.000 Y15.000 Z-1.000 I-10.000 J0.000 K0.000 F500
(STOP LASER -------------------------------------------------------)
 S0
G0 X22.447 Y17.595
(BEGIN  LASER +++++++++++++++++++++++)
S1000
G1 X22.447 Y17.595 Z-1.000 F500
G3 X18.996 Y18.125 Z-1.000 I-1.932 J-1.081 K0.000 F500
G1 X18.942 Y19.991 Z-1.000 F500
G1 X16.942 Y19.991 Z-1.000 F500
G1 X14.942 Y16.991 Z-1.000 F500
G1 X12.942 Y19.991 Z-1.000 F500
G1 X10.942 Y19.991 Z-1.000 F500
G1 X10.942 Y10.991 Z-1.000 F500
G1 X9.942 Y9.991 Z-1.000 F500
G1 X12.942 Y9.991 Z-1.000 F500
G1 X12.942 Y16.991 Z-1.000 F500
G1 X14.942 Y13.991 Z-1.000 F500
G1 X16.942 Y16.991 Z-1.000 F500
G1 X16.942 Y9.991 Z-1.000 F500
G1 X19.942 Y9.991 Z-1.000 F500
G1 X18.918 Y10.991 Z-1.000 F500
G1 X18.918 Y14.981 Z-1.000 F500
G3 X22.537 Y15.615 Z-1.000 I1.597 J1.533 K0.000 F500
G1 X21.462 Y16.125 Z-1.000 F500
G2 X21.415 Y17.002 Z-1.000 I-0.947 J0.389 K0.000 F500
G1 X22.447 Y17.595 Z-1.000 F500
(STOP LASER -------------------------------------------------------)
 S0
(STOP LASER -------------------------------------------------------)
 S0
G0 X53.000 Y15.000
(BEGIN  LASER +++++++++++++++++++++++)
 S1000
G1 X53.000 Y15.000 Z-1.000 F500
G3 X53.000 Y15.000 Z-1.000 I-10.000 J0.000 K0.000 F500
(STOP LASER -------------------------------------------------------)
 S0
(STOP LASER -------------------------------------------------------)
 S0
G0 X49.000 Y16.999
(BEGIN  LASER +++++++++++++++++++++++)
 S1000
G1 X49.000 Y16.999 Z-1.000 F500
G3 X37.000 Y16.999 Z-1.000 I-6.000 J0.000 K0.000 F500
G1 X49.000 Y16.999 Z-1.000 F500
(STOP LASER -------------------------------------------------------)
 S0
(STOP LASER -------------------------------------------------------)
 S0
G0 X43.059 Y8.568
(BEGIN  LASER +++++++++++++++++++++++)
 S1000
G1 X43.059 Y8.568 Z-1.000 F500
G1 X44.552 Y10.699 Z-1.000 F500
G1 X43.552 Y10.699 Z-1.000 F500
G1 X43.552 Y14.197 Z-1.000 F500
G1 X43.059 Y14.197 Z-1.000 F500
G1 X42.566 Y14.197 Z-1.000 F500
G1 X42.566 Y10.699 Z-1.000 F500
G1 X41.566 Y10.699 Z-1.000 F500
G1 X43.059 Y8.568 Z-1.000 F500
(STOP LASER -------------------------------------------------------)
 S0
(STOP LASER -------------------------------------------------------)
 S0
G0 X77.980 Y15.000
(BEGIN  LASER +++++++++++++++++++++++)
 S1000
G1 X77.980 Y15.000 Z-1.000 F500
G3 X77.980 Y15.000 Z-1.000 I-10.000 J0.000 K0.000 F500
(STOP LASER -------------------------------------------------------)
 S0
(STOP LASER -------------------------------------------------------)
 S0
G0 X72.874 Y9.000
(BEGIN  LASER +++++++++++++++++++++++)
 S1000
G1 X72.874 Y9.000 Z-1.000 F500
G3 X63.126 Y9.000 Z-1.000 I-4.874 J-0.000 K0.000 F500
G1 X72.874 Y9.000 Z-1.000 F500
(STOP LASER -------------------------------------------------------)
 S0
(STOP LASER -------------------------------------------------------)
 S0
G0 X68.654 Y20.000
(BEGIN  LASER +++++++++++++++++++++++)
 S1000
G1 X68.654 Y20.000 Z-1.000 F500
G1 X69.482 Y20.000 Z-1.000 F500
G1 X67.972 Y21.991 Z-1.000 F500
G1 X66.425 Y19.899 Z-1.000 F500
G1 X67.510 Y19.899 Z-1.000 F500
G1 X67.510 Y16.513 Z-1.000 F500
G1 X68.003 Y16.513 Z-1.000 F500
G1 X68.496 Y16.513 Z-1.000 F500
G1 X68.496 Y20.011 Z-1.000 F500
(STOP LASER -------------------------------------------------------)
 S0
(STOP LASER -------------------------------------------------------)
 S0
G0 X100.485 Y14.941
(BEGIN  LASER +++++++++++++++++++++++)
 S1000
G1 X100.485 Y14.941 Z-1.000 F500
G3 X100.485 Y14.941 Z-1.000 I-10.000 J0.000 K0.000 F500
(STOP LASER -------------------------------------------------------)
 S0
(STOP LASER -------------------------------------------------------)
 S0
G0 X88.558 Y19.000
(BEGIN  LASER +++++++++++++++++++++++)
 S1000
G1 X88.558 Y19.000 Z-1.000 F500
G1 X88.558 Y9.932 Z-1.000 F500
G1 X91.985 Y9.932 Z-1.000 F500
G1 X90.961 Y10.932 Z-1.000 F500
G1 X90.961 Y14.922 Z-1.000 F500
G3 X94.580 Y15.556 Z-1.000 I1.597 J1.533 K0.000 F500
G1 X93.505 Y16.066 Z-1.000 F500
G2 X93.458 Y16.943 Z-1.000 I-0.947 J0.389 K0.000 F500
G1 X94.490 Y17.536 Z-1.000 F500
G3 X91.039 Y18.066 Z-1.000 I-1.932 J-1.081 K0.000 F500
G1 X90.985 Y20.000 Z-1.000 F500
G1 X87.558 Y20.000 Z-1.000 F500
G1 X88.558 Y19.000 Z-1.000 F500
(STOP LASER -------------------------------------------------------)
 S0
(STOP LASER -------------------------------------------------------)
 S0
G0 X124.000 Y20.000
(BEGIN  LASER +++++++++++++++++++++++)
 S1000
G1 X124.000 Y20.000 Z-1.000 F500
G3 X124.000 Y20.000 Z-1.000 I-4.000 J0.000 K0.000 F500
(STOP LASER -------------------------------------------------------)
 S0
(STOP LASER -------------------------------------------------------)
 S0
G0 X124.000 Y8.000
(BEGIN  LASER +++++++++++++++++++++++)
 S1000
G1 X124.000 Y8.000 Z-1.000 F500
G3 X124.000 Y8.000 Z-1.000 I-4.000 J0.000 K0.000 F500
(STOP LASER -------------------------------------------------------)
 S0
(STOP LASER -------------------------------------------------------)
 S0
G0 X136.000 Y8.000
(BEGIN  LASER +++++++++++++++++++++++)
 S1000
G1 X136.000 Y8.000 Z-1.000 F500
G3 X136.000 Y8.000 Z-1.000 I-4.000 J0.000 K0.000 F500
(STOP LASER -------------------------------------------------------)
 S0
(STOP LASER -------------------------------------------------------)
 S0
G0 X136.000 Y20.000
(BEGIN  LASER +++++++++++++++++++++++)
 S1000
G1 X136.000 Y20.000 Z-1.000 F500
G3 X136.000 Y20.000 Z-1.000 I-4.000 J0.000 K0.000 F500
(STOP LASER -------------------------------------------------------)
 S0
(Finish operation: Engrave)
(Begin postamble)
M5
G17 G90
M2



(END Engrave)
(======END============)
(G00 – Rapid Positioning------------Laser OFF)
S0 
G0 Z10.000000
