(======HEADER=====================)
(G00 – Rapid Positioning------------Laser OFF)
(G01 – Linear interpolation------------ )
(G02 – Circular interpolation CCW------------ )
(G02 – Circular interpolation CW------------ )
(Gcode G91 & Gcode G90: CNC Absolute and Incremental Programming)
(S00 - S1000 Spindle speed)
(M03 – Spindle on in a clockwise)
(======POST PROCESSING===========)
(REPLACE (CUT); (CUT) \r\n S1000	(---Laser 100% ON))
(REPLACE F0.166667 ; F1000)
(REPLACE F8.333333 ; F1000)
(REPLACE Z0.000000 ;  )
(======START=====================)
(======CODE MANDATORY============)
M3 S0  (M03 – Spindle on in a clockwise)
(================================)
S0 		(--Laser 000% OFF)
G0 F1000 X0.000000 Y0.000000
S1000	(---Laser 100% ON)
S0 		(--Laser 000% OFF)
(=BEGIN Engrave=========================)

(Engrave001)
S0 		(--Laser 000% OFF)
S0 		(--Laser 000% OFF)
G0 F1000 X34.000000 Y20.000000
S1000	(---Laser 100% ON)
G1 F1000 X34.000000 Y20.000000 Z0.000000
G1 F1000 X36.000000 Y13.241540 Z0.000000
G1 F1000 X38.000000 Y16.000000 Z0.000000
G1 F1000 X40.000000 Y13.388675 Z0.000000
G1 F1000 X42.000000 Y19.568323 Z0.000000
S0 		(--Laser 000% OFF)
S0 		(--Laser 000% OFF)
G0 F1000 X44.970890 Y13.535809
S1000	(---Laser 100% ON)
G1 F1000 X44.970890 Y13.535809 Z0.000000
G1 F1000 X44.970890 Y20.000000 Z0.000000
G1 F1000 X50.000000 Y15.595692 Z0.000000
S0 		(--Laser 000% OFF)
S0 		(--Laser 000% OFF)
G0 F1000 X44.970890 Y16.000000
S1000	(---Laser 100% ON)
G1 F1000 X44.970890 Y16.000000 Z0.000000
G1 F1000 X48.000000 Y17.347218 Z0.000000
S0 		(--Laser 000% OFF)
S0 		(--Laser 000% OFF)
G0 F1000 X48.294489 Y21.314891
S1000	(---Laser 100% ON)
G1 F1000 X48.294489 Y21.314891 Z0.000000
G1 F1000 X52.049399 Y23.885396 Z0.000000
S0 		(--Laser 000% OFF)
S0 		(--Laser 000% OFF)
G0 F1000 X50.385741 Y22.746502
S1000	(---Laser 100% ON)
G1 F1000 X50.385741 Y22.746502 Z0.000000
G1 F1000 X53.798958 Y17.655575 Z0.000000
S0 		(--Laser 000% OFF)
S0 		(--Laser 000% OFF)
G0 F1000 X55.123169 Y26.704346
S1000	(---Laser 100% ON)
G1 F1000 X55.123169 Y26.704346 Z0.000000
G1 F1000 X53.096973 Y24.597365 Z0.000000
G1 F1000 X57.139975 Y19.445143 Z0.000000
G1 F1000 X59.463638 Y22.069611 Z0.000000
S0 		(--Laser 000% OFF)
S0 		(--Laser 000% OFF)
G0 F1000 X54.946910 Y22.239888
S1000	(---Laser 100% ON)
G1 F1000 X54.946910 Y22.239888 Z0.000000
G1 F1000 X56.815216 Y24.055927 Z0.000000
S0 		(--Laser 000% OFF)
S0 		(--Laser 000% OFF)
G0 F1000 X61.964924 Y24.276627
S1000	(---Laser 100% ON)
G1 F1000 X61.964924 Y24.276627 Z0.000000
G1 F1000 X57.035919 Y28.469959 Z0.000000
G1 F1000 X58.799648 Y30.738211 Z0.000000
G1 F1000 X60.432381 Y30.810778 Z0.000000
G1 F1000 X61.938122 Y29.722288 Z0.000000
G1 F1000 X62.155819 Y28.071415 Z0.000000
G1 F1000 X61.229252 Y26.704346 Z0.000000
G1 F1000 X64.686913 Y26.704346 Z0.000000
S0 		(--Laser 000% OFF)
S0 		(--Laser 000% OFF)
G0 F1000 X18.917750 Y46.864092
S1000	(---Laser 100% ON)
G1 F1000 X18.917750 Y46.864092 Z0.000000
G1 F1000 X15.829741 Y51.064730 Z0.000000
G1 F1000 X21.161001 Y51.064730 Z0.000000
S0 		(--Laser 000% OFF)
S0 		(--Laser 000% OFF)
G0 F1000 X17.394859 Y48.935689
S1000	(---Laser 100% ON)
G1 F1000 X17.394859 Y48.935689 Z0.000000
G1 F1000 X18.480038 Y51.064730 Z0.000000
S0 		(--Laser 000% OFF)
S0 		(--Laser 000% OFF)
G0 F1000 X22.110018 Y52.248470
S1000	(---Laser 100% ON)
G1 F1000 X22.110018 Y52.248470 Z0.000000
G1 F1000 X18.435932 Y55.074688 Z0.000000
G1 F1000 X23.159756 Y54.267197 Z0.000000
G1 F1000 X20.091288 Y56.770420 Z0.000000
S0 		(--Laser 000% OFF)
S0 		(--Laser 000% OFF)
G0 F1000 X21.423651 Y58.022034
S1000	(---Laser 100% ON)
G1 F1000 X21.423651 Y58.022034 Z0.000000
G1 F1000 X24.169121 Y54.953568 Z0.000000
G1 F1000 X24.815115 Y56.084053 Z0.000000
G1 F1000 X24.613241 Y57.537537 Z0.000000
G1 F1000 X23.644251 Y58.506531 Z0.000000
G1 F1000 X22.473389 Y58.748775 Z0.000000
G1 F1000 X21.423651 Y58.022034 Z0.000000
S0 		(--Laser 000% OFF)
S0 		(--Laser 000% OFF)
G0 F1000 X27.399086 Y57.981659
S1000	(---Laser 100% ON)
G1 F1000 X27.399086 Y57.981659 Z0.000000
G1 F1000 X26.107101 Y56.770420 Z0.000000
G1 F1000 X23.644251 Y59.758141 Z0.000000
G1 F1000 X24.895863 Y60.686756 Z0.000000
S0 		(--Laser 000% OFF)
S0 		(--Laser 000% OFF)
G0 F1000 X24.908957 Y58.223907
S1000	(---Laser 100% ON)
G1 F1000 X24.908957 Y58.223907 Z0.000000
G1 F1000 X25.824480 Y59.152523 Z0.000000
S0 		(--Laser 000% OFF)
S0 		(--Laser 000% OFF)
G0 F1000 X28.691072 Y58.345028
S1000	(---Laser 100% ON)
G1 F1000 X28.691072 Y58.345028 Z0.000000
G1 F1000 X26.268599 Y61.574997 Z0.000000
G1 F1000 X27.076090 Y62.140240 Z0.000000
G1 F1000 X28.045080 Y62.059490 Z0.000000
G1 F1000 X28.771822 Y61.332748 Z0.000000
G1 F1000 X28.731449 Y60.444508 Z0.000000
G1 F1000 X28.085455 Y59.879265 Z0.000000
G1 F1000 X30.225307 Y59.112148 Z0.000000
S0 		(--Laser 000% OFF)
S0 		(--Laser 000% OFF)
G0 F1000 X31.234673 Y59.435143
S1000	(---Laser 100% ON)
G1 F1000 X31.234673 Y59.435143 Z0.000000
G1 F1000 X29.417814 Y63.189980 Z0.000000
G1 F1000 X31.476919 Y62.019115 Z0.000000
G1 F1000 X31.476919 Y64.158966 Z0.000000
G1 F1000 X33.455273 Y60.323383 Z0.000000
S0 		(--Laser 000% OFF)
S0 		(--Laser 000% OFF)
G0 F1000 X34.182014 Y60.686756
S1000	(---Laser 100% ON)
G1 F1000 X34.182014 Y60.686756 Z0.000000
G1 F1000 X33.536022 Y64.724213 Z0.000000
G1 F1000 X36.887115 Y61.776867 Z0.000000
S0 		(--Laser 000% OFF)
S0 		(--Laser 000% OFF)
G0 F1000 X33.878398 Y62.584362
S1000	(---Laser 100% ON)
G1 F1000 X33.878398 Y62.584362 Z0.000000
G1 F1000 X35.191380 Y63.268296 Z0.000000
S0 		(--Laser 000% OFF)
S0 		(--Laser 000% OFF)
G0 F1000 X35.617493 Y65.815437
S1000	(---Laser 100% ON)
G1 F1000 X35.617493 Y65.815437 Z0.000000
G1 F1000 X38.674938 Y66.703087 Z0.000000
S0 		(--Laser 000% OFF)
S0 		(--Laser 000% OFF)
G0 F1000 X37.195530 Y66.273579
S1000	(---Laser 100% ON)
G1 F1000 X37.195530 Y66.273579 Z0.000000
G1 F1000 X38.773567 Y62.264858 Z0.000000
S0 		(--Laser 000% OFF)
S0 		(--Laser 000% OFF)
G0 F1000 X39.601944 Y66.842598
S1000	(---Laser 100% ON)
G1 F1000 X39.601944 Y66.842598 Z0.000000
G1 F1000 X41.338051 Y66.923347 Z0.000000
G1 F1000 X42.630039 Y66.923347 Z0.000000
S0 		(--Laser 000% OFF)
S0 		(--Laser 000% OFF)
G0 F1000 X41.338051 Y66.923347
S1000	(---Laser 100% ON)
G1 F1000 X41.338051 Y66.923347 Z0.000000
G1 F1000 X41.338051 Y62.885887 Z0.000000
S0 		(--Laser 000% OFF)
S0 		(--Laser 000% OFF)
G0 F1000 X93.914501 Y19.812416
S1000	(---Laser 100% ON)
G1 F1000 X93.914501 Y19.812416 Z0.000000
G1 F1000 X95.914501 Y13.053956 Z0.000000
G1 F1000 X97.914501 Y15.812416 Z0.000000
G1 F1000 X99.914501 Y13.201091 Z0.000000
G1 F1000 X101.914501 Y19.380739 Z0.000000
S0 		(--Laser 000% OFF)
S0 		(--Laser 000% OFF)
G0 F1000 X104.885391 Y13.348225
S1000	(---Laser 100% ON)
G1 F1000 X104.885391 Y13.348225 Z0.000000
G1 F1000 X104.885391 Y19.812416 Z0.000000
G1 F1000 X109.914501 Y15.408108 Z0.000000
S0 		(--Laser 000% OFF)
S0 		(--Laser 000% OFF)
G0 F1000 X104.885391 Y15.812416
S1000	(---Laser 100% ON)
G1 F1000 X104.885391 Y15.812416 Z0.000000
G1 F1000 X107.914501 Y17.159634 Z0.000000
S0 		(--Laser 000% OFF)
S0 		(--Laser 000% OFF)
G0 F1000 X108.208990 Y21.127307
S1000	(---Laser 100% ON)
G1 F1000 X108.208990 Y21.127307 Z0.000000
G1 F1000 X111.963900 Y23.697812 Z0.000000
S0 		(--Laser 000% OFF)
S0 		(--Laser 000% OFF)
G0 F1000 X110.300242 Y22.558918
S1000	(---Laser 100% ON)
G1 F1000 X110.300242 Y22.558918 Z0.000000
G1 F1000 X113.713459 Y17.467991 Z0.000000
S0 		(--Laser 000% OFF)
S0 		(--Laser 000% OFF)
G0 F1000 X115.037670 Y26.516762
S1000	(---Laser 100% ON)
G1 F1000 X115.037670 Y26.516762 Z0.000000
G1 F1000 X113.011474 Y24.409781 Z0.000000
G1 F1000 X117.054476 Y19.257559 Z0.000000
G1 F1000 X119.378139 Y21.882027 Z0.000000
S0 		(--Laser 000% OFF)
S0 		(--Laser 000% OFF)
G0 F1000 X114.861411 Y22.052304
S1000	(---Laser 100% ON)
G1 F1000 X114.861411 Y22.052304 Z0.000000
G1 F1000 X116.729717 Y23.868343 Z0.000000
S0 		(--Laser 000% OFF)
S0 		(--Laser 000% OFF)
G0 F1000 X121.879425 Y24.089043
S1000	(---Laser 100% ON)
G1 F1000 X121.879425 Y24.089043 Z0.000000
G1 F1000 X116.950420 Y28.282375 Z0.000000
G1 F1000 X118.714149 Y30.550627 Z0.000000
G1 F1000 X120.346882 Y30.623194 Z0.000000
G1 F1000 X121.852623 Y29.534704 Z0.000000
G1 F1000 X122.070320 Y27.883831 Z0.000000
G1 F1000 X121.143753 Y26.516762 Z0.000000
G1 F1000 X124.601414 Y26.516762 Z0.000000
S0 		(--Laser 000% OFF)
S0 		(--Laser 000% OFF)
G0 F1000 X78.832251 Y46.676508
S1000	(---Laser 100% ON)
G1 F1000 X78.832251 Y46.676508 Z0.000000
G1 F1000 X75.744242 Y50.877146 Z0.000000
G1 F1000 X81.075502 Y50.877146 Z0.000000
S0 		(--Laser 000% OFF)
S0 		(--Laser 000% OFF)
G0 F1000 X77.309360 Y48.748105
S1000	(---Laser 100% ON)
G1 F1000 X77.309360 Y48.748105 Z0.000000
G1 F1000 X78.394539 Y50.877146 Z0.000000
S0 		(--Laser 000% OFF)
S0 		(--Laser 000% OFF)
G0 F1000 X82.024519 Y52.060886
S1000	(---Laser 100% ON)
G1 F1000 X82.024519 Y52.060886 Z0.000000
G1 F1000 X78.350433 Y54.887104 Z0.000000
G1 F1000 X83.074257 Y54.079613 Z0.000000
G1 F1000 X80.005789 Y56.582836 Z0.000000
S0 		(--Laser 000% OFF)
S0 		(--Laser 000% OFF)
G0 F1000 X81.338152 Y57.834450
S1000	(---Laser 100% ON)
G1 F1000 X81.338152 Y57.834450 Z0.000000
G1 F1000 X84.083622 Y54.765984 Z0.000000
G1 F1000 X84.729616 Y55.896469 Z0.000000
G1 F1000 X84.527742 Y57.349953 Z0.000000
G1 F1000 X83.558752 Y58.318947 Z0.000000
G1 F1000 X82.387890 Y58.561191 Z0.000000
G1 F1000 X81.338152 Y57.834450 Z0.000000
S0 		(--Laser 000% OFF)
S0 		(--Laser 000% OFF)
G0 F1000 X87.313587 Y57.794075
S1000	(---Laser 100% ON)
G1 F1000 X87.313587 Y57.794075 Z0.000000
G1 F1000 X86.021602 Y56.582836 Z0.000000
G1 F1000 X83.558752 Y59.570557 Z0.000000
G1 F1000 X84.810364 Y60.499172 Z0.000000
S0 		(--Laser 000% OFF)
S0 		(--Laser 000% OFF)
G0 F1000 X84.823458 Y58.036323
S1000	(---Laser 100% ON)
G1 F1000 X84.823458 Y58.036323 Z0.000000
G1 F1000 X85.738981 Y58.964939 Z0.000000
S0 		(--Laser 000% OFF)
S0 		(--Laser 000% OFF)
G0 F1000 X88.605573 Y58.157444
S1000	(---Laser 100% ON)
G1 F1000 X88.605573 Y58.157444 Z0.000000
G1 F1000 X86.183100 Y61.387413 Z0.000000
G1 F1000 X86.990591 Y61.952656 Z0.000000
G1 F1000 X87.959581 Y61.871906 Z0.000000
G1 F1000 X88.686323 Y61.145164 Z0.000000
G1 F1000 X88.645950 Y60.256924 Z0.000000
G1 F1000 X87.999956 Y59.691681 Z0.000000
G1 F1000 X90.139808 Y58.924564 Z0.000000
S0 		(--Laser 000% OFF)
S0 		(--Laser 000% OFF)
G0 F1000 X91.149174 Y59.247559
S1000	(---Laser 100% ON)
G1 F1000 X91.149174 Y59.247559 Z0.000000
G1 F1000 X89.332315 Y63.002396 Z0.000000
G1 F1000 X91.391420 Y61.831531 Z0.000000
G1 F1000 X91.391420 Y63.971382 Z0.000000
G1 F1000 X93.369774 Y60.135799 Z0.000000
S0 		(--Laser 000% OFF)
S0 		(--Laser 000% OFF)
G0 F1000 X94.096515 Y60.499172
S1000	(---Laser 100% ON)
G1 F1000 X94.096515 Y60.499172 Z0.000000
G1 F1000 X93.450523 Y64.536629 Z0.000000
G1 F1000 X96.801616 Y61.589283 Z0.000000
S0 		(--Laser 000% OFF)
S0 		(--Laser 000% OFF)
G0 F1000 X93.792899 Y62.396778
S1000	(---Laser 100% ON)
G1 F1000 X93.792899 Y62.396778 Z0.000000
G1 F1000 X95.105881 Y63.080712 Z0.000000
S0 		(--Laser 000% OFF)
S0 		(--Laser 000% OFF)
G0 F1000 X95.531994 Y65.627853
S1000	(---Laser 100% ON)
G1 F1000 X95.531994 Y65.627853 Z0.000000
G1 F1000 X98.589439 Y66.515503 Z0.000000
S0 		(--Laser 000% OFF)
S0 		(--Laser 000% OFF)
G0 F1000 X97.110031 Y66.085995
S1000	(---Laser 100% ON)
G1 F1000 X97.110031 Y66.085995 Z0.000000
G1 F1000 X98.688068 Y62.077274 Z0.000000
S0 		(--Laser 000% OFF)
S0 		(--Laser 000% OFF)
G0 F1000 X99.516445 Y66.655014
S1000	(---Laser 100% ON)
G1 F1000 X99.516445 Y66.655014 Z0.000000
G1 F1000 X101.252552 Y66.735763 Z0.000000
G1 F1000 X102.544540 Y66.735763 Z0.000000
S0 		(--Laser 000% OFF)
S0 		(--Laser 000% OFF)
G0 F1000 X101.252552 Y66.735763
S1000	(---Laser 100% ON)
G1 F1000 X101.252552 Y66.735763 Z0.000000
G1 F1000 X101.252552 Y62.698303 Z0.000000
S0 		(--Laser 000% OFF)
S0 		(--Laser 000% OFF)
G0 F1000 X154.373371 Y18.579537
S1000	(---Laser 100% ON)
G1 F1000 X154.373371 Y18.579537 Z0.000000
G1 F1000 X156.373371 Y11.821077 Z0.000000
G1 F1000 X158.373371 Y14.579537 Z0.000000
G1 F1000 X160.373371 Y11.968212 Z0.000000
G1 F1000 X162.373371 Y18.147860 Z0.000000
S0 		(--Laser 000% OFF)
S0 		(--Laser 000% OFF)
G0 F1000 X165.344261 Y12.115346
S1000	(---Laser 100% ON)
G1 F1000 X165.344261 Y12.115346 Z0.000000
G1 F1000 X165.344261 Y18.579537 Z0.000000
G1 F1000 X170.373371 Y14.175229 Z0.000000
S0 		(--Laser 000% OFF)
S0 		(--Laser 000% OFF)
G0 F1000 X165.344261 Y14.579537
S1000	(---Laser 100% ON)
G1 F1000 X165.344261 Y14.579537 Z0.000000
G1 F1000 X168.373371 Y15.926755 Z0.000000
S0 		(--Laser 000% OFF)
S0 		(--Laser 000% OFF)
G0 F1000 X168.667860 Y19.894428
S1000	(---Laser 100% ON)
G1 F1000 X168.667860 Y19.894428 Z0.000000
G1 F1000 X172.422770 Y22.464933 Z0.000000
S0 		(--Laser 000% OFF)
S0 		(--Laser 000% OFF)
G0 F1000 X170.759112 Y21.326039
S1000	(---Laser 100% ON)
G1 F1000 X170.759112 Y21.326039 Z0.000000
G1 F1000 X174.172329 Y16.235112 Z0.000000
S0 		(--Laser 000% OFF)
S0 		(--Laser 000% OFF)
G0 F1000 X175.496540 Y25.283883
S1000	(---Laser 100% ON)
G1 F1000 X175.496540 Y25.283883 Z0.000000
G1 F1000 X173.470344 Y23.176902 Z0.000000
G1 F1000 X177.513346 Y18.024680 Z0.000000
G1 F1000 X179.837009 Y20.649148 Z0.000000
S0 		(--Laser 000% OFF)
S0 		(--Laser 000% OFF)
G0 F1000 X175.320281 Y20.819425
S1000	(---Laser 100% ON)
G1 F1000 X175.320281 Y20.819425 Z0.000000
G1 F1000 X177.188587 Y22.635464 Z0.000000
S0 		(--Laser 000% OFF)
S0 		(--Laser 000% OFF)
G0 F1000 X182.338295 Y22.856164
S1000	(---Laser 100% ON)
G1 F1000 X182.338295 Y22.856164 Z0.000000
G1 F1000 X177.409290 Y27.049496 Z0.000000
G1 F1000 X179.173019 Y29.317748 Z0.000000
G1 F1000 X180.805752 Y29.390315 Z0.000000
G1 F1000 X182.311493 Y28.301825 Z0.000000
G1 F1000 X182.529190 Y26.650952 Z0.000000
G1 F1000 X181.602623 Y25.283883 Z0.000000
G1 F1000 X185.060284 Y25.283883 Z0.000000
S0 		(--Laser 000% OFF)
S0 		(--Laser 000% OFF)
G0 F1000 X139.291121 Y45.443629
S1000	(---Laser 100% ON)
G1 F1000 X139.291121 Y45.443629 Z0.000000
G1 F1000 X136.203112 Y49.644267 Z0.000000
G1 F1000 X141.534372 Y49.644267 Z0.000000
S0 		(--Laser 000% OFF)
S0 		(--Laser 000% OFF)
G0 F1000 X137.768230 Y47.515226
S1000	(---Laser 100% ON)
G1 F1000 X137.768230 Y47.515226 Z0.000000
G1 F1000 X138.853409 Y49.644267 Z0.000000
S0 		(--Laser 000% OFF)
S0 		(--Laser 000% OFF)
G0 F1000 X142.483389 Y50.828007
S1000	(---Laser 100% ON)
G1 F1000 X142.483389 Y50.828007 Z0.000000
G1 F1000 X138.809303 Y53.654225 Z0.000000
G1 F1000 X143.533127 Y52.846734 Z0.000000
G1 F1000 X140.464659 Y55.349957 Z0.000000
S0 		(--Laser 000% OFF)
S0 		(--Laser 000% OFF)
G0 F1000 X141.797022 Y56.601571
S1000	(---Laser 100% ON)
G1 F1000 X141.797022 Y56.601571 Z0.000000
G1 F1000 X144.542492 Y53.533105 Z0.000000
G1 F1000 X145.188486 Y54.663590 Z0.000000
G1 F1000 X144.986612 Y56.117074 Z0.000000
G1 F1000 X144.017622 Y57.086068 Z0.000000
G1 F1000 X142.846760 Y57.328312 Z0.000000
G1 F1000 X141.797022 Y56.601571 Z0.000000
S0 		(--Laser 000% OFF)
S0 		(--Laser 000% OFF)
G0 F1000 X147.772457 Y56.561196
S1000	(---Laser 100% ON)
G1 F1000 X147.772457 Y56.561196 Z0.000000
G1 F1000 X146.480472 Y55.349957 Z0.000000
G1 F1000 X144.017622 Y58.337678 Z0.000000
G1 F1000 X145.269234 Y59.266293 Z0.000000
S0 		(--Laser 000% OFF)
S0 		(--Laser 000% OFF)
G0 F1000 X145.282328 Y56.803444
S1000	(---Laser 100% ON)
G1 F1000 X145.282328 Y56.803444 Z0.000000
G1 F1000 X146.197851 Y57.732060 Z0.000000
S0 		(--Laser 000% OFF)
S0 		(--Laser 000% OFF)
G0 F1000 X149.064443 Y56.924565
S1000	(---Laser 100% ON)
G1 F1000 X149.064443 Y56.924565 Z0.000000
G1 F1000 X146.641970 Y60.154534 Z0.000000
G1 F1000 X147.449461 Y60.719777 Z0.000000
G1 F1000 X148.418451 Y60.639027 Z0.000000
G1 F1000 X149.145193 Y59.912285 Z0.000000
G1 F1000 X149.104820 Y59.024045 Z0.000000
G1 F1000 X148.458826 Y58.458802 Z0.000000
G1 F1000 X150.598678 Y57.691685 Z0.000000
S0 		(--Laser 000% OFF)
S0 		(--Laser 000% OFF)
G0 F1000 X151.608044 Y58.014680
S1000	(---Laser 100% ON)
G1 F1000 X151.608044 Y58.014680 Z0.000000
G1 F1000 X149.791185 Y61.769517 Z0.000000
G1 F1000 X151.850290 Y60.598652 Z0.000000
G1 F1000 X151.850290 Y62.738503 Z0.000000
G1 F1000 X153.828644 Y58.902920 Z0.000000
S0 		(--Laser 000% OFF)
S0 		(--Laser 000% OFF)
G0 F1000 X154.555385 Y59.266293
S1000	(---Laser 100% ON)
G1 F1000 X154.555385 Y59.266293 Z0.000000
G1 F1000 X153.909393 Y63.303750 Z0.000000
G1 F1000 X157.260486 Y60.356404 Z0.000000
S0 		(--Laser 000% OFF)
S0 		(--Laser 000% OFF)
G0 F1000 X154.251769 Y61.163899
S1000	(---Laser 100% ON)
G1 F1000 X154.251769 Y61.163899 Z0.000000
G1 F1000 X155.564751 Y61.847833 Z0.000000
S0 		(--Laser 000% OFF)
S0 		(--Laser 000% OFF)
G0 F1000 X155.990864 Y64.394974
S1000	(---Laser 100% ON)
G1 F1000 X155.990864 Y64.394974 Z0.000000
G1 F1000 X159.048309 Y65.282624 Z0.000000
S0 		(--Laser 000% OFF)
S0 		(--Laser 000% OFF)
G0 F1000 X157.568901 Y64.853116
S1000	(---Laser 100% ON)
G1 F1000 X157.568901 Y64.853116 Z0.000000
G1 F1000 X159.146938 Y60.844395 Z0.000000
S0 		(--Laser 000% OFF)
S0 		(--Laser 000% OFF)
G0 F1000 X159.975315 Y65.422135
S1000	(---Laser 100% ON)
G1 F1000 X159.975315 Y65.422135 Z0.000000
G1 F1000 X161.711422 Y65.502884 Z0.000000
G1 F1000 X163.003410 Y65.502884 Z0.000000
S0 		(--Laser 000% OFF)
S0 		(--Laser 000% OFF)
G0 F1000 X161.711422 Y65.502884
S1000	(---Laser 100% ON)
G1 F1000 X161.711422 Y65.502884 Z0.000000
G1 F1000 X161.711422 Y61.465424 Z0.000000
S0 		(--Laser 000% OFF)
S0 		(--Laser 000% OFF)
G0 F1000 X33.991161 Y80.736519
S1000	(---Laser 100% ON)
G1 F1000 X33.991161 Y80.736519 Z0.000000
G1 F1000 X35.991161 Y73.978059 Z0.000000
G1 F1000 X37.991161 Y76.736519 Z0.000000
G1 F1000 X39.991161 Y74.125194 Z0.000000
G1 F1000 X41.991161 Y80.304842 Z0.000000
S0 		(--Laser 000% OFF)
S0 		(--Laser 000% OFF)
G0 F1000 X44.962051 Y74.272328
S1000	(---Laser 100% ON)
G1 F1000 X44.962051 Y74.272328 Z0.000000
G1 F1000 X44.962051 Y80.736519 Z0.000000
G1 F1000 X49.991161 Y76.332211 Z0.000000
S0 		(--Laser 000% OFF)
S0 		(--Laser 000% OFF)
G0 F1000 X44.962051 Y76.736519
S1000	(---Laser 100% ON)
G1 F1000 X44.962051 Y76.736519 Z0.000000
G1 F1000 X47.991161 Y78.083737 Z0.000000
S0 		(--Laser 000% OFF)
S0 		(--Laser 000% OFF)
G0 F1000 X48.285650 Y82.051410
S1000	(---Laser 100% ON)
G1 F1000 X48.285650 Y82.051410 Z0.000000
G1 F1000 X52.040560 Y84.621915 Z0.000000
S0 		(--Laser 000% OFF)
S0 		(--Laser 000% OFF)
G0 F1000 X50.376902 Y83.483021
S1000	(---Laser 100% ON)
G1 F1000 X50.376902 Y83.483021 Z0.000000
G1 F1000 X53.790119 Y78.392094 Z0.000000
S0 		(--Laser 000% OFF)
S0 		(--Laser 000% OFF)
G0 F1000 X55.114330 Y87.440865
S1000	(---Laser 100% ON)
G1 F1000 X55.114330 Y87.440865 Z0.000000
G1 F1000 X53.088134 Y85.333884 Z0.000000
G1 F1000 X57.131136 Y80.181662 Z0.000000
G1 F1000 X59.454799 Y82.806130 Z0.000000
S0 		(--Laser 000% OFF)
S0 		(--Laser 000% OFF)
G0 F1000 X54.938071 Y82.976407
S1000	(---Laser 100% ON)
G1 F1000 X54.938071 Y82.976407 Z0.000000
G1 F1000 X56.806377 Y84.792446 Z0.000000
S0 		(--Laser 000% OFF)
S0 		(--Laser 000% OFF)
G0 F1000 X61.956085 Y85.013146
S1000	(---Laser 100% ON)
G1 F1000 X61.956085 Y85.013146 Z0.000000
G1 F1000 X57.027080 Y89.206478 Z0.000000
G1 F1000 X58.790809 Y91.474730 Z0.000000
G1 F1000 X60.423542 Y91.547297 Z0.000000
G1 F1000 X61.929283 Y90.458807 Z0.000000
G1 F1000 X62.146980 Y88.807934 Z0.000000
G1 F1000 X61.220413 Y87.440865 Z0.000000
G1 F1000 X64.678074 Y87.440865 Z0.000000
S0 		(--Laser 000% OFF)
S0 		(--Laser 000% OFF)
G0 F1000 X18.908911 Y107.600611
S1000	(---Laser 100% ON)
G1 F1000 X18.908911 Y107.600611 Z0.000000
G1 F1000 X15.820902 Y111.801249 Z0.000000
G1 F1000 X21.152162 Y111.801249 Z0.000000
S0 		(--Laser 000% OFF)
S0 		(--Laser 000% OFF)
G0 F1000 X17.386020 Y109.672208
S1000	(---Laser 100% ON)
G1 F1000 X17.386020 Y109.672208 Z0.000000
G1 F1000 X18.471199 Y111.801249 Z0.000000
S0 		(--Laser 000% OFF)
S0 		(--Laser 000% OFF)
G0 F1000 X22.101179 Y112.984989
S1000	(---Laser 100% ON)
G1 F1000 X22.101179 Y112.984989 Z0.000000
G1 F1000 X18.427093 Y115.811207 Z0.000000
G1 F1000 X23.150917 Y115.003716 Z0.000000
G1 F1000 X20.082449 Y117.506939 Z0.000000
S0 		(--Laser 000% OFF)
S0 		(--Laser 000% OFF)
G0 F1000 X21.414812 Y118.758553
S1000	(---Laser 100% ON)
G1 F1000 X21.414812 Y118.758553 Z0.000000
G1 F1000 X24.160282 Y115.690087 Z0.000000
G1 F1000 X24.806276 Y116.820572 Z0.000000
G1 F1000 X24.604402 Y118.274056 Z0.000000
G1 F1000 X23.635412 Y119.243050 Z0.000000
G1 F1000 X22.464550 Y119.485294 Z0.000000
G1 F1000 X21.414812 Y118.758553 Z0.000000
S0 		(--Laser 000% OFF)
S0 		(--Laser 000% OFF)
G0 F1000 X27.390247 Y118.718178
S1000	(---Laser 100% ON)
G1 F1000 X27.390247 Y118.718178 Z0.000000
G1 F1000 X26.098262 Y117.506939 Z0.000000
G1 F1000 X23.635412 Y120.494660 Z0.000000
G1 F1000 X24.887024 Y121.423275 Z0.000000
S0 		(--Laser 000% OFF)
S0 		(--Laser 000% OFF)
G0 F1000 X24.900118 Y118.960426
S1000	(---Laser 100% ON)
G1 F1000 X24.900118 Y118.960426 Z0.000000
G1 F1000 X25.815641 Y119.889042 Z0.000000
S0 		(--Laser 000% OFF)
S0 		(--Laser 000% OFF)
G0 F1000 X28.682233 Y119.081547
S1000	(---Laser 100% ON)
G1 F1000 X28.682233 Y119.081547 Z0.000000
G1 F1000 X26.259760 Y122.311516 Z0.000000
G1 F1000 X27.067251 Y122.876759 Z0.000000
G1 F1000 X28.036241 Y122.796009 Z0.000000
G1 F1000 X28.762983 Y122.069267 Z0.000000
G1 F1000 X28.722610 Y121.181027 Z0.000000
G1 F1000 X28.076616 Y120.615784 Z0.000000
G1 F1000 X30.216468 Y119.848667 Z0.000000
S0 		(--Laser 000% OFF)
S0 		(--Laser 000% OFF)
G0 F1000 X31.225834 Y120.171662
S1000	(---Laser 100% ON)
G1 F1000 X31.225834 Y120.171662 Z0.000000
G1 F1000 X29.408975 Y123.926499 Z0.000000
G1 F1000 X31.468080 Y122.755634 Z0.000000
G1 F1000 X31.468080 Y124.895485 Z0.000000
G1 F1000 X33.446434 Y121.059902 Z0.000000
S0 		(--Laser 000% OFF)
S0 		(--Laser 000% OFF)
G0 F1000 X34.173175 Y121.423275
S1000	(---Laser 100% ON)
G1 F1000 X34.173175 Y121.423275 Z0.000000
G1 F1000 X33.527183 Y125.460732 Z0.000000
G1 F1000 X36.878276 Y122.513386 Z0.000000
S0 		(--Laser 000% OFF)
S0 		(--Laser 000% OFF)
G0 F1000 X33.869559 Y123.320881
S1000	(---Laser 100% ON)
G1 F1000 X33.869559 Y123.320881 Z0.000000
G1 F1000 X35.182541 Y124.004815 Z0.000000
S0 		(--Laser 000% OFF)
S0 		(--Laser 000% OFF)
G0 F1000 X35.608654 Y126.551956
S1000	(---Laser 100% ON)
G1 F1000 X35.608654 Y126.551956 Z0.000000
G1 F1000 X38.666099 Y127.439606 Z0.000000
S0 		(--Laser 000% OFF)
S0 		(--Laser 000% OFF)
G0 F1000 X37.186691 Y127.010098
S1000	(---Laser 100% ON)
G1 F1000 X37.186691 Y127.010098 Z0.000000
G1 F1000 X38.764728 Y123.001377 Z0.000000
S0 		(--Laser 000% OFF)
S0 		(--Laser 000% OFF)
G0 F1000 X39.593105 Y127.579117
S1000	(---Laser 100% ON)
G1 F1000 X39.593105 Y127.579117 Z0.000000
G1 F1000 X41.329212 Y127.659866 Z0.000000
G1 F1000 X42.621200 Y127.659866 Z0.000000
S0 		(--Laser 000% OFF)
S0 		(--Laser 000% OFF)
G0 F1000 X41.329212 Y127.659866
S1000	(---Laser 100% ON)
G1 F1000 X41.329212 Y127.659866 Z0.000000
G1 F1000 X41.329212 Y123.622406 Z0.000000
S0 		(--Laser 000% OFF)
S0 		(--Laser 000% OFF)
G0 F1000 X93.832905 Y80.003769
S1000	(---Laser 100% ON)
G1 F1000 X93.832905 Y80.003769 Z0.000000
G1 F1000 X95.832905 Y73.245309 Z0.000000
G1 F1000 X97.832905 Y76.003769 Z0.000000
G1 F1000 X99.832905 Y73.392444 Z0.000000
G1 F1000 X101.832905 Y79.572092 Z0.000000
S0 		(--Laser 000% OFF)
S0 		(--Laser 000% OFF)
G0 F1000 X104.803795 Y73.539578
S1000	(---Laser 100% ON)
G1 F1000 X104.803795 Y73.539578 Z0.000000
G1 F1000 X104.803795 Y80.003769 Z0.000000
G1 F1000 X109.832905 Y75.599461 Z0.000000
S0 		(--Laser 000% OFF)
S0 		(--Laser 000% OFF)
G0 F1000 X104.803795 Y76.003769
S1000	(---Laser 100% ON)
G1 F1000 X104.803795 Y76.003769 Z0.000000
G1 F1000 X107.832905 Y77.350987 Z0.000000
S0 		(--Laser 000% OFF)
S0 		(--Laser 000% OFF)
G0 F1000 X108.127394 Y81.318660
S1000	(---Laser 100% ON)
G1 F1000 X108.127394 Y81.318660 Z0.000000
G1 F1000 X111.882304 Y83.889165 Z0.000000
S0 		(--Laser 000% OFF)
S0 		(--Laser 000% OFF)
G0 F1000 X110.218646 Y82.750271
S1000	(---Laser 100% ON)
G1 F1000 X110.218646 Y82.750271 Z0.000000
G1 F1000 X113.631863 Y77.659344 Z0.000000
S0 		(--Laser 000% OFF)
S0 		(--Laser 000% OFF)
G0 F1000 X114.956074 Y86.708115
S1000	(---Laser 100% ON)
G1 F1000 X114.956074 Y86.708115 Z0.000000
G1 F1000 X112.929878 Y84.601134 Z0.000000
G1 F1000 X116.972880 Y79.448912 Z0.000000
G1 F1000 X119.296543 Y82.073380 Z0.000000
S0 		(--Laser 000% OFF)
S0 		(--Laser 000% OFF)
G0 F1000 X114.779815 Y82.243657
S1000	(---Laser 100% ON)
G1 F1000 X114.779815 Y82.243657 Z0.000000
G1 F1000 X116.648121 Y84.059696 Z0.000000
S0 		(--Laser 000% OFF)
S0 		(--Laser 000% OFF)
G0 F1000 X121.797829 Y84.280396
S1000	(---Laser 100% ON)
G1 F1000 X121.797829 Y84.280396 Z0.000000
G1 F1000 X116.868824 Y88.473728 Z0.000000
G1 F1000 X118.632553 Y90.741980 Z0.000000
G1 F1000 X120.265286 Y90.814547 Z0.000000
G1 F1000 X121.771027 Y89.726057 Z0.000000
G1 F1000 X121.988724 Y88.075184 Z0.000000
G1 F1000 X121.062157 Y86.708115 Z0.000000
G1 F1000 X124.519818 Y86.708115 Z0.000000
S0 		(--Laser 000% OFF)
S0 		(--Laser 000% OFF)
G0 F1000 X78.750655 Y106.867861
S1000	(---Laser 100% ON)
G1 F1000 X78.750655 Y106.867861 Z0.000000
G1 F1000 X75.662646 Y111.068499 Z0.000000
G1 F1000 X80.993906 Y111.068499 Z0.000000
S0 		(--Laser 000% OFF)
S0 		(--Laser 000% OFF)
G0 F1000 X77.227764 Y108.939458
S1000	(---Laser 100% ON)
G1 F1000 X77.227764 Y108.939458 Z0.000000
G1 F1000 X78.312943 Y111.068499 Z0.000000
S0 		(--Laser 000% OFF)
S0 		(--Laser 000% OFF)
G0 F1000 X81.942923 Y112.252239
S1000	(---Laser 100% ON)
G1 F1000 X81.942923 Y112.252239 Z0.000000
G1 F1000 X78.268837 Y115.078457 Z0.000000
G1 F1000 X82.992661 Y114.270966 Z0.000000
G1 F1000 X79.924193 Y116.774189 Z0.000000
S0 		(--Laser 000% OFF)
S0 		(--Laser 000% OFF)
G0 F1000 X81.256556 Y118.025803
S1000	(---Laser 100% ON)
G1 F1000 X81.256556 Y118.025803 Z0.000000
G1 F1000 X84.002026 Y114.957337 Z0.000000
G1 F1000 X84.648020 Y116.087822 Z0.000000
G1 F1000 X84.446146 Y117.541306 Z0.000000
G1 F1000 X83.477156 Y118.510300 Z0.000000
G1 F1000 X82.306294 Y118.752544 Z0.000000
G1 F1000 X81.256556 Y118.025803 Z0.000000
S0 		(--Laser 000% OFF)
S0 		(--Laser 000% OFF)
G0 F1000 X87.231991 Y117.985428
S1000	(---Laser 100% ON)
G1 F1000 X87.231991 Y117.985428 Z0.000000
G1 F1000 X85.940006 Y116.774189 Z0.000000
G1 F1000 X83.477156 Y119.761910 Z0.000000
G1 F1000 X84.728768 Y120.690525 Z0.000000
S0 		(--Laser 000% OFF)
S0 		(--Laser 000% OFF)
G0 F1000 X84.741862 Y118.227676
S1000	(---Laser 100% ON)
G1 F1000 X84.741862 Y118.227676 Z0.000000
G1 F1000 X85.657385 Y119.156292 Z0.000000
S0 		(--Laser 000% OFF)
S0 		(--Laser 000% OFF)
G0 F1000 X88.523977 Y118.348797
S1000	(---Laser 100% ON)
G1 F1000 X88.523977 Y118.348797 Z0.000000
G1 F1000 X86.101504 Y121.578766 Z0.000000
G1 F1000 X86.908995 Y122.144009 Z0.000000
G1 F1000 X87.877985 Y122.063259 Z0.000000
G1 F1000 X88.604727 Y121.336517 Z0.000000
G1 F1000 X88.564354 Y120.448277 Z0.000000
G1 F1000 X87.918360 Y119.883034 Z0.000000
G1 F1000 X90.058212 Y119.115917 Z0.000000
S0 		(--Laser 000% OFF)
S0 		(--Laser 000% OFF)
G0 F1000 X91.067578 Y119.438912
S1000	(---Laser 100% ON)
G1 F1000 X91.067578 Y119.438912 Z0.000000
G1 F1000 X89.250719 Y123.193749 Z0.000000
G1 F1000 X91.309824 Y122.022884 Z0.000000
G1 F1000 X91.309824 Y124.162735 Z0.000000
G1 F1000 X93.288178 Y120.327152 Z0.000000
S0 		(--Laser 000% OFF)
S0 		(--Laser 000% OFF)
G0 F1000 X94.014919 Y120.690525
S1000	(---Laser 100% ON)
G1 F1000 X94.014919 Y120.690525 Z0.000000
G1 F1000 X93.368927 Y124.727982 Z0.000000
G1 F1000 X96.720020 Y121.780636 Z0.000000
S0 		(--Laser 000% OFF)
S0 		(--Laser 000% OFF)
G0 F1000 X93.711303 Y122.588131
S1000	(---Laser 100% ON)
G1 F1000 X93.711303 Y122.588131 Z0.000000
G1 F1000 X95.024285 Y123.272065 Z0.000000
S0 		(--Laser 000% OFF)
S0 		(--Laser 000% OFF)
G0 F1000 X95.450398 Y125.819206
S1000	(---Laser 100% ON)
G1 F1000 X95.450398 Y125.819206 Z0.000000
G1 F1000 X98.507843 Y126.706856 Z0.000000
S0 		(--Laser 000% OFF)
S0 		(--Laser 000% OFF)
G0 F1000 X97.028435 Y126.277348
S1000	(---Laser 100% ON)
G1 F1000 X97.028435 Y126.277348 Z0.000000
G1 F1000 X98.606472 Y122.268627 Z0.000000
S0 		(--Laser 000% OFF)
S0 		(--Laser 000% OFF)
G0 F1000 X99.434849 Y126.846367
S1000	(---Laser 100% ON)
G1 F1000 X99.434849 Y126.846367 Z0.000000
G1 F1000 X101.170956 Y126.927116 Z0.000000
G1 F1000 X102.462944 Y126.927116 Z0.000000
S0 		(--Laser 000% OFF)
S0 		(--Laser 000% OFF)
G0 F1000 X101.170956 Y126.927116
S1000	(---Laser 100% ON)
G1 F1000 X101.170956 Y126.927116 Z0.000000
G1 F1000 X101.170956 Y122.889656 Z0.000000
S0 		(--Laser 000% OFF)
S0 		(--Laser 000% OFF)
G0 F1000 X154.163166 Y80.003769
S1000	(---Laser 100% ON)
G1 F1000 X154.163166 Y80.003769 Z0.000000
G1 F1000 X156.163166 Y73.245309 Z0.000000
G1 F1000 X158.163166 Y76.003769 Z0.000000
G1 F1000 X160.163166 Y73.392444 Z0.000000
G1 F1000 X162.163166 Y79.572092 Z0.000000
S0 		(--Laser 000% OFF)
S0 		(--Laser 000% OFF)
G0 F1000 X165.134056 Y73.539578
S1000	(---Laser 100% ON)
G1 F1000 X165.134056 Y73.539578 Z0.000000
G1 F1000 X165.134056 Y80.003769 Z0.000000
G1 F1000 X170.163166 Y75.599461 Z0.000000
S0 		(--Laser 000% OFF)
S0 		(--Laser 000% OFF)
G0 F1000 X165.134056 Y76.003769
S1000	(---Laser 100% ON)
G1 F1000 X165.134056 Y76.003769 Z0.000000
G1 F1000 X168.163166 Y77.350987 Z0.000000
S0 		(--Laser 000% OFF)
S0 		(--Laser 000% OFF)
G0 F1000 X168.457655 Y81.318660
S1000	(---Laser 100% ON)
G1 F1000 X168.457655 Y81.318660 Z0.000000
G1 F1000 X172.212565 Y83.889165 Z0.000000
S0 		(--Laser 000% OFF)
S0 		(--Laser 000% OFF)
G0 F1000 X170.548907 Y82.750271
S1000	(---Laser 100% ON)
G1 F1000 X170.548907 Y82.750271 Z0.000000
G1 F1000 X173.962124 Y77.659344 Z0.000000
S0 		(--Laser 000% OFF)
S0 		(--Laser 000% OFF)
G0 F1000 X175.286335 Y86.708115
S1000	(---Laser 100% ON)
G1 F1000 X175.286335 Y86.708115 Z0.000000
G1 F1000 X173.260139 Y84.601134 Z0.000000
G1 F1000 X177.303141 Y79.448912 Z0.000000
G1 F1000 X179.626804 Y82.073380 Z0.000000
S0 		(--Laser 000% OFF)
S0 		(--Laser 000% OFF)
G0 F1000 X175.110076 Y82.243657
S1000	(---Laser 100% ON)
G1 F1000 X175.110076 Y82.243657 Z0.000000
G1 F1000 X176.978382 Y84.059696 Z0.000000
S0 		(--Laser 000% OFF)
S0 		(--Laser 000% OFF)
G0 F1000 X182.128090 Y84.280396
S1000	(---Laser 100% ON)
G1 F1000 X182.128090 Y84.280396 Z0.000000
G1 F1000 X177.199085 Y88.473728 Z0.000000
G1 F1000 X178.962814 Y90.741980 Z0.000000
G1 F1000 X180.595547 Y90.814547 Z0.000000
G1 F1000 X182.101288 Y89.726057 Z0.000000
G1 F1000 X182.318985 Y88.075184 Z0.000000
G1 F1000 X181.392418 Y86.708115 Z0.000000
G1 F1000 X184.850079 Y86.708115 Z0.000000
S0 		(--Laser 000% OFF)
S0 		(--Laser 000% OFF)
G0 F1000 X139.080916 Y106.867861
S1000	(---Laser 100% ON)
G1 F1000 X139.080916 Y106.867861 Z0.000000
G1 F1000 X135.992907 Y111.068499 Z0.000000
G1 F1000 X141.324167 Y111.068499 Z0.000000
S0 		(--Laser 000% OFF)
S0 		(--Laser 000% OFF)
G0 F1000 X137.558025 Y108.939458
S1000	(---Laser 100% ON)
G1 F1000 X137.558025 Y108.939458 Z0.000000
G1 F1000 X138.643204 Y111.068499 Z0.000000
S0 		(--Laser 000% OFF)
S0 		(--Laser 000% OFF)
G0 F1000 X142.273184 Y112.252239
S1000	(---Laser 100% ON)
G1 F1000 X142.273184 Y112.252239 Z0.000000
G1 F1000 X138.599098 Y115.078457 Z0.000000
G1 F1000 X143.322922 Y114.270966 Z0.000000
G1 F1000 X140.254454 Y116.774189 Z0.000000
S0 		(--Laser 000% OFF)
S0 		(--Laser 000% OFF)
G0 F1000 X141.586817 Y118.025803
S1000	(---Laser 100% ON)
G1 F1000 X141.586817 Y118.025803 Z0.000000
G1 F1000 X144.332287 Y114.957337 Z0.000000
G1 F1000 X144.978281 Y116.087822 Z0.000000
G1 F1000 X144.776407 Y117.541306 Z0.000000
G1 F1000 X143.807417 Y118.510300 Z0.000000
G1 F1000 X142.636555 Y118.752544 Z0.000000
G1 F1000 X141.586817 Y118.025803 Z0.000000
S0 		(--Laser 000% OFF)
S0 		(--Laser 000% OFF)
G0 F1000 X147.562252 Y117.985428
S1000	(---Laser 100% ON)
G1 F1000 X147.562252 Y117.985428 Z0.000000
G1 F1000 X146.270267 Y116.774189 Z0.000000
G1 F1000 X143.807417 Y119.761910 Z0.000000
G1 F1000 X145.059029 Y120.690525 Z0.000000
S0 		(--Laser 000% OFF)
S0 		(--Laser 000% OFF)
G0 F1000 X145.072123 Y118.227676
S1000	(---Laser 100% ON)
G1 F1000 X145.072123 Y118.227676 Z0.000000
G1 F1000 X145.987646 Y119.156292 Z0.000000
S0 		(--Laser 000% OFF)
S0 		(--Laser 000% OFF)
G0 F1000 X148.854238 Y118.348797
S1000	(---Laser 100% ON)
G1 F1000 X148.854238 Y118.348797 Z0.000000
G1 F1000 X146.431765 Y121.578766 Z0.000000
G1 F1000 X147.239256 Y122.144009 Z0.000000
G1 F1000 X148.208246 Y122.063259 Z0.000000
G1 F1000 X148.934988 Y121.336517 Z0.000000
G1 F1000 X148.894615 Y120.448277 Z0.000000
G1 F1000 X148.248621 Y119.883034 Z0.000000
G1 F1000 X150.388473 Y119.115917 Z0.000000
S0 		(--Laser 000% OFF)
S0 		(--Laser 000% OFF)
G0 F1000 X151.397839 Y119.438912
S1000	(---Laser 100% ON)
G1 F1000 X151.397839 Y119.438912 Z0.000000
G1 F1000 X149.580980 Y123.193749 Z0.000000
G1 F1000 X151.640085 Y122.022884 Z0.000000
G1 F1000 X151.640085 Y124.162735 Z0.000000
G1 F1000 X153.618439 Y120.327152 Z0.000000
S0 		(--Laser 000% OFF)
S0 		(--Laser 000% OFF)
G0 F1000 X154.345180 Y120.690525
S1000	(---Laser 100% ON)
G1 F1000 X154.345180 Y120.690525 Z0.000000
G1 F1000 X153.699188 Y124.727982 Z0.000000
G1 F1000 X157.050281 Y121.780636 Z0.000000
S0 		(--Laser 000% OFF)
S0 		(--Laser 000% OFF)
G0 F1000 X154.041564 Y122.588131
S1000	(---Laser 100% ON)
G1 F1000 X154.041564 Y122.588131 Z0.000000
G1 F1000 X155.354546 Y123.272065 Z0.000000
S0 		(--Laser 000% OFF)
S0 		(--Laser 000% OFF)
G0 F1000 X155.780659 Y125.819206
S1000	(---Laser 100% ON)
G1 F1000 X155.780659 Y125.819206 Z0.000000
G1 F1000 X158.838104 Y126.706856 Z0.000000
S0 		(--Laser 000% OFF)
S0 		(--Laser 000% OFF)
G0 F1000 X157.358696 Y126.277348
S1000	(---Laser 100% ON)
G1 F1000 X157.358696 Y126.277348 Z0.000000
G1 F1000 X158.936733 Y122.268627 Z0.000000
S0 		(--Laser 000% OFF)
S0 		(--Laser 000% OFF)
G0 F1000 X159.765110 Y126.846367
S1000	(---Laser 100% ON)
G1 F1000 X159.765110 Y126.846367 Z0.000000
G1 F1000 X161.501217 Y126.927116 Z0.000000
G1 F1000 X162.793205 Y126.927116 Z0.000000
S0 		(--Laser 000% OFF)
S0 		(--Laser 000% OFF)
G0 F1000 X161.501217 Y126.927116
S1000	(---Laser 100% ON)
G1 F1000 X161.501217 Y126.927116 Z0.000000
G1 F1000 X161.501217 Y122.889656 Z0.000000
G0 Z6.000000



(=END Engrave===========================)
(======END============)
(G00 – Rapid Positioning------------Laser OFF)
S0 
G0 Z10.000000
