(======HEADER=====================)
(G00 – Rapid Positioning------------Laser OFF)
(G01 – Linear interpolation------------ )
(G02 – Circular interpolation CCW------------ )
(G02 – Circular interpolation CW------------ )
(Gcode G91 & Gcode G90: CNC Absolute and Incremental Programming)
(S00 - S1000 Spindle speed)
(M03 – Spindle on in a clockwise)
(======POST PROCESSING===========)
(REPLACE (CUT); (CUT) \r\n S0	(---Laser 100% Ooff))
(REPLACE F0.166667 ; F1000)
(REPLACE F8.333333 ; F1000)
(REPLACE Z-5.000000 
S1000	(---Laser 100% ON) ;  )
(======START=====================)
(======CODE MANDATORY============)
M3 S0  (M03 – Spindle on in a clockwise)
(================================)
S0 		(--Laser 000% OFF)
G0 F1000 X0.000000 Y0.000000
S0	(---Laser 100% Ooff)
S0 		(--Laser 000% OFF)
(=BEGIN Engrave=========================)

(Engrave)
S0	(---Laser 100% Ooff)
S0	(---Laser 100% Ooff)
G0 F0.000000 X57.500000 Y40.000000
(CUT) 
S0	(---Laser 100% Ooff)
G1 F0.000000 X57.500000 Y40.000000 Z-5.000000 
S1000	(---Laser 100% ON)
G3 F0.000000 I-17.500000 J0.000000 K0.000000 X57.500000 Y40.000000 Z-5.000000 
S0	(---Laser 100% Ooff)
G0 F0.000000 X70.000000 Y40.000000
(CUT) 
S0	(---Laser 100% Ooff)
G1 F0.000000 X70.000000 Y40.000000 Z-5.000000 
S1000	(---Laser 100% ON)
G3 F0.000000 I-30.000000 J0.000000 K0.000000 X70.000000 Y40.000000 Z-5.000000 
S0	(---Laser 100% Ooff)
G0 F0.000000 X117.500000 Y40.000000
(CUT) 
S0	(---Laser 100% Ooff)
G1 F0.000000 X117.500000 Y40.000000 Z-5.000000 
S1000	(---Laser 100% ON)
G3 F0.000000 I-17.500000 J0.000000 K0.000000 X117.500000 Y40.000000 Z-5.000000 
S0	(---Laser 100% Ooff)
G0 F0.000000 X130.000000 Y40.000000
(CUT) 
S0	(---Laser 100% Ooff)
G1 F0.000000 X130.000000 Y40.000000 Z-5.000000 
S1000	(---Laser 100% ON)
G3 F0.000000 I-30.000000 J0.000000 K0.000000 X130.000000 Y40.000000 Z-5.000000 
S0	(---Laser 100% Ooff)
G0 F0.000000 X177.500000 Y40.000000
(CUT) 
S0	(---Laser 100% Ooff)
G1 F0.000000 X177.500000 Y40.000000 Z-5.000000 
S1000	(---Laser 100% ON)
G3 F0.000000 I-17.500000 J0.000000 K0.000000 X177.500000 Y40.000000 Z-5.000000 
S0	(---Laser 100% Ooff)
G0 F0.000000 X190.000000 Y40.000000
(CUT) 
S0	(---Laser 100% Ooff)
G1 F0.000000 X190.000000 Y40.000000 Z-5.000000 
S1000	(---Laser 100% ON)
G3 F0.000000 I-30.000000 J0.000000 K0.000000 X190.000000 Y40.000000 Z-5.000000 
S0	(---Laser 100% Ooff)
G0 F0.000000 X57.500000 Y100.000000
(CUT) 
S0	(---Laser 100% Ooff)
G1 F0.000000 X57.500000 Y100.000000 Z-5.000000 
S1000	(---Laser 100% ON)
G3 F0.000000 I-17.500000 J0.000000 K0.000000 X57.500000 Y100.000000 Z-5.000000 
S0	(---Laser 100% Ooff)
G0 F0.000000 X70.000000 Y100.000000
(CUT) 
S0	(---Laser 100% Ooff)
G1 F0.000000 X70.000000 Y100.000000 Z-5.000000 
S1000	(---Laser 100% ON)
G3 F0.000000 I-30.000000 J0.000000 K0.000000 X70.000000 Y100.000000 Z-5.000000 
S0	(---Laser 100% Ooff)
G0 F0.000000 X117.500000 Y100.000000
(CUT) 
S0	(---Laser 100% Ooff)
G1 F0.000000 X117.500000 Y100.000000 Z-5.000000 
S1000	(---Laser 100% ON)
G3 F0.000000 I-17.500000 J0.000000 K0.000000 X117.500000 Y100.000000 Z-5.000000 
S0	(---Laser 100% Ooff)
G0 F0.000000 X130.000000 Y100.000000
(CUT) 
S0	(---Laser 100% Ooff)
G1 F0.000000 X130.000000 Y100.000000 Z-5.000000 
S1000	(---Laser 100% ON)
G3 F0.000000 I-30.000000 J0.000000 K0.000000 X130.000000 Y100.000000 Z-5.000000 
S0	(---Laser 100% Ooff)
G0 F0.000000 X177.500000 Y100.000000
(CUT) 
S0	(---Laser 100% Ooff)
G1 F0.000000 X177.500000 Y100.000000 Z-5.000000 
S1000	(---Laser 100% ON)
G3 F0.000000 I-17.500000 J0.000000 K0.000000 X177.500000 Y100.000000 Z-5.000000 
S0	(---Laser 100% Ooff)
G0 F0.000000 X190.000000 Y100.000000
(CUT) 
S0	(---Laser 100% Ooff)
G1 F0.000000 X190.000000 Y100.000000 Z-5.000000 
S1000	(---Laser 100% ON)
G3 F0.000000 I-30.000000 J0.000000 K0.000000 X190.000000 Y100.000000 Z-5.000000 
S1000	(---Laser 100% ON)
G0 Z6.000000


(=END Engrave===========================)
(======END============)
(G00 – Rapid Positioning------------Laser OFF)
S0 
G0 Z10.000000
