(======HEADER=====================)
(G00 – Rapid Positioning------------Laser OFF)
(G01 – Linear interpolation------------ )
(G02 – Circular interpolation CCW------------ )
(G02 – Circular interpolation CW------------ )
(Gcode G91 & Gcode G90: CNC Absolute and Incremental Programming)
(S00 - S1000 Spindle speed)
(M03 – Spindle on in a clockwise)
(======POST PROCESSING===========)
(REPLACE (CUT); (CUT) \r\n S1000	(---Laser 100% ON))
(REPLACE F0.166667 ; F1000)
(REPLACE F8.333333 ; F1000)
(REPLACE F1000 ; F1000)
(REPLACE Z-5.000000 ;  )
(REPLACE Z-5.000000 ; \r\n S1000	(---Laser 100% ON))
(======START=====================)
(======CODE MANDATORY============)
M3 S0  (M03 – Spindle on in a clockwise)
(================================)
S0 		(--Laser 000% OFF)
G0 F1000 X0.000000 Y0.000000
S1000	(---Laser 100% ON)
S0 		(--Laser 000% OFF)
(=BEGIN Engrave=========================)
(Engrave009)
G0 F1000 Z6 
S0 		(--Laser 000% OFF)
G0 F1000 Z6 
S0 		(--Laser 000% OFF)
G0 F1000 X41.505520 Y9.300678
G0 F1000 Z4 
 S1000	(---LaserOn 100% ON)
G1 F1000 X41.505520 Y9.300678 Z-5.000000
G1 F1000 X41.505520 Y6.308043 Z-5.000000
G0 F1000 Z6 
S0 		(--Laser 000% OFF)
G0 F1000 Z6 
S0 		(--Laser 000% OFF)
G0 F1000 X41.505520 Y7.786377
G0 F1000 Z4 
 S1000	(---LaserOn 100% ON)
G1 F1000 X41.505520 Y7.786377 Z-5.000000
G1 F1000 X39.991215 Y9.151731 Z-5.000000
G0 F1000 Z6 
S0 		(--Laser 000% OFF)
G0 F1000 Z6 
S0 		(--Laser 000% OFF)
G0 F1000 X45.303684 Y9.375153
G0 F1000 Z4 
 S1000	(---LaserOn 100% ON)
G1 F1000 X45.303684 Y9.375153 Z-5.000000
G1 F1000 X45.303684 Y6.289628 Z-5.000000
G1 F1000 X46.743511 Y6.594796 Z-5.000000
G1 F1000 X45.303684 Y7.736728 Z-5.000000
G1 F1000 X46.594563 Y8.481466 Z-5.000000
G1 F1000 X45.303684 Y9.375153 Z-5.000000
G0 F1000 Z6 
S0 		(--Laser 000% OFF)
G0 F1000 Z6 
S0 		(--Laser 000% OFF)
G0 F1000 X50.150981 Y6.147652
G0 F1000 Z4 
 S1000	(---LaserOn 100% ON)
G1 F1000 X50.150981 Y6.147652 Z-5.000000
G1 F1000 X51.492166 Y9.188008 Z-5.000000
G1 F1000 X52.502823 Y6.594796 Z-5.000000
G0 F1000 Z6 
S0 		(--Laser 000% OFF)
G0 F1000 Z6 
S0 		(--Laser 000% OFF)
G0 F1000 X50.665802 Y7.314709
G0 F1000 Z4 
 S1000	(---LaserOn 100% ON)
G1 F1000 X50.665802 Y7.314709 Z-5.000000
G1 F1000 X51.559486 Y7.364359 Z-5.000000
G0 F1000 Z6 
S0 		(--Laser 000% OFF)
G0 F1000 Z6 
S0 		(--Laser 000% OFF)
G0 F1000 X55.637848 Y9.149443
G0 F1000 Z4 
 S1000	(---LaserOn 100% ON)
G1 F1000 X55.637848 Y9.149443 Z-5.000000
G1 F1000 X56.655659 Y7.511018 Z-5.000000
G1 F1000 X55.935745 Y6.269787 Z-5.000000
G0 F1000 Z6 
S0 		(--Laser 000% OFF)
G0 F1000 Z6 
S0 		(--Laser 000% OFF)
G0 F1000 X57.723118 Y9.149443
G0 F1000 Z4 
 S1000	(---LaserOn 100% ON)
G1 F1000 X57.723118 Y9.149443 Z-5.000000
G1 F1000 X57.028027 Y7.511018 Z-5.000000
G1 F1000 X57.872063 Y6.244963 Z-5.000000
G0 F1000 Z6 
S0 		(--Laser 000% OFF)
G0 F1000 Z6 
S0 		(--Laser 000% OFF)
G0 F1000 X61.576469 Y9.297246
G0 F1000 Z4 
 S1000	(---LaserOn 100% ON)
G1 F1000 X61.576469 Y9.297246 Z-5.000000
G1 F1000 X61.576469 Y5.985999 Z-5.000000
G1 F1000 X62.531296 Y5.985999 Z-5.000000
G0 F1000 Z6 
S0 		(--Laser 000% OFF)
G0 F1000 Z6 
S0 		(--Laser 000% OFF)
G0 F1000 X66.491737 Y9.272421
G0 F1000 Z4 
 S1000	(---LaserOn 100% ON)
G1 F1000 X66.491737 Y9.272421 Z-5.000000
G1 F1000 X66.491737 Y6.020397 Z-5.000000
G1 F1000 X68.061302 Y6.020397 Z-5.000000
G0 F1000 Z6 
S0 		(--Laser 000% OFF)
G0 F1000 Z6 
S0 		(--Laser 000% OFF)
G0 F1000 X62.991470 Y8.478033
G0 F1000 Z4 
 S1000	(---LaserOn 100% ON)
G1 F1000 X62.991470 Y8.478033 Z-5.000000
G1 F1000 X62.991470 Y5.986357 Z-5.000000
G0 F1000 Z6 
S0 		(--Laser 000% OFF)
G0 F1000 Z6 
S0 		(--Laser 000% OFF)
G0 F1000 X63.388664 Y8.478033
G0 F1000 Z4 
 S1000	(---LaserOn 100% ON)
G1 F1000 X63.388664 Y8.478033 Z-5.000000
G1 F1000 X63.388664 Y5.984070 Z-5.000000
G0 F1000 Z6 
S0 		(--Laser 000% OFF)
G0 F1000 Z6 
S0 		(--Laser 000% OFF)
G0 F1000 X68.502533 Y8.399593
G0 F1000 Z4 
 S1000	(---LaserOn 100% ON)
G1 F1000 X68.502533 Y8.399593 Z-5.000000
G1 F1000 X68.502533 Y6.070046 Z-5.000000
G0 F1000 Z6 
S0 		(--Laser 000% OFF)
G0 F1000 Z6 
S0 		(--Laser 000% OFF)
G0 F1000 X72.731483 Y6.027006
G0 F1000 Z4 
 S1000	(---LaserOn 100% ON)
G1 F1000 X72.731483 Y6.027006 Z-5.000000
G1 F1000 X72.731483 Y9.195659 Z-5.000000
G1 F1000 X73.972717 Y8.525394 Z-5.000000
G1 F1000 X72.905258 Y7.557234 Z-5.000000
G1 F1000 X74.121666 Y6.241530 Z-5.000000
G0 F1000 Z6 
S0 		(--Laser 000% OFF)
G0 F1000 Z6 
S0 		(--Laser 000% OFF)
G0 F1000 X74.816750 Y8.947413
G0 F1000 Z4 
 S1000	(---LaserOn 100% ON)
G1 F1000 X74.816750 Y8.947413 Z-5.000000
G1 F1000 X74.816750 Y6.015681 Z-5.000000
G0 F1000 Z6 
S0 		(--Laser 000% OFF)
G0 F1000 Z6 
S0 		(--Laser 000% OFF)
G0 F1000 X78.198967 Y5.986357
G0 F1000 Z4 
 S1000	(---LaserOn 100% ON)
G1 F1000 X78.198967 Y5.986357 Z-5.000000
G1 F1000 X78.198967 Y9.195221 Z-5.000000
G1 F1000 X79.365730 Y8.376009 Z-5.000000
G1 F1000 X78.422394 Y7.606446 Z-5.000000
G1 F1000 X79.372185 Y5.925383 Z-5.000000
G0 F1000 Z6 
S0 		(--Laser 000% OFF)
G0 F1000 Z6 
S0 		(--Laser 000% OFF)
G0 F1000 X79.911873 Y8.872500
G0 F1000 Z4 
 S1000	(---LaserOn 100% ON)
G1 F1000 X79.911873 Y8.872500 Z-5.000000
G1 F1000 X79.911873 Y5.925383 Z-5.000000
G0 F1000 Z6 
S0 		(--Laser 000% OFF)
G0 F1000 Z6 
S0 		(--Laser 000% OFF)
G0 F1000 X80.780731 Y8.773203
G0 F1000 Z4 
 S1000	(---LaserOn 100% ON)
G1 F1000 X80.780731 Y8.773203 Z-5.000000
G1 F1000 X80.780731 Y5.945707 Z-5.000000
G0 F1000 Z6 
S0 		(--Laser 000% OFF)
G0 F1000 Z6 
S0 		(--Laser 000% OFF)
G0 F1000 X84.292778 Y9.143452
G0 F1000 Z4 
 S1000	(---LaserOn 100% ON)
G1 F1000 X84.292778 Y9.143452 Z-5.000000
G1 F1000 X83.250145 Y7.951871 Z-5.000000
G1 F1000 X84.640327 Y7.132658 Z-5.000000
G1 F1000 X83.200500 Y5.916252 Z-5.000000
G0 F1000 Z6 
S0 		(--Laser 000% OFF)
G0 F1000 Z6 
S0 		(--Laser 000% OFF)
G0 F1000 X90.300339 Y9.093802
G0 F1000 Z4 
 S1000	(---LaserOn 100% ON)
G1 F1000 X90.300339 Y9.093802 Z-5.000000
G1 F1000 X88.761215 Y8.200117 Z-5.000000
G1 F1000 X90.176216 Y7.281606 Z-5.000000
G1 F1000 X88.984634 Y6.040375 Z-5.000000
G0 F1000 Z6 
S0 		(--Laser 000% OFF)
G0 F1000 Z6 
S0 		(--Laser 000% OFF)
G0 F1000 X90.559586 Y8.473187
G0 F1000 Z4 
 S1000	(---LaserOn 100% ON)
G1 F1000 X90.559586 Y8.473187 Z-5.000000
G1 F1000 X92.733154 Y8.473187 Z-5.000000
G0 F1000 Z6 
S0 		(--Laser 000% OFF)
G0 F1000 Z6 
S0 		(--Laser 000% OFF)
G0 F1000 X91.566391 Y8.473187
G0 F1000 Z4 
 S1000	(---LaserOn 100% ON)
G1 F1000 X91.566391 Y8.473187 Z-5.000000
G1 F1000 X91.566391 Y5.813635 Z-5.000000
G0 F1000 Z6 
S0 		(--Laser 000% OFF)
G0 F1000 Z6 
S0 		(--Laser 000% OFF)
G0 F1000 X86.204277 Y9.242751
G0 F1000 Z4 
 S1000	(---LaserOn 100% ON)
G1 F1000 X86.204277 Y9.242751 Z-5.000000
G1 F1000 X85.360237 Y7.753273 Z-5.000000
G1 F1000 X86.154625 Y7.753273 Z-5.000000
G0 F1000 Z6 
S0 		(--Laser 000% OFF)
G0 F1000 Z6 
S0 		(--Laser 000% OFF)
G0 F1000 X85.360237 Y7.753273
G0 F1000 Z4 
 S1000	(---LaserOn 100% ON)
G1 F1000 X85.360237 Y7.753273 Z-5.000000
G1 F1000 X86.008682 Y6.002328 Z-5.000000
G0 F1000 Z6 
S0 		(--Laser 000% OFF)
G0 F1000 Z6 
S0 		(--Laser 000% OFF)
G0 F1000 X95.935524 Y9.019328
G0 F1000 Z4 
 S1000	(---LaserOn 100% ON)
G1 F1000 X95.935524 Y9.019328 Z-5.000000
G1 F1000 X94.396400 Y7.579502 Z-5.000000
G1 F1000 X95.657204 Y5.929734 Z-5.000000
G0 F1000 Z6 
S0 		(--Laser 000% OFF)
G0 F1000 Z6 
S0 		(--Laser 000% OFF)
G0 F1000 X96.580963 Y8.969680
G0 F1000 Z4 
 S1000	(---LaserOn 100% ON)
G1 F1000 X96.580963 Y8.969680 Z-5.000000
G1 F1000 X96.580963 Y5.979655 Z-5.000000
G0 F1000 Z6 
S0 		(--Laser 000% OFF)
G0 F1000 Z6 
S0 		(--Laser 000% OFF)
G0 F1000 X100.801147 Y9.019328
G0 F1000 Z4 
 S1000	(---LaserOn 100% ON)
G1 F1000 X100.801147 Y9.019328 Z-5.000000
G1 F1000 X100.801147 Y5.879813 Z-5.000000
G0 F1000 Z6 
S0 		(--Laser 000% OFF)
G0 F1000 Z6 
S0 		(--Laser 000% OFF)
G0 F1000 X103.209137 Y8.920031
G0 F1000 Z4 
 S1000	(---LaserOn 100% ON)
G1 F1000 X103.209137 Y8.920031 Z-5.000000
G1 F1000 X103.209137 Y5.846532 Z-5.000000
G0 F1000 Z6 
S0 		(--Laser 000% OFF)
G0 F1000 Z6 
S0 		(--Laser 000% OFF)
G0 F1000 X100.801147 Y7.579502
G0 F1000 Z4 
 S1000	(---LaserOn 100% ON)
G1 F1000 X100.801147 Y7.579502 Z-5.000000
G1 F1000 X103.209137 Y7.579502 Z-5.000000
G0 Z6.000000


(=END Engrave===========================)
(======END============)
(G00 – Rapid Positioning------------Laser OFF)
S0 
G0 Z10.000000
