(Changes==========================)
(template_2022_09_02.nc)
(template_2022_11_15.nc Gimp post processing, LaserOn LaserOff keywords easier to select and highlight)
(template_2022_11_18.nc Gimp post processing F500 S250 for size font 18)
(======HEADER=====================)
(G00 – Rapid Positioning------------Laser OFF)
(G01 – Linear interpolation------------ )
(G02 – Circular interpolation CCW------------ )
(G02 – Circular interpolation CW------------ )
(Gcode G91 & Gcode G90: CNC Absolute and Incremental Programming)
(S00 - S1000 Spindle speed)
(M03 – Spindle on in a clockwise)
(======POST PROCESSING====FREECAD=======)
(REPLACE (CUT); (CUT) \r\n S1000	(---LaserOn 100% ON))
(Penetrate)
(REPLACE F0.166667 ; F1000)
(REPLACE F8.333333 ; F1000)
(REPLACE F1000 ; F1000)
(REPLACE Z-5.000000 ;  )
(REPLACE Z-5.000000 ; \r\n S1000	(---LaserOff 100% ON))
(======POST PROCESSING====GIMP=======)
(REPLACE (Penetrate); (Penetrate) \r\n S1000	(---LaserOn 100% ON))
(REPLACE G00 Z 0.0000 G00 Z 0.0000\n\rS000	(---LaserOff 000%))
(REPLACE (Penetrate); (Penetrate) \r\n S250	(---LaserOn 100% ON))
(REPLACE G01 G01 F1000 )
(REPLACE G02 G01 F1000 )
(REPLACE G03 G01 F1000 )
(======START=====================)
(======CODE MANDATORY============)
M3 S0  (M03 – Spindle on in a clockwise)
(================================)
S0 		(--LaserOff 000% OFF)
G0 F1000 X0.000000 Y0.000000
S1000	(---LaserOn 100% ON)
S0 		(---LaserOff 000% OFF)
(=BEGIN Engrave=========================)
(Engrave)
G0 F1000 Z6.000000 
 S0	(---LaserOn 0% OFF)
G0 F1000 Z6.000000 
 S0	(---LaserOn 0% OFF)
G0 F1000 X46.122124 Y80.836082
G0 F1000 Z4.000000 
 S1000	(---LaserOn 100% ON)
G1 F1000 X46.122124 Y80.836082 Z-5.000000
G1 F1000 X18.015185 Y80.836082 Z-5.000000
G3 F1000 I28.106939 J-34.500000 K0.000000 X74.229063 Y80.836082 Z-5.000000
G1 F1000 X46.122124 Y80.836082 Z-5.000000
G0 F1000 Z6.000000 
 S0	(---LaserOn 0% OFF)
G0 F1000 Z6.000000 
 S0	(---LaserOn 0% OFF)
G0 F1000 X61.122124 Y46.336082
G0 F1000 Z4.000000 
 S1000	(---LaserOn 100% ON)
G1 F1000 X61.122124 Y46.336082 Z-5.000000
G3 F1000 I-15.000000 J0.000000 K0.000000 X61.122124 Y46.336082 Z-5.000000
G0 F1000 Z6.000000 
 S0	(---LaserOn 0% OFF)
G0 F1000 Z6.000000 
 S0	(---LaserOn 0% OFF)
G0 F1000 X18.622124 Y18.836082
G0 F1000 Z4.000000 
 S1000	(---LaserOn 100% ON)
G1 F1000 X18.622124 Y18.836082 Z-5.000000
G3 F1000 I0.000000 J0.000000 K0.000000 X18.622124 Y18.836082 Z-5.000000
G0 F1000 Z6.000000 
 S0	(---LaserOn 0% OFF)
G0 F1000 Z6.000000 
 S0	(---LaserOn 0% OFF)
G0 F1000 X76.122124 Y18.836082
G0 F1000 Z4.000000 
 S1000	(---LaserOn 100% ON)
G1 F1000 X76.122124 Y18.836082 Z-5.000000
G3 F1000 I-2.500000 J0.000000 K0.000000 X76.122124 Y18.836082 Z-5.000000
G0 F1000 Z6.000000 
 S0	(---LaserOn 0% OFF)
G0 F1000 Z6.000000 
 S0	(---LaserOn 0% OFF)
G0 F1000 X21.122124 Y18.836082
G0 F1000 Z4.000000 
 S1000	(---LaserOn 100% ON)
G1 F1000 X21.122124 Y18.836082 Z-5.000000
G3 F1000 I-2.500000 J0.000000 K0.000000 X21.122124 Y18.836082 Z-5.000000
G0 F1000 Z6.000000 
 S0	(---LaserOn 0% OFF)
G0 F1000 Z6.000000 
 S0	(---LaserOn 0% OFF)
G0 F1000 X22.122124 Y63.836082
G0 F1000 Z4.000000 
 S1000	(---LaserOn 100% ON)
G1 F1000 X22.122124 Y63.836082 Z-5.000000
G3 F1000 I-2.500000 J0.000000 K0.000000 X22.122124 Y63.836082 Z-5.000000
G0 F1000 Z6.000000 
 S0	(---LaserOn 0% OFF)
G0 F1000 Z6.000000 
 S0	(---LaserOn 0% OFF)
G0 F1000 X75.122124 Y63.836082
G0 F1000 Z4.000000 
 S1000	(---LaserOn 100% ON)
G1 F1000 X75.122124 Y63.836082 Z-5.000000
G3 F1000 I-2.500000 J0.000000 K0.000000 X75.122124 Y63.836082 Z-5.000000
G0 Z6.000000

(=END Engrave===========================)
(======END============)
(G00 – Rapid Positioning------------Laser OFF)
S0 
G0 Z10.000000
