(Generiert mit: DXF2GCODE, Version: Py3.9.2 PyQt5.15.4, Datum: $Date: 2022-02-26 15:29 CET $)
(Erstellt aus der Datei: C:/Users/sesa237770/Documents/toybox/Projects_DIY/101-ProjectAstrology/dxf/Birthchart.dxf)
(Beschreibung des Ausgabeformats: G-CODE for LinuxCNC)
(Zeit: Wed Sep  7 22:06:41 2022)
G21 (Units in millimeters)
G90 (Absolute programming)
G64 (Default cutting) G17 (XY plane) G40 (Cancel radius comp.) G49 (Cancel length comp.)
G0 Z1.15 

(*** LAYER: TEXT2 ***)
T1 M6
S1000

(* SHAPE Nr: 1 *)
G0 X.0 Y.0
M3 M8
G0 Z.3 
F150
G1 Z-.-2
F400
G1 X.9 Y.5
F150
G1 Z-.-3
F400
G1 X.0 Y.0
F150
G1 Z.3
G0 Z1.15 
M9 M5

(* SHAPE Nr: 9 *)
G0 X17.173 Y25.251
M3 M8
G0 Z.3 
G1 Z-.-2
F400
G1 X16.169 Y25.255
G1 X17.175 Y26.261
G2 X17.170 Y26.266 I57.577 J58.580
G1 X17.174 Y27.270
G1 X17.179 Y26.265
G1 X18.187 Y27.273
G2 X18.180 Y27.275 I9.96 J39.397
G1 X18.181 Y28.280
G1 X19.194 Y27.276
G1 X19.197 Y26.264
G1 X19.192 Y26.262
G1 X19.190 Y26.269
G1 X18.183 Y26.261
G1 X18.188 Y25.256
G1 X18.184 Y25.253
G1 X17.179 Y25.258
G1 X17.173 Y25.251
F150
G1 Z-.-3
F400
G1 X16.169 Y25.255
G1 X17.175 Y26.261
G2 X17.170 Y26.266 I57.577 J58.580
G1 X17.174 Y27.270
G1 X17.179 Y26.265
G1 X18.187 Y27.273
G2 X18.180 Y27.275 I9.96 J39.397
G1 X18.181 Y28.280
G1 X19.194 Y27.276
G1 X19.197 Y26.264
G1 X19.192 Y26.262
G1 X19.190 Y26.269
G1 X18.183 Y26.261
G1 X18.188 Y25.256
G1 X18.184 Y25.253
G1 X17.179 Y25.258
G1 X17.173 Y25.251
F150
G1 Z.3
G0 Z1.15 
M9 M5

(* SHAPE Nr: 10 *)
G0 X25.253 Y17.176
M3 M8
G0 Z.3 
G1 Z-.-2
F400
G1 X25.253 Y18.181
G1 X25.257 Y18.181
G2 X25.256 Y18.185 I.9 J.4
G2 X26.267 Y19.195 I1.10 J.0
G2 X27.277 Y18.185 I.0 J-1.-11
G2 X27.276 Y18.181 I-.-9 J.0
G1 X28.280 Y18.181
G1 X28.280 Y17.176
G1 X26.269 Y17.176
G1 X26.269 Y17.178
G1 X26.269 Y18.181
G3 X27.271 Y18.185 I-.-2 J.4
G3 X26.266 Y19.190 I-.-5 J.0
G3 X26.262 Y18.185 I-.-0 J-.-5
G3 X26.264 Y18.181 I.5 J-.-0
G1 X26.264 Y17.178
G1 X26.264 Y17.176
G1 X25.253 Y17.176
F150
G1 Z-.-3
F400
G1 X25.253 Y18.181
G1 X25.257 Y18.181
G2 X25.256 Y18.185 I.9 J.4
G2 X26.267 Y19.195 I1.10 J.0
G2 X27.277 Y18.185 I.0 J-1.-11
G2 X27.276 Y18.181 I-.-9 J.0
G1 X28.280 Y18.181
G1 X28.280 Y17.176
G1 X26.269 Y17.176
G1 X26.269 Y17.178
G1 X26.269 Y18.181
G3 X27.271 Y18.185 I-.-2 J.4
G3 X26.266 Y19.190 I-.-5 J.0
G3 X26.262 Y18.185 I-.-0 J-.-5
G3 X26.264 Y18.181 I.5 J-.-0
G1 X26.264 Y17.178
G1 X26.264 Y17.176
G1 X25.253 Y17.176
F150
G1 Z.3
G0 Z1.15 
M9 M5

(* SHAPE Nr: 11 *)
G0 X25.253 Y16.169
M3 M8
G0 Z.3 
G1 Z-.-2
F400
G1 X25.253 Y17.174
G1 X28.280 Y17.174
G1 X28.280 Y16.169
G1 X25.253 Y16.169
F150
G1 Z-.-3
F400
G1 X25.253 Y17.174
G1 X28.280 Y17.174
G1 X28.280 Y16.169
G1 X25.253 Y16.169
F150
G1 Z.3
G0 Z1.15 
M9 M5

(* SHAPE Nr: 12 *)
G0 X24.249 Y11.116
M3 M8
G0 Z.3 
G1 Z-.-2
F400
G1 X24.249 Y13.134
G3 X24.246 Y13.136 I-.-3 J.0
G2 X25.250 Y13.139 I.5 J-.-4
G2 X25.254 Y13.137 I.0 J-.-5
G2 X25.258 Y13.139 I.3 J-.-5
G2 X26.261 Y13.137 I.0 J-.-5
G2 X26.265 Y13.139 I.3 J-.-4
G2 X27.270 Y13.134 I.0 J-.-5
G2 X27.270 Y12.129 I-25.-252 J-.-3
G2 X27.273 Y13.133 I.6 J-.-2
G2 X27.277 Y12.129 I.0 J-.-4
G2 X27.278 Y12.123 I-1.-18 J-.-5
G2 X27.272 Y10.109 I-1.-17 J.0
G3 X27.273 Y10.109 I.1 J.2
G3 X27.276 Y11.111 I.0 J.4
G1 X27.276 Y10.109
G2 X27.271 Y10.107 I-.-3 J.1
G2 X26.268 Y10.107 I.0 J.9
G2 X26.262 Y10.106 I-1.-10 J3.31
G1 X26.262 Y10.108
G3 X26.265 Y10.109 I-.-1 J1.10
G2 X26.264 Y11.116 I.7 J.6
G1 X26.264 Y11.117
G1 X26.264 Y13.134
G3 X26.263 Y13.135 I-.-4 J.0
G3 X26.262 Y13.134 I.1 J-.-1
G2 X26.262 Y11.116 I-37.-377 J-.-5
G1 X25.256 Y11.116
G1 X25.256 Y13.134
G3 X25.256 Y13.135 I-.-4 J.0
G3 X25.255 Y13.135 I-.-0 J-.-0
G3 X25.255 Y13.134 I.1 J-.-1
G2 X25.255 Y11.116 I-48.-486 J-.-4
G1 X24.249 Y11.116
F150
G1 Z-.-3
F400
G1 X24.249 Y13.134
G3 X24.246 Y13.136 I-.-3 J.0
G2 X25.250 Y13.139 I.5 J-.-4
G2 X25.254 Y13.137 I.0 J-.-5
G2 X25.258 Y13.139 I.3 J-.-5
G2 X26.261 Y13.137 I.0 J-.-5
G2 X26.265 Y13.139 I.3 J-.-4
G2 X27.270 Y13.134 I.0 J-.-5
G2 X27.270 Y12.129 I-25.-252 J-.-3
G2 X27.273 Y13.133 I.6 J-.-2
G2 X27.277 Y12.129 I.0 J-.-4
G2 X27.278 Y12.123 I-1.-18 J-.-5
G2 X27.272 Y10.109 I-1.-17 J.0
G3 X27.273 Y10.109 I.1 J.2
G3 X27.276 Y11.111 I.0 J.4
G1 X27.276 Y10.109
G2 X27.271 Y10.107 I-.-3 J.1
G2 X26.268 Y10.107 I.0 J.9
G2 X26.262 Y10.106 I-1.-10 J3.31
G1 X26.262 Y10.108
G3 X26.265 Y10.109 I-.-1 J1.10
G2 X26.264 Y11.116 I.7 J.6
G1 X26.264 Y11.117
G1 X26.264 Y13.134
G3 X26.263 Y13.135 I-.-4 J.0
G3 X26.262 Y13.134 I.1 J-.-1
G2 X26.262 Y11.116 I-37.-377 J-.-5
G1 X25.256 Y11.116
G1 X25.256 Y13.134
G3 X25.256 Y13.135 I-.-4 J.0
G3 X25.255 Y13.135 I-.-0 J-.-0
G3 X25.255 Y13.134 I.1 J-.-1
G2 X25.255 Y11.116 I-48.-486 J-.-4
G1 X24.249 Y11.116
F150
G1 Z.3
G0 Z1.15 
M9 M5

(* SHAPE Nr: 13 *)
G0 X27.270 Y11.112
M3 M8
G0 Z.3 
G1 Z-.-2
F400
G2 X26.269 Y11.116 I1.18 J.4
G3 X27.270 Y12.123 I-218.-2185 J4.41
G2 X27.270 Y12.127 I1.14 J-.-1
G2 X27.271 Y12.128 I.7 J-.-2
G2 X27.272 Y12.129 I.1 J.0
G2 X27.273 Y12.122 I-2.-29 J-.-7
G2 X27.270 Y11.112 I-1.-13 J-.-1
F150
G1 Z-.-3
F400
G2 X26.269 Y11.116 I1.18 J.4
G3 X27.270 Y12.123 I-218.-2185 J4.41
G2 X27.270 Y12.127 I1.14 J-.-1
G2 X27.271 Y12.128 I.7 J-.-2
G2 X27.272 Y12.129 I.1 J.0
G2 X27.273 Y12.122 I-2.-29 J-.-7
G2 X27.270 Y11.112 I-1.-13 J-.-1
F150
G1 Z.3
G0 Z1.15 
M9 M5

(* SHAPE Nr: 14 *)
G0 X22.220 Y22.225
M3 M8
G0 Z.3 
G1 Z-.-2
F400
G1 X22.220 Y24.243
G3 X21.218 Y24.246 I-.-3 J.0
G1 X21.217 Y24.246
G2 X22.222 Y24.248 I.5 J-.-4
G2 X22.225 Y24.247 I.0 J-.-5
G2 X22.229 Y24.248 I.3 J-.-5
G2 X23.232 Y24.247 I.0 J-.-5
G1 X23.233 Y24.247
G2 X23.236 Y24.248 I.3 J-.-4
G2 X24.241 Y24.244 I.0 J-.-5
G2 X24.241 Y24.241 I-40.-402 J-.-5
G2 X24.241 Y22.223 I-346.-3462 J.1
G2 X24.241 Y22.222 I-.-4 J-.-1
G3 X24.245 Y21.219 I.4 J.1
G3 X24.247 Y22.220 I-.-1 J.5
G1 X24.246 Y22.222
G1 X25.251 Y22.222
G1 X24.249 Y21.216
G3 X24.248 Y21.218 I-.-6 J-.-2
G2 X24.243 Y21.216 I-.-4 J.3
G2 X24.240 Y21.216 I.0 J1.12
G2 X23.237 Y21.219 I.2 J.6
G2 X23.235 Y22.225 I.9 J.5
G1 X23.235 Y22.226
G1 X23.235 Y24.243
G3 X23.235 Y24.245 I-.-4 J.0
G3 X23.234 Y24.245 I-.-0 J-.-0
G3 X23.234 Y24.244 I.1 J-.-1
G2 X23.233 Y22.225 I-38.-389 J-.-5
G1 X22.228 Y22.225
G1 X22.228 Y24.243
G3 X22.227 Y24.245 I-.-4 J.0
G3 X22.226 Y24.243 I.1 J-.-1
G2 X22.226 Y22.225 I-48.-485 J-.-4
G1 X22.220 Y22.225
F150
G1 Z-.-3
F400
G1 X22.220 Y24.243
G3 X21.218 Y24.246 I-.-3 J.0
G1 X21.217 Y24.246
G2 X22.222 Y24.248 I.5 J-.-4
G2 X22.225 Y24.247 I.0 J-.-5
G2 X22.229 Y24.248 I.3 J-.-5
G2 X23.232 Y24.247 I.0 J-.-5
G1 X23.233 Y24.247
G2 X23.236 Y24.248 I.3 J-.-4
G2 X24.241 Y24.244 I.0 J-.-5
G2 X24.241 Y24.241 I-40.-402 J-.-5
G2 X24.241 Y22.223 I-346.-3462 J.1
G2 X24.241 Y22.222 I-.-4 J-.-1
G3 X24.245 Y21.219 I.4 J.1
G3 X24.247 Y22.220 I-.-1 J.5
G1 X24.246 Y22.222
G1 X25.251 Y22.222
G1 X24.249 Y21.216
G3 X24.248 Y21.218 I-.-6 J-.-2
G2 X24.243 Y21.216 I-.-4 J.3
G2 X24.240 Y21.216 I.0 J1.12
G2 X23.237 Y21.219 I.2 J.6
G2 X23.235 Y22.225 I.9 J.5
G1 X23.235 Y22.226
G1 X23.235 Y24.243
G3 X23.235 Y24.245 I-.-4 J.0
G3 X23.234 Y24.245 I-.-0 J-.-0
G3 X23.234 Y24.244 I.1 J-.-1
G2 X23.233 Y22.225 I-38.-389 J-.-5
G1 X22.228 Y22.225
G1 X22.228 Y24.243
G3 X22.227 Y24.245 I-.-4 J.0
G3 X22.226 Y24.243 I.1 J-.-1
G2 X22.226 Y22.225 I-48.-485 J-.-4
G1 X22.220 Y22.225
F150
G1 Z.3
G0 Z1.15 
M9 M5

(* SHAPE Nr: 15 *)
G0 X12.126 Y26.263
M3 M8
G0 Z.3 
G1 Z-.-2
F400
G2 X13.130 Y26.265 I.6 J-.-7
G2 X13.135 Y25.258 I.0 J-.-5
G2 X12.127 Y25.253 I-.-6 J-.-0
G2 X12.120 Y26.262 I.3 J.9
G2 X11.119 Y27.271 I8.80 J1.15
G3 X11.118 Y26.269 I-.-0 J-.-1
G3 X11.118 Y26.267 I1.19 J-.-4
G3 X11.117 Y26.263 I5.55 J-.-7
G1 X11.113 Y26.263
G3 X11.111 Y27.273 I-4.-48 J-.-2
G3 X10.109 Y27.274 I-.-2 J-.-1
G3 X10.109 Y27.278 I-120.-1205 J.0
G2 X11.115 Y27.274 I.0 J-.-6
G1 X11.115 Y27.275
G2 X11.119 Y27.278 I.6 J-.-3
G2 X12.124 Y27.274 I.0 J-.-4
G2 X12.125 Y26.268 I-2.-23 J-.-7
G3 X12.126 Y26.262 I18.187 J2.22
G3 X12.129 Y25.257 I.6 J.1
G1 X13.130 Y25.258
G3 X12.129 Y25.259 I-.-0 J.1
G3 X12.128 Y25.258 I.1 J-.-3
F150
G1 Z-.-3
F400
G2 X12.129 Y25.259 I.2 J-.-2
G2 X13.130 Y25.258 I.0 J-.-1
G1 X12.129 Y25.257
G2 X12.126 Y26.262 I.2 J.6
G2 X12.125 Y26.268 I18.186 J2.28
G3 X12.124 Y27.274 I-2.-24 J-.-1
G3 X11.119 Y27.278 I-.-4 J-.-0
G3 X11.115 Y27.275 I.1 J-.-6
G1 X11.115 Y27.274
G3 X10.109 Y27.278 I-.-6 J-.-2
G2 X10.109 Y27.274 I-120.-1205 J-.-5
G2 X11.111 Y27.273 I.0 J-.-2
G2 X11.113 Y26.263 I-4.-46 J-1.-12
G1 X11.117 Y26.263
G2 X11.118 Y26.267 I5.56 J-.-3
G2 X11.118 Y26.269 I2.20 J-.-2
G2 X11.119 Y27.271 I.1 J.1
G3 X12.120 Y26.262 I8.81 J.6
G3 X12.127 Y25.253 I.9 J-.-1
G3 X13.135 Y25.258 I.2 J.6
G3 X13.130 Y26.265 I-.-5 J.1
G3 X12.126 Y26.263 I.1 J-.-9
F150
G1 Z.3
G0 Z1.15 
M9 M5

(* SHAPE Nr: 16 *)
G0 X12.126 Y25.253
M3 M8
G0 Z.3 
G1 Z-.-2
F400
G2 X12.125 Y25.251 I-5.-57 J2.26
G2 X11.117 Y24.246 I-.-8 J.5
G2 X11.116 Y24.246 I.1 J.6
G1 X11.116 Y25.251
G3 X12.120 Y25.253 I.1 J.4
G2 X12.122 Y25.256 I9.92 J-3.-32
F150
G1 Z-.-3
F400
G3 X12.120 Y25.253 I9.90 J-3.-36
G2 X11.116 Y25.251 I-.-4 J.2
G1 X11.116 Y24.246
G3 X11.117 Y24.246 I.2 J.5
G3 X12.125 Y25.251 I-.-1 J1.10
G3 X12.126 Y25.253 I-5.-56 J2.28
F150
G1 Z.3
G0 Z1.15 
M9 M5

(* SHAPE Nr: 17 *)
G0 X5.51 Y22.221
M3 M8
G0 Z.3 
G1 Z-.-2
F400
G1 X5.51 Y22.227
G1 X6.60 Y23.234
G1 X6.63 Y22.229
G1 X6.69 Y23.234
G1 X7.71 Y22.229
G1 X7.77 Y23.234
G1 X8.81 Y22.229
G1 X8.81 Y22.221
G1 X7.76 Y22.226
G1 X7.70 Y22.222
G1 X6.67 Y22.227
G1 X6.61 Y22.222
G1 X5.58 Y22.227
G1 X5.51 Y22.221
F150
G1 Z-.-3
F400
G1 X5.51 Y22.227
G1 X6.60 Y23.234
G1 X6.63 Y22.229
G1 X6.69 Y23.234
G1 X7.71 Y22.229
G1 X7.77 Y23.234
G1 X8.81 Y22.229
G1 X8.81 Y22.221
G1 X7.76 Y22.226
G1 X7.70 Y22.222
G1 X6.67 Y22.227
G1 X6.61 Y22.222
G1 X5.58 Y22.227
G1 X5.51 Y22.221
F150
G1 Z.3
G0 Z1.15 
M9 M5

(* SHAPE Nr: 18 *)
G0 X5.51 Y23.235
M3 M8
G0 Z.3 
G1 Z-.-2
F400
G1 X5.51 Y24.240
G1 X6.60 Y24.247
G1 X6.63 Y24.242
G1 X6.69 Y24.247
G1 X7.71 Y24.242
G1 X7.77 Y24.247
G1 X8.81 Y24.242
G1 X8.81 Y23.234
G1 X7.76 Y24.240
G1 X7.70 Y23.235
G1 X6.67 Y24.240
G1 X6.61 Y23.235
G1 X5.58 Y24.240
G1 X5.51 Y23.235
F150
G1 Z-.-3
F400
G1 X5.51 Y24.240
G1 X6.60 Y24.247
G1 X6.63 Y24.242
G1 X6.69 Y24.247
G1 X7.71 Y24.242
G1 X7.77 Y24.247
G1 X8.81 Y24.242
G1 X8.81 Y23.234
G1 X7.76 Y24.240
G1 X7.70 Y23.235
G1 X6.67 Y24.240
G1 X6.61 Y23.235
G1 X5.58 Y24.240
G1 X5.51 Y23.235
F150
G1 Z.3
G0 Z1.15 
M9 M5

(* SHAPE Nr: 19 *)
G0 X2.25 Y16.166
M3 M8
G0 Z.3 
G1 Z-.-2
F400
G3 X3.31 Y17.177 I-1.-11 J1.12
G1 X2.26 Y17.177
G1 X2.26 Y18.183
G1 X3.31 Y18.183
G3 X2.25 Y19.195 I-2.-21 J-.-2
G1 X3.31 Y19.195
G2 X3.37 Y18.183 I-1.-12 J-1.-13
G1 X4.40 Y18.183
G2 X4.46 Y19.195 I2.21 J-.-2
G1 X5.52 Y19.195
G3 X4.47 Y18.183 I1.11 J-1.-12
G1 X5.51 Y18.183
G1 X5.51 Y17.177
G1 X4.47 Y17.177
G3 X5.52 Y16.166 I2.20 J.2
G1 X4.46 Y16.166
G2 X4.41 Y17.177 I1.12 J1.13
G1 X3.37 Y17.177
G2 X3.31 Y16.166 I-2.-20 J.3
G1 X2.25 Y16.166
F150
G1 Z-.-3
F400
G3 X3.31 Y17.177 I-1.-11 J1.12
G1 X2.26 Y17.177
G1 X2.26 Y18.183
G1 X3.31 Y18.183
G3 X2.25 Y19.195 I-2.-21 J-.-2
G1 X3.31 Y19.195
G2 X3.37 Y18.183 I-1.-12 J-1.-13
G1 X4.40 Y18.183
G2 X4.46 Y19.195 I2.21 J-.-2
G1 X5.52 Y19.195
G3 X4.47 Y18.183 I1.11 J-1.-12
G1 X5.51 Y18.183
G1 X5.51 Y17.177
G1 X4.47 Y17.177
G3 X5.52 Y16.166 I2.20 J.2
G1 X4.46 Y16.166
G2 X4.41 Y17.177 I1.12 J1.13
G1 X3.37 Y17.177
G2 X3.31 Y16.166 I-2.-20 J.3
G1 X2.25 Y16.166
F150
G1 Z.3
G0 Z1.15 
M9 M5

(* SHAPE Nr: 20 *)
G0 X3.37 Y11.113
M3 M8
G0 Z.3 
G1 Z-.-2
F400
G3 X3.37 Y12.121 I-11.-114 J-.-4
G3 X3.32 Y13.134 I-3.-32 J-.-3
G3 X3.31 Y13.133 I-.-0 J-.-1
G3 X3.32 Y13.130 I1.11 J.2
G3 X3.34 Y12.127 I2.27 J1.13
G1 X2.28 Y12.127
G2 X2.25 Y13.137 I.6 J.7
G2 X3.34 Y14.140 I.6 J-.-2
G2 X4.40 Y13.133 I-.-5 J-1.-10
G2 X4.46 Y14.140 I1.15 J-.-5
G2 X5.55 Y13.137 I.3 J-.-6
G2 X5.51 Y12.127 I-.-9 J-.-3
G1 X4.46 Y12.127
G3 X4.48 Y13.130 I-15.-154 J8.88
G3 X4.49 Y13.133 I-.-9 J.4
G3 X4.47 Y13.134 I-.-1 J.0
G3 X4.44 Y12.128 I.4 J-.-6
G3 X4.43 Y12.121 I3.39 J-1.-10
G3 X4.42 Y11.113 I9.94 J-1.-11
G1 X3.38 Y11.113
G1 X3.37 Y11.113
F150
G1 Z-.-3
F400
G3 X3.37 Y12.121 I-11.-114 J-.-4
G3 X3.32 Y13.134 I-3.-32 J-.-3
G3 X3.31 Y13.133 I-.-0 J-.-1
G3 X3.32 Y13.130 I1.11 J.2
G3 X3.34 Y12.127 I2.27 J1.13
G1 X2.28 Y12.127
G2 X2.25 Y13.137 I.6 J.7
G2 X3.34 Y14.140 I.6 J-.-2
G2 X4.40 Y13.133 I-.-5 J-1.-10
G2 X4.46 Y14.140 I1.15 J-.-5
G2 X5.55 Y13.137 I.3 J-.-6
G2 X5.51 Y12.127 I-.-9 J-.-3
G1 X4.46 Y12.127
G3 X4.48 Y13.130 I-15.-154 J8.88
G3 X4.49 Y13.133 I-.-9 J.4
G3 X4.47 Y13.134 I-.-1 J.0
G3 X4.44 Y12.128 I.4 J-.-6
G3 X4.43 Y12.121 I3.39 J-1.-10
G3 X4.42 Y11.113 I9.94 J-1.-11
G1 X3.38 Y11.113
G1 X3.37 Y11.113
F150
G1 Z.3
G0 Z1.15 
M9 M5

(* SHAPE Nr: 21 *)
G0 X5.58 Y6.62
M3 M8
G0 Z.3 
G1 Z-.-2
F400
G2 X6.63 Y7.70 I1.10 J.0
G2 X5.58 Y7.75 I4.43 J4.42
G3 X5.54 Y7.76 I-.-3 J-.-4
G1 X5.54 Y8.82
G2 X6.60 Y8.80 I.2 J-.-6
G2 X6.65 Y7.76 I-.-5 J-.-9
G3 X6.69 Y7.73 I1.11 J.8
G3 X7.73 Y7.76 I-.-0 J.5
G2 X7.78 Y8.80 I1.16 J-1.-12
G2 X8.84 Y8.82 I.5 J-1.-10
G1 X8.84 Y7.76
G3 X8.80 Y7.75 I-.-0 J-.-7
G3 X7.75 Y7.70 I1.11 J-1.-15
G2 X7.79 Y6.62 I-.-6 J-.-8
G2 X6.69 Y5.52 I-1.-10 J-.-0
G2 X5.58 Y6.62 I-.-0 J1.11
F150
G1 Z-.-3
F400
G2 X6.63 Y7.70 I1.10 J.0
G2 X5.58 Y7.75 I4.43 J4.42
G3 X5.54 Y7.76 I-.-3 J-.-4
G1 X5.54 Y8.82
G2 X6.60 Y8.80 I.2 J-.-6
G2 X6.65 Y7.76 I-.-5 J-.-9
G3 X6.69 Y7.73 I1.11 J.8
G3 X7.73 Y7.76 I-.-0 J.5
G2 X7.78 Y8.80 I1.16 J-1.-12
G2 X8.84 Y8.82 I.5 J-1.-10
G1 X8.84 Y7.76
G3 X8.80 Y7.75 I-.-0 J-.-7
G3 X7.75 Y7.70 I1.11 J-1.-15
G2 X7.79 Y6.62 I-.-6 J-.-8
G2 X6.69 Y5.52 I-1.-10 J-.-0
G2 X5.58 Y6.62 I-.-0 J1.11
F150
G1 Z.3
G0 Z1.15 
M9 M5

(* SHAPE Nr: 22 *)
G0 X6.64 Y6.62
M3 M8
G0 Z.3 
G1 Z-.-2
F400
G2 X6.69 Y6.67 I.5 J-.-0
G2 X7.74 Y6.62 I.0 J-.-5
G2 X6.69 Y5.57 I-.-5 J.0
G2 X6.64 Y6.62 I-.-0 J.5
F150
G1 Z-.-3
F400
G2 X6.69 Y6.67 I.5 J-.-0
G2 X7.74 Y6.62 I.0 J-.-5
G2 X6.69 Y5.57 I-.-5 J.0
G2 X6.64 Y6.62 I-.-0 J.5
F150
G1 Z.3
G0 Z1.15 
M9 M5

(* SHAPE Nr: 23 *)
G0 X22.220 Y6.67
M3 M8
G0 Z.3 
G1 Z-.-2
F400
G2 X22.227 Y7.74 I.7 J.0
G2 X22.227 Y7.76 I1.11 J.1
G2 X23.236 Y8.84 I.8 J-.-0
G2 X24.244 Y7.74 I-.-1 J-.-8
G2 X23.239 Y6.62 I-5.-53 J1.13
G3 X23.238 Y5.59 I.5 J-.-2
G3 X24.240 Y6.60 I.1 J.0
G1 X24.245 Y5.59
G2 X23.237 Y5.54 I-.-6 J.0
G2 X23.234 Y6.64 I.2 J.6
G3 X23.238 Y7.75 I-9.-95 J4.43
G3 X23.234 Y7.78 I-.-3 J.1
G3 X23.233 Y7.72 I.2 J-.-3
G2 X23.234 Y6.68 I-1.-13 J-.-5
G1 X23.234 Y6.67
G2 X22.227 Y6.60 I-.-7 J.0
G2 X22.220 Y6.67 I.0 J.7
F150
G1 Z-.-3
F400
G2 X22.227 Y7.74 I.7 J.0
G2 X22.227 Y7.76 I1.11 J.1
G2 X23.236 Y8.84 I.8 J-.-0
G2 X24.244 Y7.74 I-.-1 J-.-8
G2 X23.239 Y6.62 I-5.-53 J1.13
G3 X23.238 Y5.59 I.5 J-.-2
G3 X24.240 Y6.60 I.1 J.0
G1 X24.245 Y5.59
G2 X23.237 Y5.54 I-.-6 J.0
G2 X23.234 Y6.64 I.2 J.6
G3 X23.238 Y7.75 I-9.-95 J4.43
G3 X23.234 Y7.78 I-.-3 J.1
G3 X23.233 Y7.72 I.2 J-.-3
G2 X23.234 Y6.68 I-1.-13 J-.-5
G1 X23.234 Y6.67
G2 X22.227 Y6.60 I-.-7 J.0
G2 X22.220 Y6.67 I.0 J.7
F150
G1 Z.3
G0 Z1.15 
M9 M5

(* SHAPE Nr: 24 *)
G0 X22.226 Y6.67
M3 M8
G0 Z.3 
G1 Z-.-2
F400
G2 X22.227 Y6.69 I.1 J-.-0
G2 X22.229 Y6.67 I-.-0 J-.-1
G2 X22.227 Y6.66 I-.-1 J.0
G2 X22.226 Y6.67 I.0 J.1
F150
G1 Z-.-3
F400
G2 X22.227 Y6.69 I.1 J-.-0
G2 X22.229 Y6.67 I-.-0 J-.-1
G2 X22.227 Y6.66 I-.-1 J.0
G2 X22.226 Y6.67 I.0 J.1
F150
G1 Z.3
G0 Z1.15 
M9 M5

(* SHAPE Nr: 25 *)
G0 X16.166 Y3.38
M3 M8
G0 Z.3 
G1 Z-.-2
F400
G2 X16.168 Y4.42 I.7 J.0
G2 X18.183 Y4.49 I1.13 J-.-8
G2 X19.196 Y4.46 I.0 J-2.-22
G1 X19.196 Y4.40
G3 X17.178 Y4.43 I-1.-12 J-1.-16
G2 X18.180 Y3.38 I-.-5 J-.-5
G2 X17.173 Y3.31 I-.-7 J.0
G2 X16.166 Y3.38 I.0 J.7
F150
G1 Z-.-3
F400
G2 X16.168 Y4.42 I.7 J.0
G2 X18.183 Y4.49 I1.13 J-.-8
G2 X19.196 Y4.46 I.0 J-2.-22
G1 X19.196 Y4.40
G3 X17.178 Y4.43 I-1.-12 J-1.-16
G2 X18.180 Y3.38 I-.-5 J-.-5
G2 X17.173 Y3.31 I-.-7 J.0
G2 X16.166 Y3.38 I.0 J.7
F150
G1 Z.3
G0 Z1.15 
M9 M5

(* SHAPE Nr: 26 *)
G0 X16.167 Y2.25
M3 M8
G0 Z.3 
G1 Z-.-2
F400
G1 X16.167 Y3.31
G3 X18.184 Y2.28 I1.12 J1.16
G2 X18.183 Y3.33 I.5 J.5
G2 X19.190 Y3.39 I.7 J.0
G2 X19.196 Y3.33 I.0 J-.-7
G2 X19.195 Y2.29 I-.-7 J.0
G2 X17.179 Y2.22 I-1.-13 J.8
G2 X16.167 Y2.25 I-.-0 J2.22
F150
G1 Z-.-3
F400
G1 X16.167 Y3.31
G3 X18.184 Y2.28 I1.12 J1.16
G2 X18.183 Y3.33 I.5 J.5
G2 X19.190 Y3.39 I.7 J.0
G2 X19.196 Y3.33 I.0 J-.-7
G2 X19.195 Y2.29 I-.-7 J.0
G2 X17.179 Y2.22 I-1.-13 J.8
G2 X16.167 Y2.25 I-.-0 J2.22
F150
G1 Z.3
G0 Z1.15 
M9 M5

(* SHAPE Nr: 27 *)
G0 X17.172 Y3.38
M3 M8
G0 Z.3 
G1 Z-.-2
F400
G2 X17.173 Y4.40 I.1 J-.-0
G2 X17.175 Y3.38 I-.-0 J-.-1
G2 X17.173 Y3.37 I-.-1 J.0
G2 X17.172 Y3.38 I.0 J.1
F150
G1 Z-.-3
F400
G2 X17.173 Y4.40 I.1 J-.-0
G2 X17.175 Y3.38 I-.-0 J-.-1
G2 X17.173 Y3.37 I-.-1 J.0
G2 X17.172 Y3.38 I.0 J.1
F150
G1 Z.3
G0 Z1.15 
M9 M5

(* SHAPE Nr: 28 *)
G0 X18.188 Y3.33
M3 M8
G0 Z.3 
G1 Z-.-2
F400
G2 X19.190 Y3.34 I.1 J-.-0
G2 X19.191 Y3.33 I-.-0 J-.-1
G2 X19.190 Y3.31 I-.-1 J.0
G2 X18.188 Y3.33 I.0 J.1
F150
G1 Z-.-3
F400
G2 X19.190 Y3.34 I.1 J-.-0
G2 X19.191 Y3.33 I-.-0 J-.-1
G2 X19.190 Y3.31 I-.-1 J.0
G2 X18.188 Y3.33 I.0 J.1
F150
G1 Z.3
G0 Z1.15 
M9 M5

(* SHAPE Nr: 29 *)
G0 X10.107 Y2.25
M3 M8
G0 Z.3 
G1 Z-.-2
F400
G1 X10.107 Y3.30
G2 X11.111 Y3.31 I1.11 J-3.-37
G1 X11.111 Y4.46
G2 X10.107 Y4.47 I.6 J3.36
G1 X10.107 Y5.53
G3 X11.119 Y5.51 I1.12 J4.43
G3 X13.133 Y5.53 I.0 J4.45
G1 X13.133 Y4.47
G2 X12.128 Y4.46 I-1.-13 J4.40
G1 X12.128 Y3.31
G2 X13.133 Y3.30 I-.-7 J-3.-37
G1 X13.133 Y2.25
G3 X11.119 Y2.27 I-1.-13 J-4.-40
G3 X10.107 Y2.25 I.0 J-4.-46
F150
G1 Z-.-3
F400
G1 X10.107 Y3.30
G2 X11.111 Y3.31 I1.11 J-3.-37
G1 X11.111 Y4.46
G2 X10.107 Y4.47 I.6 J3.36
G1 X10.107 Y5.53
G3 X11.119 Y5.51 I1.12 J4.43
G3 X13.133 Y5.53 I.0 J4.45
G1 X13.133 Y4.47
G2 X12.128 Y4.46 I-1.-13 J4.40
G1 X12.128 Y3.31
G2 X13.133 Y3.30 I-.-7 J-3.-37
G1 X13.133 Y2.25
G3 X11.119 Y2.27 I-1.-13 J-4.-40
G3 X10.107 Y2.25 I.0 J-4.-46
F150
G1 Z.3
G0 Z1.15 
M9 M5

(* SHAPE Nr: 30 *)
G0 X11.117 Y3.32
M3 M8
G0 Z.3 
G1 Z-.-2
F400
G1 X11.117 Y4.45
G3 X11.119 Y4.45 I.2 J11.112
G3 X12.122 Y4.45 I.0 J5.59
G1 X12.122 Y3.32
G3 X11.119 Y3.32 I-.-2 J-9.-98
G3 X11.117 Y3.32 I-.-0 J-6.-67
F150
G1 Z-.-3
F400
G1 X11.117 Y4.45
G3 X11.119 Y4.45 I.2 J11.112
G3 X12.122 Y4.45 I.0 J5.59
G1 X12.122 Y3.32
G3 X11.119 Y3.32 I-.-2 J-9.-98
G3 X11.117 Y3.32 I-.-0 J-6.-67
F150
G1 Z.3
G0 Z1.15 
M9 M5

(*** LAYER: dimensions ***)

(* SHAPE Nr: 0 *)
G0 X5.51 Y5.51
M3 M8
G0 Z.3 
G1 Z-.-2
F400
G2 X24.249 Y24.249 I9.99 J9.99
G2 X5.51 Y5.51 I-9.-99 J-9.-99
F150
G1 Z-.-3
F400
G2 X24.249 Y24.249 I9.99 J9.99
G2 X5.51 Y5.51 I-9.-99 J-9.-99
F150
G1 Z.3
G0 Z1.15 
M9 M5

(* SHAPE Nr: 2 *)
G0 X29.290 Y15.150
M3 M8
G0 Z.3 
G1 Z-.-2
F400
G1 X15.150 Y15.150
G1 X27.271 Y22.220
F150
G1 Z-.-3
F400
G1 X15.150 Y15.150
G1 X29.290 Y15.150
F150
G1 Z.3
G0 Z1.15 
M9 M5

(* SHAPE Nr: 3 *)
G0 X22.220 Y27.271
M3 M8
G0 Z.3 
G1 Z-.-2
F400
G1 X15.150 Y15.150
G1 X8.80 Y27.271
F150
G1 Z-.-3
F400
G1 X15.150 Y15.150
G1 X22.220 Y27.271
F150
G1 Z.3
G0 Z1.15 
M9 M5

(* SHAPE Nr: 4 *)
G0 X15.150 Y29.290
M3 M8
G0 Z.3 
G1 Z-.-2
F400
G1 X15.150 Y15.150
G1 X1.10 Y15.150
F150
G1 Z-.-3
F400
G1 X15.150 Y15.150
G1 X15.150 Y29.290
F150
G1 Z.3
G0 Z1.15 
M9 M5

(* SHAPE Nr: 5 *)
G0 X2.29 Y22.220
M3 M8
G0 Z.3 
G1 Z-.-2
F400
G1 X15.150 Y15.150
G1 X2.29 Y8.80
F150
G1 Z-.-3
F400
G1 X15.150 Y15.150
G1 X2.29 Y22.220
F150
G1 Z.3
G0 Z1.15 
M9 M5

(* SHAPE Nr: 6 *)
G0 X8.80 Y2.29
M3 M8
G0 Z.3 
G1 Z-.-2
F400
G1 X15.150 Y15.150
G1 X15.150 Y1.10
F150
G1 Z-.-3
F400
G1 X15.150 Y15.150
G1 X8.80 Y2.29
F150
G1 Z.3
G0 Z1.15 
M9 M5

(* SHAPE Nr: 7 *)
G0 X22.220 Y2.29
M3 M8
G0 Z.3 
G1 Z-.-2
F400
G1 X15.150 Y15.150
G1 X27.271 Y8.80
F150
G1 Z-.-3
F400
G1 X15.150 Y15.150
G1 X22.220 Y2.29
F150
G1 Z.3
G0 Z1.15 
M9 M5

(* SHAPE Nr: 8 *)
G0 X.0 Y.0
M3 M8
G0 Z.3 
G1 Z-.-2
F400
G1 X15.150 Y15.150
F150
G1 Z-.-3
F400
G1 X.0 Y.0
F150
G1 Z.3
G0 Z1.15 
M9 M5

(*** LAYER: TEXT ***)

(* SHAPE Nr: 31 *)
G0 X1.10 Y-2.-23
M3 M8
G0 Z.3 
G1 Z-.-2
F400
G1 X1.13 Y-2.-22
G1 X1.16 Y-2.-22
G1 X1.18 Y-2.-23
G1 X2.21 Y-2.-25
G1 X2.23 Y-2.-28
G1 X2.24 Y-3.-31
G1 X2.24 Y-3.-34
G1 X2.23 Y-3.-37
G1 X2.21 Y-4.-40
G1 X1.18 Y-4.-41
G1 X1.16 Y-4.-42
G1 X1.13 Y-4.-42
G1 X1.10 Y-4.-41
G1 X.7 Y-4.-40
G1 X.5 Y-3.-37
G1 X.4 Y-3.-34
G1 X.4 Y-3.-31
G1 X.5 Y-2.-28
G1 X.7 Y-2.-25
G1 X1.10 Y-2.-23
F150
G1 Z-.-3
F400
G1 X1.13 Y-2.-22
G1 X1.16 Y-2.-22
G1 X1.18 Y-2.-23
G1 X2.21 Y-2.-25
G1 X2.23 Y-2.-28
G1 X2.24 Y-3.-31
G1 X2.24 Y-3.-34
G1 X2.23 Y-3.-37
G1 X2.21 Y-4.-40
G1 X1.18 Y-4.-41
G1 X1.16 Y-4.-42
G1 X1.13 Y-4.-42
G1 X1.10 Y-4.-41
G1 X.7 Y-4.-40
G1 X.5 Y-3.-37
G1 X.4 Y-3.-34
G1 X.4 Y-3.-31
G1 X.5 Y-2.-28
G1 X.7 Y-2.-25
G1 X1.10 Y-2.-23
F150
G1 Z.3
G0 Z1.15 
M9 M5

(* SHAPE Nr: 32 *)
G0 X1.14 Y-3.-31
M3 M8
G0 Z.3 
G1 Z-.-2
F400
G1 X1.15 Y-3.-31
G1 X1.16 Y-3.-32
G1 X1.16 Y-3.-33
G1 X1.15 Y-3.-34
G1 X1.14 Y-3.-34
G1 X1.13 Y-3.-33
G1 X1.13 Y-3.-32
G1 X1.14 Y-3.-31
F150
G1 Z-.-3
F400
G1 X1.15 Y-3.-31
G1 X1.16 Y-3.-32
G1 X1.16 Y-3.-33
G1 X1.15 Y-3.-34
G1 X1.14 Y-3.-34
G1 X1.13 Y-3.-33
G1 X1.13 Y-3.-32
G1 X1.14 Y-3.-31
F150
G1 Z.3
G0 Z1.15 
M9 M5

(* SHAPE Nr: 33 *)
G0 X1.14 Y-3.-32
M3 M8
G0 Z.3 
G1 Z-.-2
F400
G1 X1.15 Y-3.-32
G1 X1.15 Y-3.-33
G1 X1.14 Y-3.-33
G1 X1.14 Y-3.-32
F150
G1 Z-.-3
F400
G1 X1.15 Y-3.-32
G1 X1.15 Y-3.-33
G1 X1.14 Y-3.-33
G1 X1.14 Y-3.-32
F150
G1 Z.3
G0 Z1.15 
M9 M5

(* SHAPE Nr: 34 *)
G0 X3.32 Y-2.-23
M3 M8
G0 Z.3 
G1 Z-.-2
F400
G1 X3.34 Y-2.-22
G1 X3.33 Y-2.-23
G1 X3.33 Y-2.-25
G1 X3.32 Y-2.-23
F150
G1 Z-.-3
F400
G1 X3.34 Y-2.-22
G1 X3.33 Y-2.-23
G1 X3.33 Y-2.-25
G1 X3.32 Y-2.-23
F150
G1 Z.3
G0 Z1.15 
M9 M5

(* SHAPE Nr: 35 *)
G0 X3.35 Y-2.-26
M3 M8
G0 Z.3 
G1 Z-.-2
F400
G1 X3.38 Y-2.-26
G1 X3.39 Y-2.-27
G1 X4.40 Y-2.-28
G1 X4.41 Y-3.-30
G1 X4.41 Y-3.-33
G1 X4.40 Y-3.-35
G1 X3.39 Y-3.-36
G1 X3.38 Y-3.-37
G1 X3.35 Y-3.-37
G1 X3.33 Y-3.-36
G1 X3.32 Y-3.-35
G1 X3.31 Y-3.-33
G1 X3.31 Y-3.-30
G1 X3.32 Y-2.-28
G1 X3.33 Y-2.-27
G1 X3.35 Y-2.-26
G1 X3.33 Y-2.-25
F150
G1 Z-.-3
F400
G1 X3.35 Y-2.-26
G1 X3.33 Y-2.-27
G1 X3.32 Y-2.-28
G1 X3.31 Y-3.-30
G1 X3.31 Y-3.-33
G1 X3.32 Y-3.-35
G1 X3.33 Y-3.-36
G1 X3.35 Y-3.-37
G1 X3.38 Y-3.-37
G1 X3.39 Y-3.-36
G1 X4.40 Y-3.-35
G1 X4.41 Y-3.-33
G1 X4.41 Y-3.-30
G1 X4.40 Y-2.-28
G1 X3.39 Y-2.-27
G1 X3.38 Y-2.-26
G1 X3.35 Y-2.-26
F150
G1 Z.3
G0 Z1.15 
M9 M5

(* SHAPE Nr: 36 *)
G0 X3.38 Y-2.-22
M3 M8
G0 Z.3 
G1 Z-.-2
F400
G1 X4.40 Y-2.-23
G1 X3.39 Y-2.-25
G1 X3.39 Y-2.-23
G1 X3.38 Y-2.-22
F150
G1 Z-.-3
F400
G1 X4.40 Y-2.-23
G1 X3.39 Y-2.-25
G1 X3.39 Y-2.-23
G1 X3.38 Y-2.-22
F150
G1 Z.3
G0 Z1.15 
M9 M5

(* SHAPE Nr: 37 *)
G0 X3.39 Y-2.-25
M3 M8
G0 Z.3 
G1 Z-.-2
F400
G1 X3.38 Y-2.-26
F150
G1 Z-.-3
F400
G1 X3.39 Y-2.-25
F150
G1 Z.3
G0 Z1.15 
M9 M5

(* SHAPE Nr: 38 *)
G0 X3.36 Y-3.-37
M3 M8
G0 Z.3 
G1 Z-.-2
F400
G1 X3.36 Y-4.-42
F150
G1 Z-.-3
F400
G1 X3.36 Y-3.-37
F150
G1 Z.3
G0 Z1.15 
M9 M5

(* SHAPE Nr: 39 *)
G0 X3.37 Y-3.-37
M3 M8
G0 Z.3 
G1 Z-.-2
F400
G1 X3.37 Y-4.-42
F150
G1 Z-.-3
F400
G1 X3.37 Y-3.-37
F150
G1 Z.3
G0 Z1.15 
M9 M5

(* SHAPE Nr: 40 *)
G0 X4.40 Y-4.-40
M3 M8
G0 Z.3 
G1 Z-.-2
F400
G1 X3.32 Y-4.-40
F150
G1 Z-.-3
F400
G1 X4.40 Y-4.-40
F150
G1 Z.3
G0 Z1.15 
M9 M5

(* SHAPE Nr: 41 *)
G0 X4.49 Y-2.-25
M3 M8
G0 Z.3 
G1 Z-.-2
F400
G1 X5.51 Y-2.-23
G1 X5.54 Y-2.-22
G1 X5.55 Y-2.-22
G1 X5.58 Y-2.-23
G1 X5.59 Y-2.-25
G1 X6.60 Y-2.-28
G1 X6.60 Y-2.-29
G1 X5.59 Y-3.-32
G1 X5.58 Y-3.-34
G1 X5.55 Y-3.-35
G1 X5.54 Y-3.-35
G1 X5.51 Y-3.-34
G1 X4.49 Y-3.-32
G1 X4.48 Y-2.-29
G1 X4.48 Y-2.-28
G1 X4.49 Y-2.-25
F150
G1 Z-.-3
F400
G1 X5.51 Y-2.-23
G1 X5.54 Y-2.-22
G1 X5.55 Y-2.-22
G1 X5.58 Y-2.-23
G1 X5.59 Y-2.-25
G1 X6.60 Y-2.-28
G1 X6.60 Y-2.-29
G1 X5.59 Y-3.-32
G1 X5.58 Y-3.-34
G1 X5.55 Y-3.-35
G1 X5.54 Y-3.-35
G1 X5.51 Y-3.-34
G1 X4.49 Y-3.-32
G1 X4.48 Y-2.-29
G1 X4.48 Y-2.-28
G1 X4.49 Y-2.-25
F150
G1 Z.3
G0 Z1.15 
M9 M5

(* SHAPE Nr: 42 *)
G0 X5.54 Y-3.-35
M3 M8
G0 Z.3 
G1 Z-.-2
F400
G1 X5.54 Y-4.-42
F150
G1 Z-.-3
F400
G1 X5.54 Y-3.-35
F150
G1 Z.3
G0 Z1.15 
M9 M5

(* SHAPE Nr: 43 *)
G0 X5.55 Y-3.-35
M3 M8
G0 Z.3 
G1 Z-.-2
F400
G1 X5.55 Y-4.-42
F150
G1 Z-.-3
F400
G1 X5.55 Y-3.-35
F150
G1 Z.3
G0 Z1.15 
M9 M5

(* SHAPE Nr: 44 *)
G0 X5.58 Y-3.-39
M3 M8
G0 Z.3 
G1 Z-.-2
F400
G1 X5.50 Y-3.-39
F150
G1 Z-.-3
F400
G1 X5.58 Y-3.-39
F150
G1 Z.3
G0 Z1.15 
M9 M5

(* SHAPE Nr: 45 *)
G0 X6.68 Y-2.-28
M3 M8
G0 Z.3 
G1 Z-.-2
F400
G1 X7.70 Y-2.-25
G1 X7.73 Y-2.-23
G1 X7.76 Y-2.-22
G1 X7.79 Y-2.-22
G1 X8.82 Y-2.-23
G1 X8.85 Y-2.-25
G1 X8.87 Y-2.-28
G1 X8.88 Y-3.-31
G1 X8.88 Y-3.-35
G1 X8.87 Y-3.-38
G1 X8.85 Y-4.-40
G1 X8.82 Y-4.-42
G1 X7.79 Y-4.-43
G1 X7.76 Y-4.-43
G1 X7.73 Y-4.-42
G1 X7.70 Y-4.-40
G1 X6.68 Y-3.-38
G1 X6.67 Y-3.-35
G1 X6.67 Y-3.-31
G1 X6.68 Y-2.-28
F150
G1 Z-.-3
F400
G1 X7.70 Y-2.-25
G1 X7.73 Y-2.-23
G1 X7.76 Y-2.-22
G1 X7.79 Y-2.-22
G1 X8.82 Y-2.-23
G1 X8.85 Y-2.-25
G1 X8.87 Y-2.-28
G1 X8.88 Y-3.-31
G1 X8.88 Y-3.-35
G1 X8.87 Y-3.-38
G1 X8.85 Y-4.-40
G1 X8.82 Y-4.-42
G1 X7.79 Y-4.-43
G1 X7.76 Y-4.-43
G1 X7.73 Y-4.-42
G1 X7.70 Y-4.-40
G1 X6.68 Y-3.-38
G1 X6.67 Y-3.-35
G1 X6.67 Y-3.-31
G1 X6.68 Y-2.-28
F150
G1 Z.3
G0 Z1.15 
M9 M5

(* SHAPE Nr: 46 *)
G0 X7.78 Y-2.-22
M3 M8
G0 Z.3 
G1 Z-.-2
F400
G1 X7.78 Y-4.-43
F150
G1 Z-.-3
F400
G1 X7.78 Y-2.-22
F150
G1 Z.3
G0 Z1.15 
M9 M5

(* SHAPE Nr: 47 *)
G0 X8.88 Y-3.-33
M3 M8
G0 Z.3 
G1 Z-.-2
F400
G1 X6.67 Y-3.-33
F150
G1 Z-.-3
F400
G1 X8.88 Y-3.-33
F150
G1 Z.3
G0 Z1.15 
M9 M5

(* SHAPE Nr: 48 *)
G0 X9.96 Y-3.-32
M3 M8
G0 Z.3 
G1 Z-.-2
F400
G1 X9.98 Y-3.-30
G1 X10.100 Y-2.-29
G1 X10.101 Y-2.-29
G1 X10.104 Y-3.-30
G1 X10.106 Y-3.-32
G1 X10.107 Y-3.-35
G1 X10.107 Y-3.-36
G1 X10.106 Y-3.-39
G1 X10.104 Y-4.-40
G1 X10.101 Y-4.-41
G1 X10.100 Y-4.-41
G1 X9.98 Y-4.-40
G1 X9.96 Y-3.-39
G1 X9.95 Y-3.-36
G1 X9.95 Y-3.-35
G1 X9.96 Y-3.-32
F150
G1 Z-.-3
F400
G1 X9.98 Y-3.-30
G1 X10.100 Y-2.-29
G1 X10.101 Y-2.-29
G1 X10.104 Y-3.-30
G1 X10.106 Y-3.-32
G1 X10.107 Y-3.-35
G1 X10.107 Y-3.-36
G1 X10.106 Y-3.-39
G1 X10.104 Y-4.-40
G1 X10.101 Y-4.-41
G1 X10.100 Y-4.-41
G1 X9.98 Y-4.-40
G1 X9.96 Y-3.-39
G1 X9.95 Y-3.-36
G1 X9.95 Y-3.-35
G1 X9.96 Y-3.-32
F150
G1 Z.3
G0 Z1.15 
M9 M5

(* SHAPE Nr: 49 *)
G0 X10.105 Y-3.-30
M3 M8
G0 Z.3 
G1 Z-.-2
F400
G1 X11.111 Y-2.-24
G1 X10.107 Y-2.-23
G1 X11.113 Y-2.-23
G1 X11.113 Y-2.-29
G1 X11.112 Y-2.-25
G1 X10.106 Y-3.-31
F150
G1 Z-.-3
F400
G1 X11.112 Y-2.-25
G1 X11.113 Y-2.-29
G1 X11.113 Y-2.-23
G1 X10.107 Y-2.-23
G1 X11.111 Y-2.-24
G1 X10.105 Y-3.-30
F150
G1 Z.3
G0 Z1.15 
M9 M5

(* SHAPE Nr: 50 *)
G0 X11.112 Y-2.-24
M3 M8
G0 Z.3 
G1 Z-.-2
F400
G1 X10.106 Y-3.-30
F150
G1 Z-.-3
F400
G1 X11.112 Y-2.-24
F150
G1 Z.3
G0 Z1.15 
M9 M5

(* SHAPE Nr: 51 *)
G0 X11.119 Y-2.-25
M3 M8
G0 Z.3 
G1 Z-.-2
F400
G1 X12.120 Y-2.-23
G1 X12.122 Y-2.-22
G1 X12.125 Y-2.-22
G1 X12.127 Y-2.-23
G1 X12.128 Y-2.-25
G1 X12.128 Y-2.-28
G1 X12.127 Y-3.-31
G1 X12.126 Y-3.-33
G1 X12.124 Y-3.-35
G1 X12.121 Y-3.-37
G1 X13.135 Y-3.-37
F150
G1 Z-.-3
F400
G1 X12.121 Y-3.-37
G1 X12.124 Y-3.-35
G1 X12.126 Y-3.-33
G1 X12.127 Y-3.-31
G1 X12.128 Y-2.-28
G1 X12.128 Y-2.-25
G1 X12.127 Y-2.-23
G1 X12.125 Y-2.-22
G1 X12.122 Y-2.-22
G1 X12.120 Y-2.-23
G1 X11.119 Y-2.-25
F150
G1 Z.3
G0 Z1.15 
M9 M5

(* SHAPE Nr: 52 *)
G0 X12.125 Y-2.-22
M3 M8
G0 Z.3 
G1 Z-.-2
F400
G1 X12.126 Y-2.-23
G1 X12.127 Y-2.-25
G1 X12.127 Y-2.-29
G1 X12.126 Y-3.-32
G1 X12.124 Y-3.-35
F150
G1 Z-.-3
F400
G1 X12.126 Y-3.-32
G1 X12.127 Y-2.-29
G1 X12.127 Y-2.-25
G1 X12.126 Y-2.-23
G1 X12.125 Y-2.-22
F150
G1 Z.3
G0 Z1.15 
M9 M5

(* SHAPE Nr: 53 *)
G0 X13.132 Y-2.-22
M3 M8
G0 Z.3 
G1 Z-.-2
F400
G1 X13.130 Y-4.-42
F150
G1 Z-.-3
F400
G1 X13.132 Y-2.-22
F150
G1 Z.3
G0 Z1.15 
M9 M5

(* SHAPE Nr: 54 *)
G0 X13.133 Y-2.-22
M3 M8
G0 Z.3 
G1 Z-.-2
F400
G1 X12.129 Y-4.-42
F150
G1 Z-.-3
F400
G1 X13.133 Y-2.-22
F150
G1 Z.3
G0 Z1.15 
M9 M5

(* SHAPE Nr: 55 *)
G0 X14.143 Y-2.-22
M3 M8
G0 Z.3 
G1 Z-.-2
F400
G1 X14.143 Y-3.-37
F150
G1 Z-.-3
F400
G1 X14.143 Y-2.-22
F150
G1 Z.3
G0 Z1.15 
M9 M5

(* SHAPE Nr: 56 *)
G0 X14.141 Y-2.-22
M3 M8
G0 Z.3 
G1 Z-.-2
F400
G1 X14.144 Y-2.-22
G1 X14.143 Y-3.-33
G1 X14.144 Y-3.-31
G1 X14.145 Y-3.-30
G1 X14.147 Y-2.-29
G1 X15.150 Y-2.-29
G1 X15.152 Y-3.-30
G1 X15.153 Y-3.-32
G1 X15.153 Y-3.-34
G1 X15.150 Y-4.-40
G1 X15.150 Y-4.-41
G1 X15.151 Y-4.-42
G1 X15.153 Y-4.-42
G1 X15.155 Y-4.-40
F150
G1 Z-.-3
F400
G1 X15.153 Y-4.-42
G1 X15.151 Y-4.-42
G1 X15.150 Y-4.-41
G1 X15.150 Y-4.-40
G1 X15.153 Y-3.-34
G1 X15.153 Y-3.-32
G1 X15.152 Y-3.-30
G1 X15.150 Y-2.-29
G1 X14.147 Y-2.-29
G1 X14.145 Y-3.-30
G1 X14.144 Y-3.-31
G1 X14.143 Y-3.-33
G1 X14.144 Y-2.-22
G1 X14.141 Y-2.-22
F150
G1 Z.3
G0 Z1.15 
M9 M5

(* SHAPE Nr: 57 *)
G0 X15.150 Y-2.-29
M3 M8
G0 Z.3 
G1 Z-.-2
F400
G1 X15.153 Y-3.-30
G1 X15.154 Y-3.-32
G1 X15.154 Y-3.-34
G1 X15.153 Y-3.-36
G1 X15.151 Y-3.-38
F150
G1 Z-.-3
F400
G1 X15.153 Y-3.-36
G1 X15.154 Y-3.-34
G1 X15.154 Y-3.-32
G1 X15.153 Y-3.-30
G1 X15.150 Y-2.-29
F150
G1 Z.3
G0 Z1.15 
M9 M5

(* SHAPE Nr: 58 *)
G0 X16.161 Y-3.-36
M3 M8
G0 Z.3 
G1 Z-.-2
F400
G1 X16.162 Y-3.-33
G1 X16.164 Y-3.-31
G1 X16.167 Y-3.-30
G1 X16.168 Y-3.-30
G1 X17.171 Y-3.-31
G1 X17.173 Y-3.-33
G1 X17.174 Y-3.-36
G1 X17.174 Y-3.-37
G1 X17.173 Y-4.-40
G1 X17.171 Y-4.-41
G1 X16.168 Y-4.-42
G1 X16.167 Y-4.-42
G1 X16.164 Y-4.-41
G1 X16.162 Y-4.-40
G1 X16.161 Y-3.-37
G1 X16.161 Y-3.-36
F150
G1 Z-.-3
F400
G1 X16.162 Y-3.-33
G1 X16.164 Y-3.-31
G1 X16.167 Y-3.-30
G1 X16.168 Y-3.-30
G1 X17.171 Y-3.-31
G1 X17.173 Y-3.-33
G1 X17.174 Y-3.-36
G1 X17.174 Y-3.-37
G1 X17.173 Y-4.-40
G1 X17.171 Y-4.-41
G1 X16.168 Y-4.-42
G1 X16.167 Y-4.-42
G1 X16.164 Y-4.-41
G1 X16.162 Y-4.-40
G1 X16.161 Y-3.-37
G1 X16.161 Y-3.-36
F150
G1 Z.3
G0 Z1.15 
M9 M5

(* SHAPE Nr: 59 *)
G0 X16.167 Y-2.-24
M3 M8
G0 Z.3 
G1 Z-.-2
F400
G1 X16.163 Y-2.-26
G1 X16.167 Y-2.-22
G1 X16.167 Y-3.-30
F150
G1 Z-.-3
F400
G1 X16.167 Y-2.-22
G1 X16.163 Y-2.-26
G1 X16.167 Y-2.-24
F150
G1 Z.3
G0 Z1.15 
M9 M5

(* SHAPE Nr: 60 *)
G0 X16.168 Y-3.-30
M3 M8
G0 Z.3 
G1 Z-.-2
F400
G1 X16.168 Y-2.-22
G1 X17.172 Y-2.-26
G1 X16.168 Y-2.-24
F150
G1 Z-.-3
F400
G1 X17.172 Y-2.-26
G1 X16.168 Y-2.-22
G1 X16.168 Y-3.-30
F150
G1 Z.3
G0 Z1.15 
M9 M5

(* SHAPE Nr: 61 *)
G0 X16.166 Y-3.-36
M3 M8
G0 Z.3 
G1 Z-.-2
F400
G1 X16.167 Y-3.-35
G1 X16.168 Y-3.-35
G1 X16.169 Y-3.-36
G1 X16.169 Y-3.-37
G1 X16.168 Y-3.-38
G1 X16.167 Y-3.-38
G1 X16.166 Y-3.-37
G1 X16.166 Y-3.-36
F150
G1 Z-.-3
F400
G1 X16.167 Y-3.-35
G1 X16.168 Y-3.-35
G1 X16.169 Y-3.-36
G1 X16.169 Y-3.-37
G1 X16.168 Y-3.-38
G1 X16.167 Y-3.-38
G1 X16.166 Y-3.-37
G1 X16.166 Y-3.-36
F150
G1 Z.3
G0 Z1.15 
M9 M5

(* SHAPE Nr: 62 *)
G0 X16.167 Y-3.-36
M3 M8
G0 Z.3 
G1 Z-.-2
F400
G1 X16.168 Y-3.-36
G1 X16.168 Y-3.-37
G1 X16.167 Y-3.-37
G1 X16.167 Y-3.-36
F150
G1 Z-.-3
F400
G1 X16.168 Y-3.-36
G1 X16.168 Y-3.-37
G1 X16.167 Y-3.-37
G1 X16.167 Y-3.-36
F150
G1 Z.3
G0 Z1.15 
M9 M5

(* SHAPE Nr: 63 *)
G0 X18.187 Y-2.-24
M3 M8
G0 Z.3 
G1 Z-.-2
F400
G1 X18.188 Y-2.-22
G1 X18.188 Y-4.-42
F150
G1 Z-.-3
F400
G1 X18.188 Y-2.-22
G1 X18.187 Y-2.-24
F150
G1 Z.3
G0 Z1.15 
M9 M5

(* SHAPE Nr: 64 *)
G0 X18.189 Y-4.-42
M3 M8
G0 Z.3 
G1 Z-.-2
F400
G1 X18.189 Y-2.-22
G1 X19.190 Y-2.-24
F150
G1 Z-.-3
F400
G1 X18.189 Y-2.-22
G1 X18.189 Y-4.-42
F150
G1 Z.3
G0 Z1.15 
M9 M5

(* SHAPE Nr: 65 *)
G0 X18.188 Y-3.-35
M3 M8
G0 Z.3 
G1 Z-.-2
F400
G1 X18.187 Y-3.-35
G1 X18.184 Y-3.-34
G1 X18.182 Y-3.-32
G1 X18.181 Y-2.-29
G1 X18.181 Y-2.-22
G1 X18.180 Y-2.-24
F150
G1 Z-.-3
F400
G1 X18.181 Y-2.-22
G1 X18.181 Y-2.-29
G1 X18.182 Y-3.-32
G1 X18.184 Y-3.-34
G1 X18.187 Y-3.-35
G1 X18.188 Y-3.-35
F150
G1 Z.3
G0 Z1.15 
M9 M5

(* SHAPE Nr: 66 *)
G0 X18.183 Y-3.-33
M3 M8
G0 Z.3 
G1 Z-.-2
F400
G1 X18.182 Y-3.-30
G1 X18.182 Y-2.-22
G1 X18.183 Y-2.-24
F150
G1 Z-.-3
F400
G1 X18.182 Y-2.-22
G1 X18.182 Y-3.-30
G1 X18.183 Y-3.-33
F150
G1 Z.3
G0 Z1.15 
M9 M5

(* SHAPE Nr: 67 *)
G0 X19.197 Y-2.-24
M3 M8
G0 Z.3 
G1 Z-.-2
F400
G1 X19.196 Y-2.-22
G1 X19.196 Y-2.-29
G1 X19.195 Y-3.-32
G1 X19.193 Y-3.-34
G1 X19.190 Y-3.-35
G1 X18.189 Y-3.-35
F150
G1 Z-.-3
F400
G1 X19.190 Y-3.-35
G1 X19.193 Y-3.-34
G1 X19.195 Y-3.-32
G1 X19.196 Y-2.-29
G1 X19.196 Y-2.-22
G1 X19.197 Y-2.-24
F150
G1 Z.3
G0 Z1.15 
M9 M5

(* SHAPE Nr: 68 *)
G0 X19.194 Y-2.-24
M3 M8
G0 Z.3 
G1 Z-.-2
F400
G1 X19.195 Y-2.-22
G1 X19.195 Y-3.-30
G1 X19.194 Y-3.-33
F150
G1 Z-.-3
F400
G1 X19.195 Y-3.-30
G1 X19.195 Y-2.-22
G1 X19.194 Y-2.-24
F150
G1 Z.3
G0 Z1.15 
M9 M5

(* SHAPE Nr: 69 *)
G0 X19.193 Y-3.-39
M3 M8
G0 Z.3 
G1 Z-.-2
F400
G1 X18.184 Y-3.-39
F150
G1 Z-.-3
F400
G1 X19.193 Y-3.-39
F150
G1 Z.3
G0 Z1.15 
M9 M5

(* SHAPE Nr: 70 *)
G0 X20.206 Y-2.-22
M3 M8
G0 Z.3 
G1 Z-.-2
F400
G1 X20.206 Y-4.-42
F150
G1 Z-.-3
F400
G1 X20.206 Y-2.-22
F150
G1 Z.3
G0 Z1.15 
M9 M5

(* SHAPE Nr: 71 *)
G0 X20.207 Y-2.-22
M3 M8
G0 Z.3 
G1 Z-.-2
F400
G1 X20.207 Y-4.-42
F150
G1 Z-.-3
F400
G1 X20.207 Y-2.-22
F150
G1 Z.3
G0 Z1.15 
M9 M5

(* SHAPE Nr: 72 *)
G0 X20.203 Y-2.-22
M3 M8
G0 Z.3 
G1 Z-.-2
F400
G1 X21.215 Y-2.-22
G1 X21.218 Y-2.-23
G1 X21.218 Y-2.-24
G1 X21.219 Y-2.-26
G1 X21.219 Y-2.-29
G1 X21.218 Y-3.-31
G1 X21.218 Y-3.-32
G1 X21.215 Y-3.-33
G1 X21.217 Y-3.-32
G1 X21.218 Y-3.-31
G1 X21.218 Y-2.-29
G1 X21.218 Y-2.-26
G1 X21.218 Y-2.-24
G1 X21.217 Y-2.-23
G1 X21.215 Y-2.-22
G1 X20.203 Y-2.-22
F150
G1 Z-.-3
F400
G1 X21.215 Y-2.-22
G1 X21.218 Y-2.-23
G1 X21.218 Y-2.-24
G1 X21.219 Y-2.-26
G1 X21.219 Y-2.-29
G1 X21.218 Y-3.-31
G1 X21.218 Y-3.-32
G1 X21.215 Y-3.-33
G1 X21.217 Y-3.-32
G1 X21.218 Y-3.-31
G1 X21.218 Y-2.-29
G1 X21.218 Y-2.-26
G1 X21.218 Y-2.-24
G1 X21.217 Y-2.-23
G1 X21.215 Y-2.-22
G1 X20.203 Y-2.-22
F150
G1 Z.3
G0 Z1.15 
M9 M5

(* SHAPE Nr: 73 *)
G0 X21.215 Y-3.-33
M3 M8
G0 Z.3 
G1 Z-.-2
F400
G1 X20.207 Y-3.-33
F150
G1 Z-.-3
F400
G1 X21.215 Y-3.-33
F150
G1 Z.3
G0 Z1.15 
M9 M5

(* SHAPE Nr: 74 *)
G0 X21.218 Y-4.-42
M3 M8
G0 Z.3 
G1 Z-.-2
F400
G1 X21.218 Y-3.-38
G1 X21.218 Y-4.-42
G1 X20.203 Y-4.-42
F150
G1 Z-.-3
F400
G1 X21.218 Y-4.-42
G1 X21.218 Y-3.-38
G1 X21.218 Y-4.-42
F150
G1 Z.3
G0 Z1.15 
M9 M5

(* SHAPE Nr: 75 *)
G0 X22.226 Y-3.-32
M3 M8
G0 Z.3 
G1 Z-.-2
F400
G1 X22.227 Y-2.-29
G1 X22.229 Y-2.-26
G1 X23.232 Y-2.-24
G1 X23.236 Y-2.-23
G1 X23.239 Y-2.-23
G1 X23.237 Y-2.-24
G1 X23.234 Y-2.-26
G1 X23.232 Y-2.-29
G1 X23.231 Y-3.-32
G1 X23.231 Y-3.-35
G1 X23.232 Y-3.-38
G1 X23.234 Y-4.-40
G1 X23.237 Y-4.-42
G1 X23.239 Y-4.-43
G1 X23.236 Y-4.-43
G1 X23.232 Y-4.-42
G1 X22.229 Y-4.-40
G1 X22.227 Y-3.-38
G1 X22.226 Y-3.-35
G1 X22.226 Y-3.-32
F150
G1 Z-.-3
F400
G1 X22.227 Y-2.-29
G1 X22.229 Y-2.-26
G1 X23.232 Y-2.-24
G1 X23.236 Y-2.-23
G1 X23.239 Y-2.-23
G1 X23.237 Y-2.-24
G1 X23.234 Y-2.-26
G1 X23.232 Y-2.-29
G1 X23.231 Y-3.-32
G1 X23.231 Y-3.-35
G1 X23.232 Y-3.-38
G1 X23.234 Y-4.-40
G1 X23.237 Y-4.-42
G1 X23.239 Y-4.-43
G1 X23.236 Y-4.-43
G1 X23.232 Y-4.-42
G1 X22.229 Y-4.-40
G1 X22.227 Y-3.-38
G1 X22.226 Y-3.-35
G1 X22.226 Y-3.-32
F150
G1 Z.3
G0 Z1.15 
M9 M5

(* SHAPE Nr: 76 *)
G0 X24.246 Y-3.-37
M3 M8
G0 Z.3 
G1 Z-.-2
F400
G1 X24.247 Y-3.-35
G1 X24.248 Y-3.-34
G1 X25.250 Y-3.-33
G1 X25.252 Y-3.-33
G1 X25.254 Y-3.-34
G1 X25.255 Y-3.-35
G1 X25.256 Y-3.-37
G1 X25.256 Y-3.-39
G1 X25.255 Y-4.-40
G1 X25.254 Y-4.-41
G1 X25.252 Y-4.-42
G1 X25.250 Y-4.-42
G1 X24.248 Y-4.-41
G1 X24.247 Y-4.-40
G1 X24.246 Y-3.-39
G1 X24.246 Y-3.-37
F150
G1 Z-.-3
F400
G1 X24.247 Y-3.-35
G1 X24.248 Y-3.-34
G1 X25.250 Y-3.-33
G1 X25.252 Y-3.-33
G1 X25.254 Y-3.-34
G1 X25.255 Y-3.-35
G1 X25.256 Y-3.-37
G1 X25.256 Y-3.-39
G1 X25.255 Y-4.-40
G1 X25.254 Y-4.-41
G1 X25.252 Y-4.-42
G1 X25.250 Y-4.-42
G1 X24.248 Y-4.-41
G1 X24.247 Y-4.-40
G1 X24.246 Y-3.-39
G1 X24.246 Y-3.-37
F150
G1 Z.3
G0 Z1.15 
M9 M5

(* SHAPE Nr: 77 *)
G0 X25.256 Y-2.-24
M3 M8
G0 Z.3 
G1 Z-.-2
F400
G1 X25.253 Y-3.-33
F150
G1 Z-.-3
F400
G1 X25.256 Y-2.-24
F150
G1 Z.3
G0 Z1.15 
M9 M5

(* SHAPE Nr: 78 *)
G0 X26.262 Y-2.-26
M3 M8
G0 Z.3 
G1 Z-.-2
F400
G1 X25.255 Y-3.-34
F150
G1 Z-.-3
F400
G1 X26.262 Y-2.-26
F150
G1 Z.3
G0 Z1.15 
M9 M5

(* SHAPE Nr: 79 *)
G0 X26.264 Y-3.-33
M3 M8
G0 Z.3 
G1 Z-.-2
F400
G1 X25.256 Y-3.-36
F150
G1 Z-.-3
F400
G1 X26.264 Y-3.-33
F150
G1 Z.3
G0 Z1.15 
M9 M5

(* SHAPE Nr: 80 *)
G0 X27.275 Y-2.-27
M3 M8
G0 Z.3 
G1 Z-.-2
F400
G1 X28.280 Y-4.-40
F150
G1 Z-.-3
F400
G1 X27.275 Y-2.-27
F150
G1 Z.3
G0 Z1.15 
M9 M5

(* SHAPE Nr: 81 *)
G0 X28.280 Y-2.-27
M3 M8
G0 Z.3 
G1 Z-.-2
F400
G1 X27.275 Y-4.-40
F150
G1 Z-.-3
F400
G1 X28.280 Y-2.-27
F150
G1 Z.3
G0 Z1.15 
M9 M5

(* SHAPE Nr: 82 *)
G0 X27.271 Y-3.-31
M3 M8
G0 Z.3 
G1 Z-.-2
F400
G1 X28.284 Y-3.-37
F150
G1 Z-.-3
F400
G1 X27.271 Y-3.-31
F150
G1 Z.3
G0 Z1.15 
M9 M5

(* SHAPE Nr: 83 *)
G0 X28.284 Y-3.-31
M3 M8
G0 Z.3 
G1 Z-.-2
F400
G1 X27.271 Y-3.-37
F150
G1 Z-.-3
F400
G1 X28.284 Y-3.-31
F150
G1 Z.3
G0 Z1.15 
M9 M5

(* SHAPE Nr: 84 *)
G0 X29.291 Y-4.-40
M3 M8
G0 Z.3 
G1 Z-.-2
F400
G1 X29.292 Y-3.-38
G1 X29.294 Y-3.-37
G1 X29.295 Y-3.-37
G1 X29.297 Y-3.-38
G1 X29.298 Y-4.-40
G1 X29.297 Y-4.-42
G1 X29.295 Y-4.-43
G1 X29.294 Y-4.-43
G1 X29.292 Y-4.-42
G1 X29.291 Y-4.-40
F150
G1 Z-.-3
F400
G1 X29.292 Y-3.-38
G1 X29.294 Y-3.-37
G1 X29.295 Y-3.-37
G1 X29.297 Y-3.-38
G1 X29.298 Y-4.-40
G1 X29.297 Y-4.-42
G1 X29.295 Y-4.-43
G1 X29.294 Y-4.-43
G1 X29.292 Y-4.-42
G1 X29.291 Y-4.-40
F150
G1 Z.3
G0 Z1.15 
M9 M5

(* SHAPE Nr: 85 *)
G0 X29.297 Y-3.-38
M3 M8
G0 Z.3 
G1 Z-.-2
F400
G1 X29.294 Y-3.-34
G1 X29.293 Y-3.-31
G1 X29.293 Y-2.-29
G1 X29.294 Y-2.-26
G1 X29.296 Y-2.-24
G1 X29.298 Y-2.-23
G1 X30.302 Y-2.-23
G1 X30.305 Y-2.-24
G1 X30.307 Y-2.-26
G1 X30.308 Y-2.-29
G1 X30.308 Y-3.-31
G1 X30.307 Y-3.-34
F150
G1 Z-.-3
F400
G1 X30.308 Y-3.-31
G1 X30.308 Y-2.-29
G1 X30.307 Y-2.-26
G1 X30.305 Y-2.-24
G1 X30.302 Y-2.-23
G1 X29.298 Y-2.-23
G1 X29.296 Y-2.-24
G1 X29.294 Y-2.-26
G1 X29.293 Y-2.-29
G1 X29.293 Y-3.-31
G1 X29.294 Y-3.-34
G1 X29.297 Y-3.-38
F150
G1 Z.3
G0 Z1.15 
M9 M5

(* SHAPE Nr: 86 *)
G0 X30.303 Y-4.-40
M3 M8
G0 Z.3 
G1 Z-.-2
F400
G1 X30.304 Y-3.-38
G1 X30.307 Y-3.-34
G1 X30.304 Y-3.-38
G1 X30.306 Y-3.-37
G1 X30.307 Y-3.-37
G1 X30.309 Y-3.-38
G1 X31.310 Y-4.-40
G1 X30.309 Y-4.-42
G1 X30.307 Y-4.-43
G1 X30.306 Y-4.-43
G1 X30.304 Y-4.-42
G1 X30.303 Y-4.-40
F150
G1 Z-.-3
F400
G1 X30.304 Y-3.-38
G1 X30.307 Y-3.-34
G1 X30.304 Y-3.-38
G1 X30.306 Y-3.-37
G1 X30.307 Y-3.-37
G1 X30.309 Y-3.-38
G1 X31.310 Y-4.-40
G1 X30.309 Y-4.-42
G1 X30.307 Y-4.-43
G1 X30.306 Y-4.-43
G1 X30.304 Y-4.-42
G1 X30.303 Y-4.-40
F150
G1 Z.3
G0 Z1.15 
M9 M5

(* SHAPE Nr: 87 *)
G0 X29.293 Y-2.-29
M3 M8
G0 Z.3 
G1 Z-.-2
F400
G1 X29.294 Y-2.-27
G1 X29.296 Y-2.-25
G1 X29.298 Y-2.-24
G1 X30.302 Y-2.-24
G1 X30.305 Y-2.-25
G1 X30.307 Y-2.-27
G1 X30.308 Y-2.-29
F150
G1 Z-.-3
F400
G1 X30.307 Y-2.-27
G1 X30.305 Y-2.-25
G1 X30.302 Y-2.-24
G1 X29.298 Y-2.-24
G1 X29.296 Y-2.-25
G1 X29.294 Y-2.-27
G1 X29.293 Y-2.-29
F150
G1 Z.3
G0 Z1.15 
M9 M5

(* SHAPE Nr: 88 *)
G0 X31.317 Y-2.-26
M3 M8
G0 Z.3 
G1 Z-.-2
F400
G1 X31.318 Y-2.-24
G1 X31.319 Y-2.-23
G1 X32.320 Y-2.-23
G1 X32.322 Y-2.-24
G1 X32.323 Y-2.-26
G1 X32.323 Y-2.-27
G1 X32.322 Y-2.-29
G1 X32.320 Y-3.-30
G1 X31.319 Y-3.-30
G1 X31.318 Y-2.-29
G1 X31.317 Y-2.-27
G1 X31.317 Y-2.-26
F150
G1 Z-.-3
F400
G1 X31.318 Y-2.-24
G1 X31.319 Y-2.-23
G1 X32.320 Y-2.-23
G1 X32.322 Y-2.-24
G1 X32.323 Y-2.-26
G1 X32.323 Y-2.-27
G1 X32.322 Y-2.-29
G1 X32.320 Y-3.-30
G1 X31.319 Y-3.-30
G1 X31.318 Y-2.-29
G1 X31.317 Y-2.-27
G1 X31.317 Y-2.-26
F150
G1 Z.3
G0 Z1.15 
M9 M5

(* SHAPE Nr: 89 *)
G0 X33.333 Y-3.-33
M3 M8
G0 Z.3 
G1 Z-.-2
F400
G1 X33.334 Y-3.-36
G1 X33.334 Y-3.-38
G1 X33.333 Y-4.-40
G1 X33.331 Y-4.-42
G1 X32.328 Y-4.-43
G1 X32.324 Y-4.-43
G1 X32.321 Y-4.-42
G1 X31.319 Y-4.-40
G1 X31.318 Y-3.-38
G1 X31.318 Y-3.-36
G1 X31.319 Y-3.-33
G1 X32.322 Y-2.-29
F150
G1 Z-.-3
F400
G1 X31.319 Y-3.-33
G1 X31.318 Y-3.-36
G1 X31.318 Y-3.-38
G1 X31.319 Y-4.-40
G1 X32.321 Y-4.-42
G1 X32.324 Y-4.-43
G1 X32.328 Y-4.-43
G1 X33.331 Y-4.-42
G1 X33.333 Y-4.-40
G1 X33.334 Y-3.-38
G1 X33.334 Y-3.-36
G1 X33.333 Y-3.-33
F150
G1 Z.3
G0 Z1.15 
M9 M5

(* SHAPE Nr: 90 *)
G0 X32.329 Y-2.-26
M3 M8
G0 Z.3 
G1 Z-.-2
F400
G1 X33.330 Y-2.-24
G1 X33.332 Y-2.-23
G1 X33.333 Y-2.-23
G1 X33.335 Y-2.-24
G1 X33.336 Y-2.-26
G1 X33.336 Y-2.-27
G1 X33.335 Y-2.-29
G1 X33.333 Y-3.-30
G1 X33.332 Y-3.-30
G1 X33.330 Y-2.-29
G1 X33.333 Y-3.-33
G1 X33.330 Y-2.-29
G1 X32.329 Y-2.-27
G1 X32.329 Y-2.-26
F150
G1 Z-.-3
F400
G1 X33.330 Y-2.-24
G1 X33.332 Y-2.-23
G1 X33.333 Y-2.-23
G1 X33.335 Y-2.-24
G1 X33.336 Y-2.-26
G1 X33.336 Y-2.-27
G1 X33.335 Y-2.-29
G1 X33.333 Y-3.-30
G1 X33.332 Y-3.-30
G1 X33.330 Y-2.-29
G1 X33.333 Y-3.-33
G1 X33.330 Y-2.-29
G1 X32.329 Y-2.-27
G1 X32.329 Y-2.-26
F150
G1 Z.3
G0 Z1.15 
M9 M5

(* SHAPE Nr: 91 *)
G0 X33.334 Y-3.-38
M3 M8
G0 Z.3 
G1 Z-.-2
F400
G1 X33.333 Y-4.-40
G1 X33.331 Y-4.-41
G1 X32.328 Y-4.-42
G1 X32.324 Y-4.-42
G1 X32.321 Y-4.-41
G1 X31.319 Y-4.-40
G1 X31.318 Y-3.-38
F150
G1 Z-.-3
F400
G1 X31.319 Y-4.-40
G1 X32.321 Y-4.-41
G1 X32.324 Y-4.-42
G1 X32.328 Y-4.-42
G1 X33.331 Y-4.-41
G1 X33.333 Y-4.-40
G1 X33.334 Y-3.-38
F150
G1 Z.3
G0 Z1.15 
M9 M5
G0 X.0 Y.0
M2 (Program end)