%
(Header)
(Generated by gcodetools from Inkscape.)
(Using default header. To add your own header create file "header" in the output dir.)
M3
(Header end.)
G21 (All units in mm)

(Start cutting path id: path53)
(Change tool to Default tool)

G00 Z5.000000
G00 X100.065108 Y135.412330

G01 Z-0.125000 F100.0(Penetrate)
G01 X95.065108 Y135.412330 Z-0.125000 F400.000000
G00 Z5.000000

(End cutting path id: path53)


(Start cutting path id: path51)
(Change tool to Default tool)

G00 Z5.000000
G00 X100.065108 Y145.412336

G01 Z-0.125000 F100.0(Penetrate)
G01 X100.065108 Y135.412330 Z-0.125000 F400.000000
G00 Z5.000000

(End cutting path id: path51)


(Start cutting path id: path49)
(Change tool to Default tool)

G00 Z5.000000
G00 X97.488387 Y147.597953

G01 Z-0.125000 F100.0(Penetrate)
G01 X100.065108 Y145.412336 Z-0.125000 F400.000000
G00 Z5.000000

(End cutting path id: path49)


(Start cutting path id: path47)
(Change tool to Default tool)

G00 Z5.000000
G00 X95.065108 Y145.412336

G01 Z-0.125000 F100.0(Penetrate)
G01 X97.488387 Y147.597953 Z-0.125000 F400.000000
G00 Z5.000000

(End cutting path id: path47)


(Start cutting path id: path45)
(Change tool to Default tool)

G00 Z5.000000
G00 X95.065108 Y135.412330

G01 Z-0.125000 F100.0(Penetrate)
G01 X95.065108 Y145.412336 Z-0.125000 F400.000000
G00 Z5.000000

(End cutting path id: path45)


(Footer)
M5
G00 X0.0000 Y0.0000
M2
(Using default footer. To add your own footer create file "footer" in the output dir.)
(end)
%ir.)
(end)
%